scripts/analysis/ae-luts/cinematic-lut-17.cube
# extracted from the AE project's embedded Apply Color LUT device-link ICC
LUT_3D_SIZE 5
DOMAIN_MIN 0 0 0
DOMAIN_MAX 1 1 1
0.000000 0.000000 0.038361
0.240009 0.001572 0.040864
0.487160 0.002411 0.041703
0.735103 0.003037 0.042329
0.983413 0.003510 0.042802
0.007492 0.245945 0.046799
0.248417 0.248417 0.049271
0.492164 0.250462 0.048081
0.738750 0.251621 0.047364
0.986358 0.252384 0.047044
0.010269 0.495033 0.049561
0.254734 0.496422 0.052338
0.498344 0.498344 0.052888
0.743496 0.499931 0.052110
0.990112 0.501061 0.051316
0.012345 0.744427 0.051637
0.258305 0.745434 0.054047
0.503288 0.746853 0.055467
0.748379 0.748379 0.055589
0.994339 0.749676 0.055024
0.014069 0.993957 0.053361
0.260792 0.994751 0.055451
0.506813 0.995850 0.057069
0.752483 0.997147 0.057832
0.998413 0.998413 0.057816
0.000000 0.000000 0.277668
0.240879 0.002426 0.280171
0.486717 0.003326 0.284306
0.734493 0.003815 0.286671
0.982818 0.004211 0.288151
0.008362 0.246799 0.286091
0.249287 0.249287 0.288579
0.490257 0.251789 0.291096
0.737392 0.252628 0.291920
0.985321 0.253223 0.292531
0.011887 0.495277 0.292866
0.257679 0.496147 0.296986
0.498650 0.498650 0.299489
0.742397 0.500710 0.298299
0.988968 0.501839 0.297581
0.013840 0.744503 0.296681
0.260472 0.745251 0.299763
0.504967 0.746670 0.302556
0.748577 0.748577 0.303105
0.993729 0.750164 0.302327
0.015396 0.994003 0.299336
0.262531 0.994629 0.301839
0.508522 0.995651 0.304265
0.753506 0.997070 0.305684
0.998596 0.998596 0.305791
0.000214 0.000214 0.524269
0.243809 0.002121 0.524804
0.488304 0.003555 0.527611
0.734981 0.004303 0.530709
0.982834 0.004746 0.533074
0.006409 0.248096 0.529091
0.250141 0.250141 0.527901
0.491096 0.252644 0.530404
0.736934 0.253529 0.534524
0.984695 0.254017 0.536873
0.011429 0.496178 0.535470
0.258534 0.497002 0.536294
0.499504 0.499504 0.538796
0.740475 0.502007 0.541314
0.987610 0.502831 0.542123
0.014313 0.744991 0.540719
0.262074 0.745480 0.543069
0.507897 0.746365 0.547204
0.748867 0.748867 0.549706
0.992599 0.750896 0.548501
0.016190 0.994278 0.544518
0.264027 0.994720 0.546883
0.510689 0.995468 0.549996
0.755184 0.996887 0.552789
0.998810 0.998810 0.553338
0.000427 0.000427 0.771801
0.245487 0.001953 0.771923
0.490471 0.003357 0.773342
0.736461 0.004395 0.775769
0.983627 0.005020 0.778271
0.005295 0.248844 0.775265
0.250431 0.250431 0.774487
0.494041 0.252338 0.775036
0.738537 0.253758 0.777829
0.985183 0.254490 0.780911
0.010056 0.497169 0.780026
0.256596 0.498299 0.779294
0.500359 0.500359 0.778103
0.741329 0.502861 0.780621
0.987137 0.503746 0.784741
0.013703 0.745769 0.785077
0.261616 0.746380 0.785687
0.508751 0.747219 0.786511
0.749722 0.749722 0.789014
0.990661 0.752209 0.791501
0.016205 0.994812 0.789456
0.264515 0.995209 0.790936
0.512291 0.995697 0.793286
0.758129 0.996582 0.797421
0.999100 0.999100 0.799939
0.000595 0.000595 1.000000
0.246525 0.001877 1.000000
0.492195 0.003159 1.000000
0.738216 0.004257 1.000000
0.984955 0.005066 1.000000
0.004685 0.249332 1.000000
0.250645 0.250645 1.000000
0.495720 0.252155 1.000000
0.740703 0.253574 1.000000
0.986664 0.254566 1.000000
0.008881 0.497917 1.000000
0.255482 0.499046 1.000000
0.500633 0.500633 1.000000
0.744274 0.502571 1.000000
0.988754 0.503975 1.000000
0.012665 0.746609 1.000000
0.260258 0.747387 1.000000
0.506844 0.748547 1.000000
0.750591 0.750591 1.000000
0.991516 0.753063 1.000000
0.015625 0.995514 1.000000
0.263890 0.995987 1.000000
0.511849 0.996612 1.000000
0.758984 0.997452 1.000000
0.999969 0.999969 1.000000
