scripts/analysis/ae-luts/cinematic-lut-17.cube
# extracted from the AE project's embedded Apply Color LUT device-link ICC
LUT_3D_SIZE 9
DOMAIN_MIN 0 0 0
DOMAIN_MAX 1 1 1
0.000000 0.000000 0.038361
0.117189 0.000946 0.040253
0.240009 0.001572 0.040864
0.363439 0.002029 0.041321
0.487160 0.002411 0.041703
0.611078 0.002731 0.042023
0.735103 0.003037 0.042329
0.859236 0.003296 0.042603
0.983413 0.003510 0.042802
0.005432 0.121675 0.044724
0.123537 0.123537 0.046601
0.243778 0.125078 0.045670
0.366186 0.125933 0.045121
0.489372 0.126528 0.044892
0.612970 0.127001 0.044816
0.736782 0.127398 0.044831
0.860746 0.127718 0.044862
0.984802 0.127993 0.044907
0.007492 0.245945 0.046799
0.128267 0.246983 0.048875
0.248417 0.248417 0.049271
0.369726 0.249607 0.048676
0.492164 0.250462 0.048081
0.615259 0.251102 0.047654
0.738750 0.251621 0.047364
0.862470 0.252049 0.047181
0.986358 0.252384 0.047044
0.009033 0.370443 0.048325
0.130907 0.371160 0.050095
0.252094 0.372229 0.051164
0.373358 0.373358 0.051240
0.495293 0.374350 0.050813
0.617914 0.375143 0.050309
0.741024 0.375784 0.049851
0.864469 0.376318 0.049500
0.988144 0.376745 0.049226
0.010269 0.495033 0.049561
0.132769 0.495613 0.051133
0.254734 0.496422 0.052338
0.376440 0.497383 0.052903
0.498344 0.498344 0.052888
0.620691 0.499199 0.052552
0.743496 0.499931 0.052110
0.866682 0.500557 0.051713
0.990112 0.501061 0.051316
0.011368 0.619715 0.050675
0.134249 0.620203 0.052064
0.256718 0.620874 0.053269
0.378897 0.621668 0.054047
0.501030 0.622522 0.054383
0.623362 0.623362 0.054322
0.745998 0.624125 0.054047
0.868971 0.624796 0.053681
0.992203 0.625360 0.053285
0.012345 0.744427 0.051637
0.135470 0.744869 0.052903
0.258305 0.745434 0.054047
0.380865 0.746105 0.054932
0.503288 0.746853 0.055467
0.625742 0.747631 0.055665
0.748379 0.748379 0.055589
0.871244 0.749065 0.055360
0.994339 0.749676 0.055024
0.013230 0.869169 0.052522
0.136538 0.869566 0.053681
0.259617 0.870054 0.054765
0.382483 0.870634 0.055665
0.505180 0.871290 0.056321
0.627832 0.871992 0.056703
0.750530 0.872709 0.056825
0.873381 0.873381 0.056748
0.996414 0.874022 0.056535
0.014069 0.993957 0.053361
0.137514 0.994324 0.054429
0.260792 0.994751 0.055451
0.383886 0.995285 0.056352
0.506813 0.995850 0.057069
0.629648 0.996490 0.057572
0.752483 0.997147 0.057832
0.875395 0.997803 0.057908
0.998413 0.998413 0.057816
0.000000 0.000000 0.155245
0.117845 0.001602 0.157137
0.239673 0.002258 0.160250
0.362982 0.002625 0.162036
0.486717 0.002930 0.163165
0.610651 0.003204 0.163973
0.734707 0.003449 0.164614
0.858869 0.003693 0.165133
0.983078 0.003876 0.165560
0.006073 0.122301 0.161593
0.124193 0.124193 0.163485
0.242329 0.126070 0.165362
0.365148 0.126696 0.165988
0.488579 0.127153 0.166445
0.612299 0.127535 0.166827
0.736202 0.127855 0.167147
0.860243 0.128145 0.167437
0.984360 0.128405 0.167697
0.008713 0.246113 0.166705
0.130510 0.246769 0.169802
0.248646 0.248646 0.171695
0.368902 0.250187 0.170779
0.491295 0.251057 0.170230
0.614496 0.251652 0.170001
0.738079 0.252110 0.169909
0.861891 0.252491 0.169909
0.985840 0.252811 0.169940
0.010163 0.370504 0.169558
0.132586 0.371038 0.171878
0.253391 0.372091 0.173983
0.373541 0.373541 0.174380
0.494850 0.374731 0.173785
0.617288 0.375586 0.173190
0.740383 0.376242 0.172763
0.863874 0.376745 0.172473
0.987594 0.377157 0.172274
0.011292 0.495064 0.171511
0.134112 0.495537 0.173404
0.256046 0.496284 0.175219
0.377234 0.497353 0.176287
0.498497 0.498497 0.176364
0.620432 0.499489 0.175937
0.743053 0.500282 0.175433
0.866163 0.500923 0.174975
0.989609 0.501442 0.174624
0.012284 0.619715 0.173053
0.135378 0.620142 0.174670
0.257908 0.620752 0.176257
0.379858 0.621561 0.177462
0.501564 0.622522 0.178027
0.623484 0.623484 0.178012
0.745830 0.624338 0.177661
0.868620 0.625055 0.177234
0.991791 0.625666 0.176806
0.013169 0.744427 0.174334
0.136461 0.744808 0.175753
0.259358 0.745327 0.177157
0.381827 0.745983 0.178363
0.504005 0.746777 0.179156
0.626139 0.747631 0.179477
0.748470 0.748470 0.179416
0.871122 0.749233 0.179141
0.994064 0.749889 0.178759
0.013993 0.869169 0.175448
0.137423 0.869505 0.176715
0.260563 0.869963 0.177981
0.383398 0.870527 0.179141
0.505959 0.871199 0.180026
0.628382 0.871946 0.180560
0.750835 0.872724 0.180743
0.873472 0.873472 0.180667
0.996338 0.874174 0.180438
0.014771 0.993957 0.176455
0.138323 0.994278 0.177615
0.261662 0.994690 0.178790
0.384756 0.995178 0.179873
0.507607 0.995758 0.180774
0.630289 0.996414 0.181430
0.752941 0.997116 0.181811
0.875654 0.997818 0.181918
0.998505 0.998505 0.181842
0.000000 0.000000 0.277668
0.120058 0.001358 0.278065
0.240879 0.002426 0.280171
0.363333 0.002991 0.282506
0.486717 0.003326 0.284306
0.610498 0.003586 0.285649
0.734493 0.003815 0.286671
0.858625 0.004028 0.287480
0.982818 0.004211 0.288151
0.004593 0.123293 0.281300
0.124834 0.124834 0.280369
0.242969 0.126711 0.282261
0.364797 0.127382 0.285374
0.488106 0.127733 0.287160
0.611826 0.128038 0.288273
0.735775 0.128313 0.289097
0.859831 0.128557 0.289738
0.983963 0.128771 0.290242
0.008362 0.246799 0.286091
0.131151 0.247410 0.286702
0.249287 0.249287 0.288579
0.367422 0.251179 0.290471
0.490257 0.251789 0.291096
0.613672 0.252247 0.291539
0.737392 0.252628 0.291920
0.861295 0.252949 0.292241
0.985321 0.253223 0.292531
0.010529 0.370871 0.290043
0.133791 0.371206 0.291798
0.255604 0.371862 0.294911
0.373754 0.373754 0.296803
0.493996 0.375296 0.295872
0.616403 0.376150 0.295323
0.739590 0.376745 0.295094
0.863172 0.377203 0.295018
0.986984 0.377584 0.295003
0.011887 0.495277 0.292866
0.135241 0.495598 0.294652
0.257679 0.496147 0.296986
0.378500 0.497215 0.299092
0.498650 0.498650 0.299489
0.619959 0.499840 0.298894
0.742397 0.500710 0.298299
0.865507 0.501350 0.297871
0.988968 0.501839 0.297581
0.012940 0.619852 0.294987
0.136370 0.620172 0.296620
0.259220 0.620645 0.298512
0.381170 0.621408 0.300343
0.502342 0.622461 0.301396
0.623606 0.623606 0.301488
0.745541 0.624598 0.301045
0.868162 0.625391 0.300526
0.991257 0.626017 0.300069
0.013840 0.744503 0.296681
0.137362 0.744823 0.298146
0.260472 0.745251 0.299763
0.383001 0.745846 0.301350
0.504967 0.746670 0.302556
0.626673 0.747616 0.303120
0.748577 0.748577 0.303105
0.870939 0.749447 0.302770
0.993729 0.750164 0.302327
0.014633 0.869230 0.298085
0.138231 0.869505 0.299413
0.261555 0.869902 0.300847
0.384451 0.870420 0.302266
0.506935 0.871092 0.303456
0.629114 0.871885 0.304250
0.751247 0.872740 0.304570
0.873579 0.873579 0.304509
0.996216 0.874342 0.304234
0.015396 0.994003 0.299336
0.139071 0.994278 0.300542
0.262531 0.994629 0.301839
0.385702 0.995087 0.303120
0.508522 0.995651 0.304265
0.631083 0.996323 0.305150
0.753506 0.997070 0.305684
0.875975 0.997848 0.305867
0.998596 0.998596 0.305791
0.000092 0.000092 0.400793
0.121324 0.001221 0.400870
0.242512 0.002289 0.401938
0.364462 0.003052 0.403754
0.487312 0.003540 0.405661
0.610773 0.003861 0.407294
0.734585 0.004120 0.408637
0.858595 0.004334 0.409735
0.982727 0.004517 0.410636
0.003723 0.123842 0.403372
0.125032 0.125032 0.402792
0.245182 0.126482 0.403189
0.366003 0.127550 0.405295
0.488457 0.128099 0.407630
0.611826 0.128435 0.409430
0.735622 0.128695 0.410773
0.859617 0.128923 0.411795
0.983734 0.129122 0.412589
0.007309 0.247532 0.406958
0.129671 0.248386 0.406394
0.249928 0.249928 0.405478
0.368063 0.251820 0.407370
0.489891 0.252476 0.410483
0.613199 0.252842 0.412253
0.736934 0.253132 0.413382
0.860853 0.253407 0.414191
0.984909 0.253635 0.414817
0.010040 0.371466 0.410758
0.133440 0.371893 0.411185
0.256245 0.372503 0.411795
0.374395 0.374395 0.413687
0.492531 0.376272 0.415579
0.615351 0.376898 0.416190
0.738781 0.377356 0.416648
0.862501 0.377722 0.417014
0.986389 0.378042 0.417334
0.011887 0.495674 0.414008
0.135592 0.495964 0.415137
0.258900 0.496315 0.416892
0.380728 0.496971 0.420020
0.498863 0.498863 0.421912
0.619104 0.500404 0.420981
0.741512 0.501274 0.420447
0.864714 0.501869 0.420218
0.988281 0.502312 0.420111
0.013214 0.620111 0.416648
0.136965 0.620371 0.417960
0.260334 0.620706 0.419760
0.382803 0.621256 0.422095
0.503609 0.622324 0.424201
0.623774 0.623774 0.424613
0.745083 0.624964 0.424018
0.867506 0.625803 0.423407
0.990585 0.626429 0.422965
0.014237 0.744701 0.418753
0.138018 0.744945 0.420081
0.261479 0.745266 0.421714
0.384329 0.745754 0.423621
0.506264 0.746502 0.425437
0.627451 0.747570 0.426505
0.748714 0.748714 0.426581
0.870649 0.749706 0.426154
0.993256 0.750484 0.425620
0.015091 0.869368 0.420493
0.138903 0.869596 0.421759
0.262455 0.869917 0.423239
0.385580 0.870344 0.424872
0.508110 0.870954 0.426459
0.630060 0.871763 0.427665
0.751781 0.872724 0.428229
0.873686 0.873686 0.428214
0.996033 0.874540 0.427878
0.015885 0.994110 0.422004
0.139727 0.994324 0.423194
0.263355 0.994629 0.424537
0.386679 0.995026 0.425971
0.509575 0.995544 0.427390
0.632059 0.996216 0.428580
0.754238 0.997009 0.429374
0.876371 0.997864 0.429694
0.998703 0.998703 0.429648
0.000214 0.000214 0.524269
0.122103 0.001175 0.524239
0.243809 0.002121 0.524804
0.365774 0.002945 0.526024
0.488304 0.003555 0.527611
0.611429 0.003983 0.529229
0.734981 0.004303 0.530709
0.858824 0.004547 0.531991
0.982834 0.004746 0.533074
0.003281 0.124208 0.526345
0.125200 0.125200 0.525917
0.246464 0.126329 0.525994
0.367636 0.127398 0.527062
0.489586 0.128161 0.528878
0.612436 0.128634 0.530785
0.735897 0.128969 0.532418
0.859709 0.129229 0.533761
0.983703 0.129427 0.534844
0.006409 0.248096 0.529091
0.128817 0.248951 0.528481
0.250141 0.250141 0.527901
0.370291 0.251575 0.528298
0.491096 0.252644 0.530404
0.613565 0.253193 0.532738
0.736934 0.253529 0.534524
0.860716 0.253788 0.535851
0.984695 0.254017 0.536873
0.009216 0.372061 0.532296
0.132387 0.372625 0.532052
0.254780 0.373495 0.531487
0.375036 0.375036 0.530587
0.493172 0.376913 0.532464
0.615000 0.377584 0.535592
0.738308 0.377935 0.537362
0.862028 0.378241 0.538476
0.985946 0.378500 0.539284
0.011429 0.496178 0.535470
0.135119 0.496544 0.535836
0.258534 0.497002 0.536294
0.381369 0.497612 0.536919
0.499504 0.499504 0.538796
0.617639 0.501381 0.540688
0.740475 0.502007 0.541314
0.863890 0.502464 0.541756
0.987610 0.502831 0.542123
0.013062 0.620508 0.538308
0.136980 0.620768 0.539117
0.260700 0.621057 0.540246
0.384009 0.621424 0.542016
0.505837 0.622095 0.545129
0.623987 0.623987 0.547021
0.744228 0.625513 0.546105
0.866621 0.626368 0.545556
0.989792 0.626947 0.545296
0.014313 0.744991 0.540719
0.138293 0.745220 0.541741
0.262074 0.745480 0.543069
0.385443 0.745815 0.544869
0.507897 0.746365 0.547204
0.628717 0.747433 0.549310
0.748867 0.748867 0.549706
0.870192 0.750057 0.549111
0.992599 0.750896 0.548501
0.015320 0.869581 0.542763
0.139300 0.869780 0.543847
0.263111 0.870039 0.545174
0.386572 0.870375 0.546822
0.509422 0.870848 0.548714
0.631373 0.871611 0.550546
0.752544 0.872679 0.551598
0.873808 0.873808 0.551675
0.995758 0.874800 0.551263
0.016190 0.994278 0.544518
0.140185 0.994461 0.545602
0.264027 0.994720 0.546883
0.387579 0.995041 0.548363
0.510689 0.995468 0.549996
0.633234 0.996078 0.551583
0.755184 0.996887 0.552789
0.876905 0.997848 0.553353
0.998810 0.998810 0.553338
0.000320 0.000320 0.647959
0.122637 0.001160 0.647898
0.244770 0.002014 0.648219
0.366949 0.002808 0.649012
0.489433 0.003479 0.650217
0.612329 0.003998 0.651637
0.735637 0.004379 0.653056
0.859281 0.004685 0.654398
0.983139 0.004913 0.655604
0.002991 0.124468 0.649729
0.125322 0.125322 0.649393
0.247227 0.126284 0.649378
0.368933 0.127245 0.649928
0.490898 0.128054 0.651148
0.613428 0.128664 0.652735
0.736553 0.129091 0.654353
0.860105 0.129412 0.655833
0.983932 0.129641 0.657099
0.005768 0.248524 0.651972
0.128359 0.249302 0.651438
0.250294 0.250294 0.651026
0.371557 0.251438 0.651102
0.492744 0.252491 0.652155
0.614679 0.253254 0.653986
0.737530 0.253742 0.655879
0.860990 0.254063 0.657511
0.984787 0.254307 0.658839
0.008438 0.372564 0.654643
0.131502 0.373205 0.654200
0.253925 0.374044 0.653590
0.375235 0.375235 0.652995
0.495384 0.376684 0.653391
0.616205 0.377752 0.655497
0.738659 0.378302 0.657832
0.862028 0.378637 0.659632
0.985809 0.378882 0.660945
0.010742 0.496696 0.657481
0.134295 0.497139 0.657389
0.257496 0.497734 0.657160
0.379904 0.498604 0.656611
0.500145 0.500145 0.655695
0.618280 0.502022 0.657572
0.740108 0.502693 0.660700
0.863416 0.503059 0.662470
0.987137 0.503334 0.663584
0.012619 0.620966 0.660258
0.136507 0.621286 0.660578
0.260227 0.621653 0.660945
0.383658 0.622110 0.661402
0.506477 0.622736 0.662028
0.624613 0.624613 0.663905
0.742748 0.626505 0.665797
0.865568 0.627115 0.666407
0.988983 0.627558 0.666850
0.014115 0.745373 0.662776
0.138155 0.745602 0.663416
0.262074 0.745876 0.664225
0.385809 0.746166 0.665339
0.509117 0.746532 0.667109
0.630945 0.747189 0.670237
0.749081 0.749081 0.672129
0.869337 0.750622 0.671214
0.991714 0.751476 0.670649
0.015290 0.869886 0.665003
0.139391 0.870085 0.665812
0.263386 0.870298 0.666835
0.387167 0.870573 0.668162
0.510552 0.870909 0.669963
0.633005 0.871458 0.672297
0.753826 0.872526 0.674403
0.873976 0.873976 0.674800
0.995285 0.875166 0.674220
0.016297 0.994522 0.666972
0.140414 0.994690 0.667872
0.264424 0.994903 0.668956
0.388235 0.995163 0.670314
0.511696 0.995483 0.671946
0.634546 0.995972 0.673838
0.756497 0.996735 0.675669
0.877668 0.997803 0.676722
0.998932 0.998932 0.676814
0.000427 0.000427 0.771801
0.123033 0.001175 0.771725
0.245487 0.001953 0.771923
0.367910 0.002686 0.772457
0.490471 0.003357 0.773342
0.613306 0.003937 0.774487
0.736461 0.004395 0.775769
0.859922 0.004746 0.777050
0.983627 0.005020 0.778271
0.002808 0.124666 0.773358
0.125429 0.125429 0.773083
0.247761 0.126268 0.773022
0.369894 0.127123 0.773342
0.492073 0.127916 0.774136
0.614557 0.128588 0.775341
0.737453 0.129107 0.776761
0.860761 0.129488 0.778180
0.984390 0.129778 0.779507
0.005295 0.248844 0.775265
0.128069 0.249561 0.774823
0.250431 0.250431 0.774487
0.372335 0.251377 0.774472
0.494041 0.252338 0.775036
0.616007 0.253162 0.776242
0.738537 0.253758 0.777829
0.861646 0.254185 0.779446
0.985183 0.254490 0.780911
0.007767 0.372992 0.777523
0.130846 0.373617 0.777066
0.253452 0.374411 0.776547
0.375387 0.375387 0.776120
0.496666 0.376547 0.776196
0.617838 0.377600 0.777264
0.739788 0.378363 0.779080
0.862638 0.378836 0.780987
0.986084 0.379156 0.782605
0.010056 0.497169 0.780026
0.133501 0.497658 0.779721
0.256596 0.498299 0.779294
0.379049 0.499168 0.778698
0.500359 0.500359 0.778103
0.620508 0.501793 0.778500
0.741329 0.502861 0.780621
0.863767 0.503410 0.782940
0.987137 0.503746 0.784741
0.012039 0.621424 0.782589
0.135821 0.621790 0.782589
0.259403 0.622248 0.782498
0.382605 0.622858 0.782269
0.505013 0.623713 0.781720
0.625254 0.625254 0.780804
0.743389 0.627146 0.782696
0.865217 0.627802 0.785809
0.988510 0.628138 0.787564
0.013703 0.745769 0.785077
0.137713 0.746059 0.785351
0.261616 0.746380 0.785687
0.385336 0.746761 0.786053
0.508751 0.747219 0.786511
0.631586 0.747829 0.787121
0.749722 0.749722 0.789014
0.867857 0.751598 0.790890
0.990661 0.752209 0.791501
0.015061 0.870237 0.787366
0.139178 0.870451 0.787869
0.263233 0.870695 0.788495
0.387182 0.870970 0.789319
0.510903 0.871275 0.790448
0.634211 0.871626 0.792218
0.756039 0.872297 0.795331
0.874174 0.874174 0.797223
0.994430 0.875715 0.796307
0.016205 0.994812 0.789456
0.140383 0.994995 0.790112
0.264515 0.995209 0.790936
0.388510 0.995438 0.791958
0.512291 0.995697 0.793286
0.635660 0.996033 0.795087
0.758129 0.996582 0.797421
0.878950 0.997650 0.799527
0.999100 0.999100 0.799939
0.000519 0.000519 0.895750
0.123354 0.001190 0.895674
0.246067 0.001907 0.895796
0.368704 0.002609 0.896162
0.491402 0.003250 0.896818
0.614267 0.003845 0.897734
0.737346 0.004334 0.898817
0.860685 0.004746 0.899977
0.984253 0.005066 0.901152
0.002686 0.124849 0.897169
0.125536 0.125536 0.896925
0.248157 0.126284 0.896849
0.370626 0.127062 0.897047
0.493050 0.127810 0.897581
0.615595 0.128481 0.898466
0.738430 0.129046 0.899611
0.861585 0.129503 0.900893
0.985031 0.129839 0.902159
0.004944 0.249104 0.898833
0.127886 0.249775 0.898451
0.250538 0.250538 0.898192
0.372869 0.251377 0.898131
0.495003 0.252232 0.898451
0.617182 0.253025 0.899245
0.739651 0.253681 0.900435
0.862547 0.254200 0.901839
0.985855 0.254582 0.903273
0.007233 0.373342 0.900801
0.130373 0.373938 0.900374
0.253178 0.374670 0.899931
0.375525 0.375525 0.899596
0.497429 0.376486 0.899580
0.619135 0.377447 0.900145
0.741100 0.378256 0.901350
0.863630 0.378866 0.902937
0.986740 0.379278 0.904540
0.009430 0.497566 0.902983
0.132845 0.498085 0.902617
0.255955 0.498726 0.902174
0.378576 0.499519 0.901671
0.500511 0.500511 0.901228
0.621775 0.501656 0.901305
0.742962 0.502724 0.902373
0.864897 0.503471 0.904189
0.987732 0.503944 0.906081
0.011429 0.621851 0.905318
0.135134 0.622263 0.905119
0.258610 0.622766 0.904829
0.381720 0.623423 0.904417
0.504158 0.624277 0.903807
0.625467 0.625467 0.903212
0.745617 0.626902 0.903624
0.866423 0.627970 0.905715
0.988861 0.628504 0.908034
0.013184 0.746181 0.907652
0.137118 0.746517 0.907698
0.260929 0.746899 0.907683
0.384512 0.747356 0.907607
0.507713 0.747951 0.907378
0.630106 0.748821 0.906828
0.750362 0.750362 0.905913
0.868498 0.752239 0.907790
0.990311 0.752895 0.910903
0.014679 0.870619 0.909911
0.138766 0.870863 0.910155
0.262791 0.871153 0.910445
0.386709 0.871473 0.910765
0.510430 0.871855 0.911162
0.633860 0.872313 0.911604
0.756680 0.872938 0.912230
0.874815 0.874815 0.914122
0.992950 0.876707 0.915999
0.015961 0.995148 0.912032
0.140139 0.995346 0.912459
0.264302 0.995575 0.912993
0.388357 0.995819 0.913619
0.512306 0.996094 0.914443
0.636027 0.996399 0.915572
0.759335 0.996750 0.917342
0.881163 0.997421 0.920455
0.999313 0.999313 0.922347
0.000595 0.000595 1.000000
0.123613 0.001236 1.000000
0.246525 0.001877 1.000000
0.369360 0.002533 1.000000
0.492195 0.003159 1.000000
0.615122 0.003754 1.000000
0.738216 0.004257 1.000000
0.861494 0.004700 1.000000
0.984955 0.005066 1.000000
0.002609 0.124987 1.000000
0.125612 0.125612 1.000000
0.248478 0.126314 1.000000
0.371191 0.127016 1.000000
0.493828 0.127703 1.000000
0.616526 0.128359 1.000000
0.739391 0.128954 1.000000
0.862470 0.129442 1.000000
0.985794 0.129824 1.000000
0.004685 0.249332 1.000000
0.127764 0.249943 1.000000
0.250645 0.250645 1.000000
0.373251 0.251377 1.000000
0.495720 0.252155 1.000000
0.618143 0.252903 1.000000
0.740703 0.253574 1.000000
0.863523 0.254139 1.000000
0.986664 0.254566 1.000000
0.006821 0.373648 1.000000
0.130037 0.374212 1.000000
0.253010 0.374884 1.000000
0.375647 0.375647 1.000000
0.497963 0.376471 1.000000
0.620111 0.377340 1.000000
0.742290 0.378134 1.000000
0.864759 0.378790 1.000000
0.987655 0.379309 1.000000
0.008881 0.497917 1.000000
0.132311 0.498421 1.000000
0.255482 0.499046 1.000000
0.378286 0.499779 1.000000
0.500633 0.500633 1.000000
0.622538 0.501595 1.000000
0.744274 0.502571 1.000000
0.866239 0.503395 1.000000
0.988754 0.503975 1.000000
0.010880 0.622263 1.000000
0.134524 0.622690 1.000000
0.257984 0.623224 1.000000
0.381079 0.623850 1.000000
0.503716 0.624659 1.000000
0.625650 0.625650 1.000000
0.746899 0.626780 1.000000
0.868070 0.627832 1.000000
0.989990 0.628565 1.000000
0.012665 0.746609 1.000000
0.136538 0.746975 1.000000
0.260258 0.747387 1.000000
0.383749 0.747906 1.000000
0.506844 0.748547 1.000000
0.629282 0.749401 1.000000
0.750591 0.750591 1.000000
0.870741 0.752026 1.000000
0.991516 0.753063 1.000000
0.014206 0.871000 1.000000
0.138247 0.871275 1.000000
0.262226 0.871626 1.000000
0.386038 0.872007 1.000000
0.509636 0.872480 1.000000
0.632822 0.873060 1.000000
0.755230 0.873945 1.000000
0.875471 0.875486 1.000000
0.993591 0.877333 1.000000
0.015625 0.995514 1.000000
0.139773 0.995727 1.000000
0.263890 0.995987 1.000000
0.387930 0.996277 1.000000
0.511849 0.996612 1.000000
0.635569 0.996994 1.000000
0.758984 0.997452 1.000000
0.881819 0.998077 1.000000
0.999969 0.999969 1.000000
