scripts/analysis/ae-luts/cinematic-lut-17.cube
# extracted from the AE project's embedded Apply Color LUT device-link ICC
LUT_3D_SIZE 33
DOMAIN_MIN 0 0 0
DOMAIN_MAX 1 1 1
0.000000 0.000000 0.038361
0.026352 0.000137 0.039429
0.056336 0.000488 0.039780
0.086687 0.000748 0.040040
0.117189 0.000946 0.040253
0.147799 0.001129 0.040421
0.178485 0.001297 0.040589
0.209232 0.001434 0.040726
0.240009 0.001572 0.040864
0.270832 0.001694 0.040986
0.301686 0.001816 0.041108
0.332555 0.001923 0.041215
0.363439 0.002029 0.041321
0.394339 0.002121 0.041428
0.425269 0.002228 0.041520
0.456214 0.002319 0.041611
0.487160 0.002411 0.041703
0.518135 0.002487 0.041794
0.549096 0.002579 0.041871
0.580072 0.002655 0.041947
0.611078 0.002731 0.042023
0.642069 0.002808 0.042115
0.673075 0.002884 0.042176
0.704082 0.002960 0.042252
0.735103 0.003037 0.042329
0.766140 0.003098 0.042390
0.797162 0.003174 0.042466
0.828199 0.003235 0.042527
0.859236 0.003296 0.042603
0.890272 0.003357 0.042649
0.921324 0.003418 0.042710
0.952361 0.003464 0.042756
0.983413 0.003510 0.042802
0.002701 0.028916 0.042008
0.029969 0.029969 0.043061
0.058488 0.030854 0.042527
0.088228 0.031327 0.042191
0.118425 0.031662 0.042054
0.148867 0.031922 0.041993
0.179416 0.032136 0.041993
0.210071 0.032334 0.042008
0.240772 0.032486 0.042039
0.271550 0.032639 0.042084
0.302342 0.032776 0.042130
0.333181 0.032914 0.042191
0.364034 0.033021 0.042252
0.394903 0.033127 0.042298
0.425803 0.033249 0.042359
0.456733 0.033341 0.042420
0.487663 0.033448 0.042481
0.518608 0.033539 0.042542
0.549569 0.033631 0.042603
0.580529 0.033722 0.042649
0.611505 0.033799 0.042710
0.642496 0.033890 0.042771
0.673487 0.033967 0.042817
0.704494 0.034043 0.042878
0.735500 0.034119 0.042939
0.766506 0.034195 0.042985
0.797543 0.034272 0.043046
0.828565 0.034333 0.043091
0.859602 0.034409 0.043153
0.890623 0.034455 0.043198
0.921660 0.034516 0.043244
0.952697 0.034577 0.043275
0.983734 0.034623 0.043320
0.003876 0.059724 0.043168
0.032685 0.060319 0.044358
0.061128 0.061128 0.044572
0.090242 0.061799 0.044221
0.120027 0.062287 0.043870
0.150164 0.062654 0.043610
0.180545 0.062943 0.043442
0.211063 0.063172 0.043336
0.241672 0.063386 0.043259
0.272358 0.063569 0.043229
0.303090 0.063737 0.043198
0.333867 0.063874 0.043183
0.364691 0.064012 0.043198
0.395529 0.064149 0.043198
0.426398 0.064271 0.043229
0.457282 0.064378 0.043244
0.488197 0.064485 0.043275
0.519112 0.064591 0.043305
0.550057 0.064683 0.043336
0.581003 0.064790 0.043366
0.611963 0.064881 0.043397
0.642939 0.064973 0.043442
0.673915 0.065049 0.043473
0.704906 0.065141 0.043519
0.735912 0.065217 0.043565
0.766918 0.065293 0.043595
0.797925 0.065370 0.043641
0.828946 0.065446 0.043671
0.859968 0.065507 0.043717
0.890990 0.065583 0.043748
0.922011 0.065644 0.043778
0.953048 0.065705 0.043809
0.984070 0.065751 0.043839
0.004730 0.090669 0.044022
0.034195 0.091081 0.045045
0.063233 0.091676 0.045655
0.092317 0.092317 0.045686
0.121798 0.092882 0.045426
0.151675 0.093339 0.045121
0.181842 0.093690 0.044862
0.212192 0.093996 0.044648
0.242679 0.094240 0.044495
0.273259 0.094453 0.044373
0.303929 0.094652 0.044282
0.334646 0.094835 0.044205
0.365408 0.094987 0.044160
0.396201 0.095125 0.044114
0.427024 0.095262 0.044099
0.457893 0.095399 0.044083
0.488762 0.095521 0.044083
0.519661 0.095628 0.044083
0.550576 0.095750 0.044083
0.581506 0.095842 0.044083
0.612451 0.095949 0.044099
0.643412 0.096040 0.044114
0.674372 0.096132 0.044144
0.705348 0.096223 0.044160
0.736339 0.096300 0.044190
0.767330 0.096391 0.044205
0.798337 0.096468 0.044236
0.829328 0.096544 0.044266
0.860349 0.096620 0.044297
0.891371 0.096696 0.044312
0.922377 0.096757 0.044327
0.953399 0.096818 0.044343
0.984421 0.096864 0.044373
0.005432 0.121675 0.044724
0.035233 0.121996 0.045624
0.064714 0.122454 0.046296
0.094072 0.122988 0.046616
0.123537 0.123537 0.046601
0.153246 0.124010 0.046387
0.183230 0.124422 0.046128
0.213428 0.124773 0.045884
0.243778 0.125078 0.045670
0.274266 0.125338 0.045502
0.304845 0.125566 0.045350
0.335470 0.125750 0.045228
0.366186 0.125933 0.045121
0.396933 0.126101 0.045045
0.427710 0.126253 0.044984
0.458534 0.126406 0.044938
0.489372 0.126528 0.044892
0.520241 0.126665 0.044862
0.551141 0.126772 0.044846
0.582040 0.126894 0.044831
0.612970 0.127001 0.044816
0.643900 0.127108 0.044816
0.674846 0.127199 0.044816
0.705821 0.127306 0.044816
0.736782 0.127398 0.044831
0.767758 0.127474 0.044831
0.798749 0.127565 0.044846
0.829755 0.127657 0.044862
0.860746 0.127718 0.044862
0.891752 0.127810 0.044877
0.922774 0.127871 0.044892
0.953780 0.127932 0.044892
0.984802 0.127993 0.044907
0.006043 0.152712 0.045335
0.036042 0.152987 0.046128
0.065843 0.153353 0.046799
0.095445 0.153796 0.047242
0.125048 0.154284 0.047425
0.154757 0.154757 0.047379
0.184634 0.155184 0.047211
0.214725 0.155566 0.046998
0.244953 0.155886 0.046769
0.275334 0.156176 0.046555
0.305806 0.156435 0.046387
0.336385 0.156664 0.046220
0.367025 0.156878 0.046082
0.397711 0.157061 0.045960
0.428443 0.157229 0.045869
0.459220 0.157397 0.045792
0.490028 0.157534 0.045716
0.520867 0.157671 0.045655
0.551736 0.157809 0.045609
0.582605 0.157931 0.045563
0.613504 0.158038 0.045533
0.644419 0.158160 0.045518
0.675349 0.158267 0.045487
0.706294 0.158358 0.045472
0.737255 0.158465 0.045457
0.768215 0.158556 0.045457
0.799191 0.158648 0.045457
0.830182 0.158740 0.045457
0.861173 0.158831 0.045457
0.892164 0.158907 0.045457
0.923156 0.158968 0.045441
0.954162 0.159030 0.045441
0.985168 0.159106 0.045441
0.006577 0.183780 0.045884
0.036744 0.184024 0.046586
0.066682 0.184298 0.047196
0.096529 0.184665 0.047684
0.126284 0.185092 0.047990
0.156069 0.185519 0.048096
0.185946 0.185946 0.048051
0.215961 0.186343 0.047898
0.246113 0.186694 0.047715
0.276402 0.186999 0.047517
0.306798 0.187289 0.047318
0.337301 0.187533 0.047135
0.367864 0.187762 0.046983
0.398505 0.187976 0.046830
0.429191 0.188159 0.046708
0.459922 0.188327 0.046586
0.490684 0.188495 0.046494
0.521492 0.188647 0.046418
0.552316 0.188800 0.046342
0.583169 0.188922 0.046281
0.614054 0.189059 0.046235
0.644938 0.189166 0.046174
0.675853 0.189288 0.046143
0.706767 0.189395 0.046098
0.737713 0.189502 0.046082
0.768658 0.189609 0.046052
0.799619 0.189700 0.046036
0.830594 0.189792 0.046021
0.861570 0.189883 0.046006
0.892546 0.189960 0.045991
0.923537 0.190036 0.045975
0.954528 0.190112 0.045960
0.985534 0.190188 0.045960
0.007050 0.214847 0.046342
0.037308 0.215061 0.046998
0.067445 0.215320 0.047593
0.097444 0.215640 0.048112
0.127352 0.216007 0.048463
0.157244 0.216403 0.048676
0.187167 0.216785 0.048737
0.217182 0.217182 0.048676
0.247288 0.217533 0.048554
0.277516 0.217868 0.048386
0.307851 0.218173 0.048203
0.338277 0.218433 0.048020
0.368780 0.218677 0.047852
0.399359 0.218906 0.047700
0.429999 0.219120 0.047547
0.460685 0.219303 0.047410
0.491417 0.219486 0.047303
0.522179 0.219638 0.047181
0.552972 0.219806 0.047089
0.583795 0.219944 0.047013
0.614649 0.220081 0.046937
0.645518 0.220218 0.046876
0.676402 0.220340 0.046815
0.707301 0.220447 0.046769
0.738216 0.220569 0.046723
0.769146 0.220676 0.046693
0.800107 0.220783 0.046662
0.831052 0.220874 0.046632
0.862013 0.220966 0.046601
0.892988 0.221057 0.046571
0.923964 0.221134 0.046540
0.954955 0.221225 0.046525
0.985946 0.221302 0.046509
0.007492 0.245945 0.046799
0.037842 0.246143 0.047395
0.068086 0.246372 0.047974
0.098222 0.246662 0.048478
0.128267 0.246983 0.048875
0.158267 0.247318 0.049134
0.188266 0.247700 0.049287
0.218311 0.248066 0.049317
0.248417 0.248417 0.049271
0.278599 0.248737 0.049149
0.308888 0.249058 0.048997
0.339269 0.249348 0.048844
0.369726 0.249607 0.048676
0.400259 0.249851 0.048508
0.430838 0.250065 0.048356
0.461479 0.250278 0.048203
0.492164 0.250462 0.048081
0.522896 0.250645 0.047959
0.553658 0.250813 0.047837
0.584451 0.250965 0.047745
0.615259 0.251102 0.047654
0.646113 0.251255 0.047578
0.676967 0.251377 0.047501
0.707851 0.251499 0.047425
0.738750 0.251621 0.047364
0.769665 0.251728 0.047318
0.800580 0.251835 0.047257
0.831525 0.251942 0.047227
0.862470 0.252049 0.047181
0.893431 0.252140 0.047135
0.924407 0.252232 0.047105
0.955367 0.252308 0.047074
0.986358 0.252384 0.047044
0.007919 0.277058 0.047211
0.038331 0.277226 0.047776
0.068666 0.277455 0.048310
0.098894 0.277699 0.048798
0.129046 0.277989 0.049226
0.159152 0.278294 0.049531
0.189227 0.278630 0.049744
0.219318 0.278981 0.049851
0.249454 0.279316 0.049866
0.279637 0.279637 0.049805
0.309911 0.279957 0.049699
0.340246 0.280247 0.049561
0.370657 0.280522 0.049424
0.401144 0.280781 0.049271
0.431678 0.281010 0.049104
0.462287 0.281224 0.048951
0.492927 0.281437 0.048814
0.523629 0.281621 0.048692
0.554345 0.281804 0.048569
0.585107 0.281971 0.048447
0.615900 0.282124 0.048341
0.646723 0.282277 0.048249
0.677562 0.282414 0.048157
0.708415 0.282536 0.048081
0.739300 0.282673 0.048005
0.770184 0.282795 0.047944
0.801099 0.282902 0.047883
0.832029 0.283009 0.047822
0.862959 0.283116 0.047776
0.893904 0.283223 0.047730
0.924849 0.283314 0.047669
0.955810 0.283406 0.047639
0.986786 0.283497 0.047593
0.008301 0.308171 0.047608
0.038773 0.308339 0.048127
0.069169 0.308537 0.048646
0.099504 0.308766 0.049119
0.129747 0.309026 0.049531
0.159945 0.309316 0.049882
0.190097 0.309621 0.050126
0.220249 0.309941 0.050294
0.250416 0.310262 0.050370
0.280629 0.310582 0.050370
0.310887 0.310887 0.050324
0.341207 0.311177 0.050217
0.371588 0.311452 0.050095
0.402045 0.311727 0.049958
0.432547 0.311971 0.049821
0.463111 0.312200 0.049668
0.493721 0.312413 0.049531
0.524376 0.312612 0.049393
0.555062 0.312795 0.049256
0.585794 0.312978 0.049134
0.616556 0.313146 0.049027
0.647349 0.313298 0.048920
0.678172 0.313436 0.048814
0.709010 0.313588 0.048722
0.739864 0.313710 0.048631
0.770733 0.313848 0.048554
0.801633 0.313970 0.048493
0.832532 0.314076 0.048417
0.863462 0.314199 0.048356
0.894377 0.314290 0.048295
0.925322 0.314397 0.048249
0.956268 0.314488 0.048188
0.987228 0.314580 0.048142
0.008682 0.339315 0.047974
0.039200 0.339467 0.048478
0.069657 0.339651 0.048966
0.100038 0.339849 0.049424
0.130373 0.340093 0.049836
0.160632 0.340352 0.050187
0.190875 0.340627 0.050477
0.221088 0.340932 0.050675
0.251301 0.341238 0.050813
0.281544 0.341543 0.050858
0.311803 0.341833 0.050858
0.342123 0.342123 0.050797
0.372503 0.342412 0.050721
0.402930 0.342672 0.050599
0.433402 0.342916 0.050477
0.463935 0.343160 0.050340
0.494514 0.343389 0.050202
0.525139 0.343587 0.050065
0.555810 0.343786 0.049928
0.586511 0.343984 0.049805
0.617243 0.344152 0.049683
0.648005 0.344305 0.049561
0.678798 0.344472 0.049470
0.709606 0.344625 0.049363
0.740444 0.344762 0.049256
0.771298 0.344900 0.049180
0.802167 0.345022 0.049088
0.833066 0.345144 0.049012
0.863966 0.345266 0.048936
0.894881 0.345373 0.048875
0.925811 0.345480 0.048814
0.956741 0.345571 0.048753
0.987686 0.345678 0.048692
0.009033 0.370443 0.048325
0.039582 0.370596 0.048814
0.070100 0.370764 0.049271
0.100542 0.370962 0.049714
0.130907 0.371160 0.050095
0.161257 0.371405 0.050477
0.191562 0.371664 0.050767
0.221836 0.371939 0.050996
0.252094 0.372229 0.051164
0.282368 0.372519 0.051270
0.312657 0.372793 0.051301
0.342992 0.373083 0.051301
0.373358 0.373358 0.051240
0.403769 0.373632 0.051164
0.434241 0.373877 0.051057
0.464744 0.374121 0.050950
0.495293 0.374350 0.050813
0.525902 0.374563 0.050690
0.556527 0.374777 0.050553
0.587213 0.374960 0.050431
0.617914 0.375143 0.050309
0.648661 0.375326 0.050187
0.679423 0.375479 0.050065
0.710216 0.375647 0.049958
0.741024 0.375784 0.049851
0.771862 0.375937 0.049760
0.802716 0.376059 0.049668
0.833585 0.376196 0.049592
0.864469 0.376318 0.049500
0.895384 0.376440 0.049424
0.926284 0.376547 0.049363
0.957214 0.376638 0.049287
0.988144 0.376745 0.049226
0.009354 0.401572 0.048646
0.039948 0.401709 0.049104
0.070497 0.401877 0.049546
0.100984 0.402060 0.049989
0.131441 0.402258 0.050385
0.161837 0.402487 0.050736
0.192203 0.402731 0.051057
0.222522 0.402976 0.051316
0.252842 0.403250 0.051499
0.283146 0.403525 0.051637
0.313481 0.403799 0.051713
0.343816 0.404074 0.051743
0.374197 0.404349 0.051728
0.404608 0.404608 0.051682
0.435050 0.404852 0.051606
0.465553 0.405112 0.051514
0.496086 0.405341 0.051408
0.526665 0.405554 0.051286
0.557275 0.405768 0.051164
0.587930 0.405966 0.051026
0.618616 0.406165 0.050919
0.649332 0.406332 0.050797
0.680064 0.406500 0.050675
0.710842 0.406668 0.050568
0.741634 0.406836 0.050462
0.772457 0.406973 0.050355
0.803296 0.407126 0.050263
0.834134 0.407248 0.050156
0.865019 0.407385 0.050080
0.895903 0.407507 0.049989
0.926802 0.407614 0.049912
0.957702 0.407721 0.049836
0.988617 0.407828 0.049760
0.009674 0.432731 0.048966
0.040299 0.432853 0.049409
0.070878 0.433005 0.049836
0.101427 0.433188 0.050248
0.131914 0.433371 0.050645
0.162371 0.433585 0.051011
0.192782 0.433799 0.051316
0.223163 0.434043 0.051591
0.253529 0.434287 0.051804
0.283879 0.434562 0.051972
0.314244 0.434821 0.052094
0.344594 0.435080 0.052140
0.374990 0.435340 0.052171
0.405402 0.435599 0.052155
0.435859 0.435859 0.052110
0.466346 0.436103 0.052033
0.496864 0.436332 0.051942
0.527428 0.436561 0.051835
0.558022 0.436774 0.051728
0.588647 0.436973 0.051606
0.619318 0.437171 0.051499
0.650004 0.437354 0.051377
0.680735 0.437537 0.051255
0.711482 0.437705 0.051148
0.742260 0.437873 0.051026
0.773053 0.438025 0.050919
0.803861 0.438163 0.050813
0.834699 0.438300 0.050721
0.865553 0.438437 0.050629
0.896422 0.438560 0.050538
0.927306 0.438682 0.050446
0.958206 0.438788 0.050355
0.989105 0.438895 0.050278
0.009964 0.463859 0.049271
0.040620 0.463996 0.049683
0.071244 0.464149 0.050111
0.101823 0.464302 0.050507
0.132357 0.464485 0.050889
0.162844 0.464683 0.051240
0.193301 0.464881 0.051560
0.223728 0.465110 0.051835
0.254154 0.465354 0.052079
0.284535 0.465583 0.052262
0.314931 0.465843 0.052399
0.345327 0.466102 0.052506
0.375738 0.466346 0.052552
0.406165 0.466606 0.052567
0.436622 0.466850 0.052552
0.467094 0.467094 0.052491
0.497612 0.467323 0.052430
0.528161 0.467552 0.052338
0.558740 0.467781 0.052247
0.589364 0.467979 0.052140
0.620005 0.468177 0.052033
0.650675 0.468376 0.051911
0.681376 0.468559 0.051804
0.712123 0.468727 0.051698
0.742870 0.468894 0.051591
0.773648 0.469062 0.051484
0.804456 0.469200 0.051362
0.835264 0.469352 0.051270
0.866102 0.469490 0.051164
0.896971 0.469627 0.051072
0.927825 0.469749 0.050980
0.958709 0.469871 0.050889
0.989609 0.469978 0.050813
0.010269 0.495033 0.049561
0.040940 0.495155 0.049973
0.071595 0.495293 0.050370
0.102205 0.495445 0.050767
0.132769 0.495613 0.051133
0.163302 0.495796 0.051484
0.193805 0.495995 0.051804
0.224277 0.496208 0.052094
0.254734 0.496422 0.052338
0.285161 0.496666 0.052552
0.315587 0.496895 0.052705
0.346014 0.497139 0.052827
0.376440 0.497383 0.052903
0.406882 0.497627 0.052949
0.437339 0.497871 0.052949
0.467826 0.498116 0.052934
0.498344 0.498344 0.052888
0.528878 0.498573 0.052811
0.559457 0.498787 0.052735
0.590066 0.499001 0.052644
0.620691 0.499199 0.052552
0.651362 0.499397 0.052445
0.682048 0.499596 0.052338
0.712764 0.499763 0.052232
0.743496 0.499931 0.052110
0.774258 0.500099 0.052018
0.805051 0.500267 0.051911
0.835843 0.500404 0.051804
0.866682 0.500557 0.051713
0.897505 0.500694 0.051606
0.928359 0.500816 0.051514
0.959228 0.500938 0.051408
0.990112 0.501061 0.051316
0.010559 0.526192 0.049851
0.041245 0.526314 0.050248
0.071931 0.526452 0.050629
0.102571 0.526589 0.051011
0.133165 0.526757 0.051377
0.163745 0.526925 0.051713
0.194278 0.527108 0.052033
0.224781 0.527306 0.052323
0.255283 0.527520 0.052583
0.285740 0.527733 0.052796
0.316197 0.527962 0.052979
0.346654 0.528206 0.053132
0.377111 0.528435 0.053223
0.407568 0.528679 0.053300
0.438056 0.528908 0.053330
0.468544 0.529137 0.053330
0.499062 0.529366 0.053300
0.529595 0.529595 0.053254
0.560159 0.529824 0.053193
0.590768 0.530037 0.053117
0.621378 0.530236 0.053025
0.652033 0.530434 0.052934
0.682704 0.530617 0.052842
0.713405 0.530800 0.052735
0.744137 0.530983 0.052628
0.774884 0.531151 0.052537
0.805646 0.531304 0.052430
0.836439 0.531456 0.052323
0.867247 0.531609 0.052216
0.898070 0.531762 0.052125
0.928908 0.531884 0.052018
0.959762 0.532006 0.051926
0.990631 0.532143 0.051835
0.010834 0.557366 0.050141
0.041550 0.557488 0.050523
0.072251 0.557610 0.050889
0.102907 0.557748 0.051255
0.133547 0.557900 0.051606
0.164141 0.558068 0.051957
0.194720 0.558251 0.052277
0.225269 0.558434 0.052567
0.255787 0.558633 0.052827
0.286290 0.558846 0.053056
0.316777 0.559060 0.053254
0.347265 0.559289 0.053407
0.377737 0.559503 0.053529
0.408225 0.559731 0.053620
0.438712 0.559960 0.053666
0.469230 0.560189 0.053696
0.499748 0.560418 0.053696
0.530297 0.560647 0.053666
0.560845 0.560845 0.053620
0.591440 0.561059 0.053559
0.622065 0.561273 0.053498
0.652705 0.561471 0.053422
0.683360 0.561669 0.053330
0.714046 0.561852 0.053223
0.744762 0.562020 0.053132
0.775494 0.562203 0.053025
0.806256 0.562371 0.052934
0.837018 0.562524 0.052827
0.867826 0.562676 0.052735
0.898634 0.562814 0.052628
0.929458 0.562966 0.052522
0.960296 0.563088 0.052430
0.991150 0.563226 0.052338
0.011109 0.588525 0.050401
0.041840 0.588647 0.050767
0.072557 0.588769 0.051133
0.103243 0.588907 0.051499
0.133898 0.589044 0.051835
0.164538 0.589212 0.052171
0.195132 0.589380 0.052491
0.225711 0.589563 0.052781
0.256260 0.589746 0.053040
0.286809 0.589944 0.053285
0.317327 0.590143 0.053483
0.347829 0.590356 0.053666
0.378332 0.590585 0.053803
0.408850 0.590799 0.053910
0.439353 0.591028 0.053986
0.469871 0.591241 0.054032
0.500404 0.591470 0.054047
0.530953 0.591684 0.054047
0.561517 0.591897 0.054017
0.592111 0.592111 0.053986
0.622721 0.592309 0.053925
0.653346 0.592508 0.053849
0.684001 0.592706 0.053773
0.714687 0.592889 0.053696
0.745388 0.593072 0.053605
0.776104 0.593256 0.053513
0.806851 0.593423 0.053407
0.837613 0.593576 0.053315
0.868391 0.593729 0.053208
0.899199 0.593881 0.053117
0.930007 0.594018 0.053010
0.960830 0.594171 0.052918
0.991684 0.594293 0.052811
0.011368 0.619715 0.050675
0.042115 0.619821 0.051026
0.072847 0.619944 0.051377
0.103563 0.620066 0.051728
0.134249 0.620203 0.052064
0.164904 0.620371 0.052399
0.195529 0.620523 0.052705
0.226139 0.620691 0.052995
0.256718 0.620874 0.053269
0.287282 0.621073 0.053513
0.317830 0.621256 0.053727
0.348379 0.621469 0.053910
0.378897 0.621668 0.054047
0.409430 0.621881 0.054185
0.439948 0.622095 0.054276
0.470497 0.622309 0.054337
0.501030 0.622522 0.054383
0.531594 0.622736 0.054398
0.562158 0.622950 0.054383
0.592752 0.623163 0.054368
0.623362 0.623362 0.054322
0.653986 0.623560 0.054261
0.684642 0.623758 0.054200
0.715312 0.623941 0.054124
0.745998 0.624125 0.054047
0.776715 0.624308 0.053956
0.807446 0.624475 0.053864
0.838209 0.624643 0.053773
0.868971 0.624796 0.053681
0.899748 0.624949 0.053574
0.930556 0.625086 0.053468
0.961364 0.625223 0.053376
0.992203 0.625360 0.053285
0.011612 0.650874 0.050904
0.042374 0.650980 0.051255
0.073121 0.651102 0.051591
0.103853 0.651225 0.051926
0.134554 0.651347 0.052262
0.165225 0.651499 0.052583
0.195895 0.651652 0.052903
0.226520 0.651820 0.053193
0.257130 0.651987 0.053452
0.287724 0.652171 0.053696
0.318303 0.652369 0.053925
0.348867 0.652552 0.054108
0.379416 0.652750 0.054276
0.409964 0.652949 0.054414
0.440513 0.653162 0.054536
0.471061 0.653376 0.054612
0.501625 0.653574 0.054658
0.532189 0.653788 0.054704
0.562768 0.654002 0.054704
0.593362 0.654200 0.054704
0.623972 0.654398 0.054673
0.654597 0.654597 0.054643
0.685252 0.654795 0.054582
0.715908 0.654978 0.054520
0.746609 0.655177 0.054459
0.777310 0.655344 0.054368
0.808026 0.655528 0.054292
0.838773 0.655680 0.054200
0.869535 0.655848 0.054108
0.900313 0.656001 0.054017
0.931106 0.656153 0.053925
0.961913 0.656306 0.053834
0.992737 0.656443 0.053727
0.011856 0.682048 0.051164
0.042634 0.682155 0.051499
0.073396 0.682261 0.051820
0.104158 0.682399 0.052155
0.134874 0.682521 0.052476
0.165576 0.682658 0.052796
0.196246 0.682811 0.053101
0.226902 0.682963 0.053391
0.257542 0.683131 0.053651
0.288151 0.683299 0.053910
0.318761 0.683482 0.054124
0.349340 0.683665 0.054337
0.379919 0.683864 0.054505
0.410498 0.684062 0.054658
0.441062 0.684245 0.054780
0.471626 0.684459 0.054871
0.502205 0.684657 0.054948
0.532784 0.684871 0.055009
0.563363 0.685069 0.055024
0.593957 0.685267 0.055039
0.624582 0.685466 0.055024
0.655207 0.685664 0.055009
0.685863 0.685863 0.054963
0.716518 0.686046 0.054917
0.747204 0.686229 0.054856
0.777890 0.686412 0.054780
0.808621 0.686580 0.054704
0.839353 0.686748 0.054627
0.870115 0.686915 0.054551
0.900877 0.687083 0.054459
0.931655 0.687236 0.054368
0.962448 0.687373 0.054276
0.993271 0.687526 0.054185
0.012100 0.713237 0.051408
0.042893 0.713344 0.051728
0.073671 0.713451 0.052049
0.104433 0.713558 0.052369
0.135164 0.713680 0.052689
0.165896 0.713817 0.052995
0.196597 0.713970 0.053300
0.227268 0.714122 0.053590
0.257939 0.714275 0.053864
0.288563 0.714443 0.054108
0.319188 0.714611 0.054337
0.349798 0.714794 0.054536
0.380407 0.714977 0.054719
0.410986 0.715160 0.054887
0.441581 0.715358 0.055024
0.472175 0.715557 0.055131
0.502754 0.715740 0.055207
0.533349 0.715938 0.055283
0.563943 0.716152 0.055329
0.594553 0.716350 0.055344
0.625177 0.716548 0.055360
0.655802 0.716732 0.055344
0.686442 0.716930 0.055314
0.717113 0.717113 0.055283
0.747799 0.717296 0.055238
0.778485 0.717479 0.055177
0.809201 0.717647 0.055100
0.839918 0.717815 0.055024
0.870680 0.717983 0.054963
0.901427 0.718151 0.054871
0.932204 0.718303 0.054795
0.962997 0.718456 0.054704
0.993805 0.718593 0.054612
0.012345 0.744427 0.051637
0.043137 0.744518 0.051957
0.073930 0.744625 0.052277
0.104723 0.744747 0.052598
0.135470 0.744869 0.052903
0.166201 0.744991 0.053208
0.196918 0.745129 0.053498
0.227619 0.745266 0.053773
0.258305 0.745434 0.054047
0.288960 0.745586 0.054292
0.319615 0.745754 0.054536
0.350240 0.745922 0.054734
0.380865 0.746105 0.054932
0.411475 0.746288 0.055100
0.442084 0.746471 0.055253
0.472694 0.746670 0.055375
0.503288 0.746853 0.055467
0.533883 0.747036 0.055543
0.564508 0.747234 0.055604
0.595117 0.747433 0.055650
0.625742 0.747631 0.055665
0.656382 0.747814 0.055665
0.687037 0.747997 0.055650
0.717693 0.748196 0.055619
0.748379 0.748379 0.055589
0.779065 0.748547 0.055543
0.809781 0.748730 0.055482
0.840497 0.748898 0.055421
0.871244 0.749065 0.055360
0.901991 0.749233 0.055283
0.932753 0.749386 0.055192
0.963546 0.749538 0.055116
0.994339 0.749676 0.055024
0.012573 0.775616 0.051881
0.043381 0.775708 0.052186
0.074189 0.775814 0.052491
0.104982 0.775921 0.052811
0.135760 0.776043 0.053101
0.166506 0.776165 0.053407
0.197238 0.776303 0.053696
0.227955 0.776440 0.053971
0.258656 0.776593 0.054246
0.289342 0.776745 0.054490
0.320012 0.776898 0.054719
0.350652 0.777066 0.054932
0.381308 0.777234 0.055131
0.411933 0.777401 0.055299
0.442557 0.777584 0.055467
0.473182 0.777768 0.055589
0.503792 0.777951 0.055711
0.534417 0.778149 0.055802
0.565042 0.778332 0.055863
0.595666 0.778515 0.055909
0.626291 0.778714 0.055955
0.656931 0.778897 0.055970
0.687602 0.779095 0.055970
0.718257 0.779278 0.055955
0.748943 0.779446 0.055924
0.779629 0.779629 0.055894
0.810330 0.779797 0.055848
0.841062 0.779980 0.055787
0.871794 0.780148 0.055726
0.902541 0.780316 0.055665
0.933303 0.780468 0.055589
0.964080 0.780621 0.055512
0.994873 0.780758 0.055421
0.012802 0.806806 0.052094
0.043626 0.806897 0.052415
0.074449 0.807004 0.052705
0.105241 0.807095 0.053010
0.136034 0.807218 0.053300
0.166796 0.807340 0.053605
0.197543 0.807477 0.053880
0.228290 0.807599 0.054154
0.258991 0.807752 0.054429
0.289693 0.807889 0.054673
0.320378 0.808042 0.054902
0.351049 0.808209 0.055116
0.381720 0.808362 0.055329
0.412375 0.808545 0.055512
0.443015 0.808713 0.055665
0.473655 0.808896 0.055818
0.504280 0.809064 0.055924
0.534920 0.809247 0.056031
0.565545 0.809430 0.056107
0.596185 0.809628 0.056184
0.626825 0.809812 0.056229
0.657481 0.809995 0.056245
0.688136 0.810178 0.056260
0.718807 0.810361 0.056260
0.749493 0.810544 0.056245
0.780179 0.810712 0.056229
