scripts/analysis/ae-luts/wedding-02.cube
# extracted from the AE project's embedded Apply Color LUT device-link ICC
LUT_3D_SIZE 5
DOMAIN_MIN 0 0 0
DOMAIN_MAX 1 1 1
0.000000 0.002945 0.016266
0.229908 0.002640 0.024521
0.521355 0.006989 0.041871
0.823087 0.011749 0.056641
1.000000 0.015274 0.069825
0.010620 0.234089 0.041672
0.245289 0.248386 0.032853
0.564034 0.264134 0.059739
0.875639 0.266377 0.079515
1.000000 0.260731 0.092439
0.036240 0.505119 0.082353
0.272679 0.535058 0.081621
0.581567 0.555688 0.082933
0.900481 0.555550 0.090288
1.000000 0.549615 0.101396
0.060487 0.774975 0.111986
0.285954 0.804746 0.109133
0.574029 0.828153 0.103410
0.889937 0.834668 0.093980
1.000000 0.831067 0.095125
0.072328 1.000000 0.129244
0.287297 1.000000 0.123186
0.565988 1.000000 0.116518
0.872557 1.000000 0.106386
1.000000 1.000000 0.098680
0.000671 0.004944 0.223758
0.212451 0.003403 0.234409
0.501884 0.007599 0.250340
0.807904 0.012482 0.265965
1.000000 0.016342 0.277073
0.014740 0.227619 0.239979
0.228748 0.239353 0.246525
0.532616 0.251575 0.271412
0.863462 0.273106 0.305562
1.000000 0.268254 0.315236
0.047105 0.487098 0.276341
0.257465 0.507012 0.279866
0.541680 0.527443 0.277806
0.891722 0.557809 0.316670
1.000000 0.557534 0.332189
0.071473 0.757778 0.305013
0.286580 0.786130 0.312551
0.564218 0.818830 0.316793
0.887129 0.839902 0.318639
1.000000 0.838422 0.324163
0.081895 0.993729 0.318074
0.290822 0.999557 0.322499
0.561059 1.000000 0.324529
0.867964 1.000000 0.325780
1.000000 1.000000 0.323308
0.001694 0.007187 0.451911
0.206119 0.006561 0.462821
0.476524 0.008484 0.476143
0.779675 0.013336 0.494301
1.000000 0.017304 0.510384
0.016403 0.228397 0.459037
0.230320 0.238880 0.475364
0.497505 0.241062 0.492943
0.823972 0.260426 0.529442
1.000000 0.266423 0.552270
0.051209 0.476783 0.484703
0.263249 0.490455 0.492515
0.505974 0.499779 0.496239
0.834867 0.523903 0.532326
1.000000 0.559915 0.579461
0.081193 0.739162 0.516823
0.289418 0.755291 0.525063
0.529351 0.770260 0.523033
0.824842 0.792264 0.520134
1.000000 0.836652 0.570550
0.094942 0.982208 0.535561
0.298085 0.994720 0.542519
0.551308 0.999847 0.547173
0.850034 1.000000 0.558907
1.000000 1.000000 0.571405
0.002792 0.009812 0.688670
0.205875 0.009873 0.701030
0.465232 0.009522 0.711101
0.752850 0.014054 0.726284
1.000000 0.018311 0.743709
0.018479 0.229603 0.695079
0.231464 0.237858 0.712703
0.487388 0.237812 0.726406
0.779126 0.240787 0.747112
1.000000 0.250080 0.775357
0.054459 0.477531 0.708782
0.261006 0.489067 0.717189
0.503731 0.496010 0.730083
0.782238 0.497932 0.747295
1.000000 0.530220 0.795483
0.082185 0.729366 0.731044
0.285252 0.739055 0.734966
0.525185 0.744915 0.734279
0.775494 0.750225 0.733898
1.000000 0.781643 0.776196
0.099825 0.970245 0.749935
0.300313 0.977905 0.755108
0.543709 0.984497 0.757610
0.794751 0.990814 0.755505
1.000000 1.000000 0.758846
0.003922 0.012451 0.905379
0.206058 0.012863 0.916274
0.461830 0.011276 0.926940
0.739620 0.015106 0.940307
0.999405 0.019181 0.956252
0.021851 0.229969 0.908934
0.233661 0.238041 0.921019
0.487419 0.238209 0.932937
0.763714 0.236103 0.945083
1.000000 0.237079 0.963516
0.055848 0.479194 0.917815
0.260563 0.490272 0.923262
0.502739 0.493294 0.932876
0.768353 0.490486 0.942031
1.000000 0.497230 0.962097
0.084993 0.728664 0.933196
0.285420 0.737926 0.929946
0.520150 0.740826 0.925460
0.769635 0.743969 0.930007
1.000000 0.745724 0.943099
0.099886 0.963348 0.944656
0.296559 0.968856 0.939162
0.533257 0.969909 0.931823
0.782361 0.970443 0.926268
1.000000 0.971923 0.922881
