scripts/analysis/ae-luts/wedding-02.cube
# extracted from the AE project's embedded Apply Color LUT device-link ICC
LUT_3D_SIZE 9
DOMAIN_MIN 0 0 0
DOMAIN_MAX 1 1 1
0.000000 0.002945 0.016266
0.096437 0.000885 0.019242
0.229908 0.002640 0.024521
0.372808 0.004715 0.032578
0.521355 0.006989 0.041871
0.671153 0.009339 0.049424
0.823087 0.011749 0.056641
0.962829 0.013870 0.063600
1.000000 0.015274 0.069825
0.004349 0.110216 0.026429
0.099550 0.113832 0.019608
0.241230 0.114351 0.025330
0.391409 0.118898 0.038102
0.546242 0.124071 0.051865
0.699260 0.124727 0.061448
0.852430 0.122927 0.068971
0.985946 0.120272 0.075822
1.000000 0.116777 0.082155
0.010620 0.234089 0.041672
0.105333 0.242878 0.036286
0.245289 0.248386 0.032853
0.402701 0.255238 0.043229
0.564034 0.264134 0.059739
0.721569 0.267704 0.071916
0.875639 0.266377 0.079515
0.997299 0.264088 0.086397
1.000000 0.260731 0.092439
0.018051 0.367391 0.061448
0.121401 0.379919 0.058808
0.255955 0.390784 0.056123
0.411154 0.400229 0.058045
0.575814 0.409201 0.068864
0.736736 0.412940 0.079667
0.892409 0.411322 0.086656
0.999496 0.408896 0.093202
1.000000 0.405707 0.099168
0.036240 0.505119 0.082353
0.139559 0.520638 0.082216
0.272679 0.535058 0.081621
0.421256 0.547417 0.081224
0.581567 0.555688 0.082933
0.742321 0.557366 0.085756
0.900481 0.555550 0.090288
1.000000 0.552667 0.095644
1.000000 0.549615 0.101396
0.049866 0.640635 0.098665
0.150683 0.656596 0.098863
0.282643 0.672755 0.098924
0.426398 0.686351 0.098207
0.579416 0.694911 0.095064
0.738582 0.697856 0.092241
0.898772 0.696880 0.091844
0.999985 0.694072 0.094423
1.000000 0.690990 0.099001
0.060487 0.774975 0.111986
0.157137 0.789853 0.110948
0.285954 0.804746 0.109133
0.425666 0.817929 0.107210
0.574029 0.828153 0.103410
0.730068 0.833753 0.098390
0.889937 0.834668 0.093980
0.999435 0.833234 0.092805
1.000000 0.831067 0.095125
0.067491 0.906401 0.121691
0.159899 0.918685 0.119356
0.286534 0.930770 0.116258
0.423423 0.941390 0.113268
0.568826 0.950134 0.109606
0.721386 0.955703 0.104219
0.879789 0.958114 0.098543
0.998245 0.958312 0.094530
1.000000 0.957702 0.093935
0.072328 1.000000 0.129244
0.161578 1.000000 0.126711
0.287297 1.000000 0.123186
0.422507 1.000000 0.119829
0.565988 1.000000 0.116518
0.716426 1.000000 0.112047
0.872557 1.000000 0.106386
0.996887 1.000000 0.101534
1.000000 1.000000 0.098680
0.000214 0.003891 0.115007
0.089143 0.002808 0.119738
0.221668 0.002914 0.124636
0.364538 0.004990 0.131319
0.514168 0.007294 0.139559
0.665553 0.009674 0.146242
0.818112 0.012100 0.151675
0.959594 0.014252 0.156756
1.000000 0.015793 0.161059
0.004837 0.108843 0.122362
0.097002 0.113787 0.125277
0.232136 0.113481 0.130938
0.380377 0.117220 0.141375
0.536553 0.124086 0.154818
0.693492 0.128344 0.165896
0.846845 0.126818 0.171633
0.982361 0.124468 0.176577
1.000000 0.121157 0.180575
0.010986 0.229465 0.137652
0.106859 0.237552 0.138170
0.234333 0.242100 0.132662
0.388510 0.247440 0.142901
0.551171 0.259052 0.161532
0.715496 0.269718 0.179171
0.871977 0.270665 0.187701
0.997421 0.268360 0.193149
1.000000 0.264988 0.197772
0.023651 0.360067 0.154116
0.121111 0.370581 0.155200
0.244297 0.379858 0.151858
0.393881 0.388388 0.151919
0.560845 0.399771 0.166094
0.730358 0.412345 0.185550
0.890547 0.416037 0.196979
0.999542 0.413565 0.202625
1.000000 0.410407 0.207523
0.040436 0.497047 0.172076
0.139132 0.510338 0.175372
0.263645 0.523232 0.175051
0.406271 0.535775 0.175174
0.568551 0.547631 0.179690
0.738399 0.557733 0.191333
0.900313 0.559991 0.200305
0.999985 0.556985 0.205615
1.000000 0.553780 0.210651
0.054368 0.633631 0.186755
0.153582 0.649058 0.192157
0.280751 0.665309 0.194858
0.421134 0.680644 0.196811
0.574807 0.693446 0.197681
0.737652 0.700725 0.198734
0.898802 0.700649 0.199832
0.999969 0.697948 0.203342
1.000000 0.694957 0.208270
0.064698 0.768338 0.197757
0.160601 0.782757 0.202121
0.286336 0.798230 0.204013
0.424231 0.813809 0.205631
0.572274 0.827176 0.205844
0.728481 0.835370 0.203235
0.889448 0.837751 0.200259
0.999680 0.836942 0.200229
1.000000 0.834958 0.203494
0.071229 0.900221 0.204715
0.163653 0.912474 0.208164
0.287785 0.925093 0.208759
0.422583 0.937179 0.209064
0.567163 0.947845 0.208972
0.719631 0.955566 0.206851
0.878523 0.959609 0.203159
0.998932 0.960647 0.200458
1.000000 0.960388 0.200931
0.075990 0.997772 0.209842
0.165591 0.999878 0.213123
0.289021 1.000000 0.213428
0.422339 1.000000 0.213291
0.564797 1.000000 0.213260
0.714885 1.000000 0.212192
0.871321 1.000000 0.209186
0.997818 1.000000 0.205997
1.000000 1.000000 0.204471
0.000671 0.004944 0.223758
0.086549 0.004791 0.229099
0.212451 0.003403 0.234409
0.352789 0.005280 0.241428
0.501884 0.007599 0.250340
0.654459 0.010025 0.259144
0.807904 0.012482 0.265965
0.952239 0.014771 0.272023
1.000000 0.016342 0.277073
0.005356 0.109606 0.227344
0.098009 0.114458 0.234821
0.222278 0.114366 0.242252
0.366644 0.115541 0.252262
0.521874 0.121294 0.265949
0.681361 0.127825 0.280095
0.837339 0.128450 0.288563
0.976318 0.126513 0.294530
1.000000 0.123384 0.299306
0.014740 0.227619 0.239979
0.114580 0.234653 0.244282
0.228748 0.239353 0.246525
0.372656 0.241276 0.254795
0.532616 0.251575 0.271412
0.699855 0.265339 0.291127
0.863462 0.273106 0.305562
0.996353 0.271290 0.310964
1.000000 0.268254 0.315236
0.030884 0.353902 0.257572
0.128725 0.361990 0.262119
0.241047 0.368917 0.261219
0.374258 0.374594 0.256092
0.537469 0.383902 0.269810
0.710323 0.401648 0.294072
0.882444 0.416648 0.315602
0.999390 0.416983 0.323461
1.000000 0.413718 0.328008
0.047105 0.487098 0.276341
0.143099 0.497368 0.280735
0.257465 0.507012 0.279866
0.386191 0.516915 0.276539
0.541680 0.527443 0.277806
0.716335 0.542397 0.294850
0.891722 0.557809 0.316670
0.999939 0.560769 0.327321
1.000000 0.557534 0.332189
0.061265 0.622934 0.292897
0.157229 0.636118 0.298482
0.275822 0.649195 0.299748
0.405844 0.662593 0.299168
0.553338 0.676066 0.299672
0.720104 0.689097 0.304540
0.893523 0.700023 0.316426
0.999969 0.701396 0.324514
1.000000 0.698451 0.329732
0.071473 0.757778 0.305013
0.165209 0.771054 0.309972
0.286580 0.786130 0.312551
0.419242 0.802762 0.314778
0.564218 0.818830 0.316793
0.721721 0.832303 0.317876
0.887129 0.839902 0.318639
0.999802 0.840162 0.319905
1.000000 0.838422 0.324163
0.077668 0.890074 0.312688
0.168460 0.902022 0.316472
0.289036 0.914855 0.317830
0.420111 0.928328 0.319188
0.562799 0.941939 0.321141
0.715633 0.953246 0.322393
0.875486 0.959838 0.320836
0.999237 0.962341 0.319219
1.000000 0.962615 0.320684
0.081895 0.993729 0.318074
0.170352 0.997391 0.321614
0.290822 0.999557 0.322499
0.421012 1.000000 0.323308
0.561059 1.000000 0.324529
0.710765 1.000000 0.326116
0.867964 1.000000 0.325780
0.997513 1.000000 0.323980
1.000000 1.000000 0.323308
0.001144 0.006012 0.336416
0.086122 0.006058 0.342321
0.207889 0.005081 0.347158
0.342412 0.005814 0.353841
0.488258 0.008103 0.362463
0.640497 0.010468 0.371847
0.794766 0.012848 0.379995
0.942794 0.015320 0.387671
1.000000 0.016846 0.393896
0.005921 0.109773 0.339483
0.098741 0.114168 0.348135
0.219486 0.114717 0.355337
0.354376 0.114305 0.363592
0.504860 0.117311 0.375814
0.664057 0.123827 0.390646
0.822614 0.127047 0.402319
0.966796 0.126665 0.410529
1.000000 0.124407 0.416846
0.016205 0.227893 0.346761
0.114824 0.235126 0.352438
0.230106 0.239612 0.359869
0.360388 0.240238 0.367880
0.513466 0.245487 0.381964
0.679316 0.257923 0.402075
0.847364 0.269459 0.420829
0.988220 0.271015 0.430289
1.000000 0.268910 0.435996
0.033234 0.351019 0.361501
0.131670 0.358709 0.366430
0.247532 0.364752 0.369390
0.366751 0.369238 0.371313
0.515511 0.372885 0.381353
0.685130 0.388617 0.403037
0.862013 0.408316 0.428321
0.998962 0.418143 0.444450
1.000000 0.415457 0.449241
0.050324 0.480354 0.379446
0.147295 0.488914 0.385000
0.262150 0.495155 0.387304
0.379110 0.501167 0.385931
0.514656 0.507057 0.380484
0.684764 0.519509 0.396551
0.866163 0.542092 0.425055
0.999741 0.560266 0.449149
1.000000 0.560266 0.456764
0.066194 0.613794 0.397375
0.161364 0.623682 0.403235
0.276387 0.632334 0.405539
0.394980 0.641169 0.403677
0.526452 0.651011 0.399832
0.685863 0.662547 0.401328
0.866270 0.679652 0.419791
0.999954 0.697887 0.443946
1.000000 0.701808 0.455451
0.077852 0.747265 0.411597
0.170657 0.758267 0.417136
0.288014 0.770291 0.420432
0.410910 0.782742 0.420615
0.544244 0.796002 0.419501
0.695262 0.810437 0.420249
0.866468 0.825238 0.426215
0.999802 0.838804 0.440162
1.000000 0.841627 0.449577
0.084703 0.879149 0.420996
0.174380 0.889906 0.425483
0.291722 0.901579 0.427558
0.417929 0.915099 0.429480
0.555322 0.930251 0.432456
0.705257 0.944762 0.435996
0.867735 0.956634 0.439017
0.999374 0.963500 0.441779
1.000000 0.964736 0.444831
0.089052 0.989624 0.427512
0.176364 0.994659 0.431662
0.293919 0.997833 0.433066
0.420020 0.999557 0.434318
0.556268 1.000000 0.436790
0.704417 1.000000 0.440787
0.862501 1.000000 0.444541
0.994980 1.000000 0.445670
1.000000 1.000000 0.446098
0.001694 0.007187 0.451911
0.086030 0.007263 0.458076
0.206119 0.006561 0.462821
0.336263 0.006348 0.468513
0.476524 0.008484 0.476143
0.625513 0.010864 0.485054
0.779675 0.013336 0.494301
0.930800 0.015732 0.502922
1.000000 0.017304 0.510384
0.006455 0.109667 0.455085
0.099168 0.113588 0.463905
0.218906 0.114473 0.471366
0.348714 0.113741 0.477897
0.490776 0.114229 0.487724
0.644572 0.117647 0.500587
0.803601 0.121660 0.513497
0.953613 0.123476 0.524178
1.000000 0.123049 0.532708
0.016403 0.228397 0.459037
0.113848 0.234989 0.466606
0.230320 0.238880 0.475364
0.356924 0.239719 0.482979
0.497505 0.241062 0.492943
0.656107 0.248447 0.509392
0.823972 0.260426 0.529442
0.974289 0.266011 0.543328
1.000000 0.266423 0.552270
0.034699 0.350881 0.469947
0.131838 0.358480 0.475044
0.246967 0.364675 0.479606
0.367315 0.368963 0.486610
0.501122 0.369787 0.495064
0.660441 0.377920 0.511894
0.835447 0.395865 0.537011
0.991684 0.411322 0.559442
1.000000 0.413169 0.569039
0.051209 0.476783 0.484703
0.147143 0.484321 0.489525
0.263249 0.490455 0.492515
0.383505 0.495689 0.494514
0.505974 0.499779 0.496239
0.657450 0.503883 0.506752
0.834867 0.523903 0.532326
0.997238 0.547906 0.561364
1.000000 0.559915 0.579461
0.067597 0.607294 0.501686
0.161944 0.615366 0.506813
0.277653 0.621332 0.509453
0.396887 0.626505 0.510674
0.516030 0.630961 0.508217
0.652216 0.636301 0.501610
0.827314 0.650431 0.518776
0.994141 0.677317 0.550942
1.000000 0.699763 0.578820
0.081193 0.739162 0.516823
0.173236 0.747662 0.521981
0.289418 0.755291 0.525063
0.408377 0.762554 0.525933
0.529351 0.770260 0.523033
0.662409 0.779599 0.518303
0.824842 0.792264 0.520134
0.989014 0.813031 0.541619
1.000000 0.836652 0.570550
0.089677 0.869703 0.527642
0.179049 0.878386 0.532418
0.295048 0.887114 0.535088
0.416999 0.897932 0.537484
0.543572 0.909422 0.537743
0.680354 0.921828 0.537285
0.835706 0.935363 0.539727
0.986893 0.949615 0.548699
1.000000 0.963012 0.567193
0.094942 0.982208 0.535561
0.181888 0.988525 0.540124
0.298085 0.994720 0.542519
0.420417 0.998505 0.544244
0.551308 0.999847 0.547173
0.694163 1.000000 0.552453
0.850034 1.000000 0.558907
0.988800 1.000000 0.565545
1.000000 1.000000 0.571405
0.002228 0.008469 0.569467
0.086366 0.008606 0.575875
0.205692 0.008164 0.581201
0.333318 0.007279 0.585931
0.469200 0.008957 0.592355
0.613489 0.011215 0.600397
0.764828 0.013642 0.609232
0.917189 0.016037 0.618463
1.000000 0.017853 0.626795
0.007019 0.109621 0.573251
0.100053 0.113390 0.582010
0.219120 0.114260 0.589487
0.346349 0.113359 0.595361
0.482719 0.112734 0.602884
0.629343 0.113237 0.613214
0.784253 0.115404 0.625101
0.937850 0.117937 0.637034
1.000000 0.118914 0.647135
0.017243 0.229145 0.575830
0.113741 0.234928 0.584192
0.230411 0.237934 0.592798
0.355856 0.238849 0.600519
0.490181 0.238804 0.607767
0.637552 0.241428 0.619654
0.798337 0.248722 0.636179
0.955184 0.256031 0.652338
1.000000 0.259678 0.664668
0.035645 0.351781 0.583032
0.130892 0.358633 0.588769
0.245228 0.363928 0.595056
0.366522 0.367300 0.603403
0.496834 0.368170 0.611170
0.640925 0.370047 0.621607
0.805707 0.381018 0.641367
0.969772 0.397024 0.665141
1.000000 0.404654 0.680842
0.053162 0.476768 0.595026
0.147509 0.483635 0.599359
0.262455 0.489265 0.602289
0.381979 0.494591 0.605798
0.505684 0.498741 0.612711
0.641108 0.498756 0.620188
0.804700 0.508614 0.638651
0.974197 0.530663 0.667369
1.000000 0.549798 0.693050
0.068147 0.603708 0.608621
0.160845 0.610376 0.612619
0.275608 0.615244 0.614481
0.395483 0.619852 0.615824
0.518730 0.624308 0.616938
0.642756 0.627131 0.617533
0.795132 0.630884 0.627466
0.967071 0.653941 0.655726
1.000000 0.683574 0.689647
0.081987 0.733242 0.622782
0.172854 0.740185 0.626963
0.287709 0.745083 0.628565
0.407050 0.749462 0.629435
0.528328 0.752956 0.629023
0.649195 0.756085 0.625681
0.785138 0.760571 0.618021
0.955093 0.776928 0.636500
1.000000 0.810651 0.674800
0.091859 0.862287 0.633967
0.180545 0.869337 0.638148
0.295613 0.875135 0.639979
0.415747 0.881270 0.641703
0.538048 0.887602 0.642023
0.661219 0.894423 0.638849
0.796002 0.903182 0.634257
0.951232 0.916289 0.637720
1.000000 0.938415 0.664668
0.098573 0.975631 0.642695
0.185092 0.980896 0.647074
0.300618 0.985382 0.649332
0.421378 0.990478 0.651408
0.547570 0.997238 0.654383
0.678355 1.000000 0.655970
0.818799 1.000000 0.657069
0.962264 1.000000 0.662531
1.000000 1.000000 0.675944
0.002792 0.009812 0.688670
0.086946 0.010132 0.695354
0.205875 0.009873 0.701030
0.331945 0.008911 0.705592
0.465232 0.009522 0.711101
0.605585 0.011688 0.718105
0.752850 0.014054 0.726284
0.904341 0.016464 0.735119
1.000000 0.018311 0.743709
0.007614 0.109514 0.693156
0.101213 0.113436 0.702052
0.220020 0.114412 0.709499
0.346212 0.113664 0.715587
0.479377 0.112459 0.721675
0.620417 0.111437 0.729808
0.769818 0.111772 0.739971
0.922362 0.112902 0.751019
1.000000 0.113878 0.761669
0.018479 0.229603 0.695079
0.114641 0.235355 0.704326
0.231464 0.237858 0.712703
0.355993 0.238514 0.720104
0.487388 0.237812 0.726406
0.627878 0.238178 0.734920
0.779126 0.240787 0.747112
0.934722 0.245609 0.761486
1.000000 0.250080 0.775357
0.036500 0.352941 0.699947
0.130770 0.359670 0.707042
0.244877 0.363668 0.714000
0.366171 0.365835 0.721950
0.494987 0.366369 0.729549
0.632181 0.366400 0.736782
0.783444 0.370245 0.749767
0.943969 0.380179 0.768719
1.000000 0.389593 0.786862
0.054459 0.477531 0.708782
0.147738 0.484489 0.713832
0.261006 0.489067 0.717189
0.379355 0.493156 0.722164
0.503731 0.496010 0.730083
0.636011 0.496010 0.737087
0.782238 0.497932 0.747295
0.945815 0.510796 0.768734
1.000000 0.530220 0.795483
0.070008 0.603235 0.719997
0.161807 0.609903 0.724086
0.275441 0.614008 0.725292
0.393774 0.617929 0.726452
0.516014 0.622293 0.728985
0.641154 0.625162 0.734478
0.777478 0.624308 0.741009
0.938567 0.634562 0.759716
1.000000 0.661265 0.792584
0.082185 0.729366 0.731044
0.171832 0.735653 0.734676
0.285252 0.739055 0.734966
0.402945 0.741558 0.734279
0.525185 0.744915 0.734279
0.649882 0.748196 0.734112
0.775494 0.750225 0.733898
0.924941 0.753643 0.743496
1.000000 0.781643 0.776196
0.092271 0.856596 0.741329
0.179843 0.862638 0.744671
0.293736 0.866560 0.745327
0.412207 0.869718 0.745113
0.533806 0.872877 0.744747
0.657328 0.875685 0.743587
0.780240 0.877958 0.739971
0.913054 0.882231 0.732097
1.000000 0.901061 0.754162
0.099825 0.970245 0.749935
0.185794 0.974899 0.753872
0.300313 0.977905 0.755108
0.419837 0.980774 0.756008
0.543709 0.984497 0.757610
0.669062 0.987732 0.758160
0.794751 0.990814 0.755505
0.925460 0.996078 0.751873
1.000000 1.000000 0.758846
0.003449 0.011292 0.809339
0.087495 0.011719 0.816190
0.206165 0.011505 0.822187
0.331609 0.010712 0.827100
0.463157 0.010132 0.831922
0.600778 0.012238 0.837919
0.744747 0.014664 0.845396
0.893553 0.017014 0.853666
1.000000 0.018830 0.861891
0.008240 0.109346 0.814374
0.102403 0.113481 0.823331
0.221103 0.114488 0.830900
0.346715 0.114061 0.837354
0.478096 0.112673 0.842847
0.615793 0.111192 0.849424
0.760464 0.110170 0.857877
0.909834 0.109651 0.867597
1.000000 0.109468 0.877394
0.020340 0.230106 0.816373
0.115816 0.235782 0.825834
0.232853 0.238209 0.834211
0.357214 0.238834 0.841718
0.487358 0.238300 0.848142
0.623804 0.237293 0.854490
0.768536 0.237415 0.863584
0.919310 0.239109 0.875120
1.000000 0.241764 0.887404
0.037385 0.353857 0.819593
0.131121 0.360464 0.827726
0.245777 0.364111 0.835325
0.367224 0.365881 0.843259
0.495003 0.365881 0.850324
0.628794 0.364767 0.856214
0.771847 0.365270 0.864790
0.924163 0.369085 0.878187
1.000000 0.375158 0.893416
0.055375 0.478721 0.825742
0.147524 0.485618 0.831693
0.260685 0.489967 0.836484
0.378714 0.492546 0.842237
0.502464 0.493828 0.849241
0.633295 0.493568 0.856077
0.771862 0.492592 0.862409
0.923247 0.496880 0.875776
1.000000 0.508476 0.895720
0.071427 0.603845 0.834424
0.162249 0.610559 0.838880
0.275303 0.614588 0.840726
0.391852 0.617258 0.842176
0.512413 0.619852 0.845747
0.638102 0.621469 0.852262
0.771283 0.620356 0.858091
0.916533 0.621424 0.867414
1.000000 0.636225 0.890257
0.083879 0.728679 0.843381
0.172595 0.734768 0.846784
0.285649 0.737972 0.847089
0.402152 0.739864 0.845914
0.522377 0.741985 0.845350
0.646113 0.745235 0.846601
0.772824 0.747402 0.851392
0.907881 0.745693 0.856855
1.000000 0.757916 0.877409
0.092302 0.852827 0.850752
0.178912 0.858366 0.853788
0.291646 0.861143 0.853407
0.408377 0.862654 0.851652
0.528298 0.863798 0.849668
0.652277 0.866255 0.848692
0.779263 0.869368 0.848310
0.904585 0.871290 0.847715
1.000000 0.875700 0.858839
0.100023 0.966064 0.858534
0.184771 0.970153 0.861707
0.298421 0.972259 0.862013
0.416327 0.973617 0.861280
0.537667 0.974975 0.860395
0.661830 0.975921 0.859602
0.787991 0.976425 0.858656
0.909575 0.976532 0.855360
1.000000 0.979263 0.848539
0.003922 0.012451 0.905379
0.087541 0.012924 0.910353
0.206058 0.012863 0.916274
0.331243 0.012116 0.921675
0.461830 0.011276 0.926940
0.597864 0.012680 0.932998
0.739620 0.015106 0.940307
0.885985 0.017334 0.948211
0.999405 0.019181 0.956252
0.008652 0.108782 0.906676
0.102663 0.112917 0.912383
0.221302 0.114015 0.918639
0.346685 0.113832 0.924590
0.477440 0.112535 0.930007
0.613474 0.110903 0.935851
0.755505 0.109194 0.942992
0.902312 0.107958 0.951293
1.000000 0.107027 0.959991
0.021851 0.229969 0.908934
0.116243 0.235569 0.914488
0.233661 0.238041 0.921019
0.357702 0.238682 0.927214
0.487419 0.238209 0.932937
0.622370 0.236973 0.938293
0.763714 0.236103 0.945083
0.911131 0.236179 0.953841
1.000000 0.237079 0.963516
0.038254 0.354162 0.912322
0.131060 0.360662 0.916655
0.246357 0.364187 0.922362
0.367880 0.365682 0.928359
0.495506 0.365835 0.934234
0.628199 0.364523 0.939178
0.767681 0.363485 0.944839
0.914992 0.364782 0.953841
1.000000 0.367926 0.964645
0.055848 0.479194 0.917815
0.147021 0.486046 0.920043
0.260563 0.490272 0.923262
0.379004 0.492561 0.927596
0.502739 0.493294 0.932876
0.632380 0.492363 0.937789
0.768353 0.490486 0.942031
0.913588 0.491341 0.949783
1.000000 0.497230 0.962097
0.072145 0.604379 0.925383
0.161852 0.610971 0.925628
0.274678 0.615015 0.925826
0.391272 0.617548 0.926528
0.511009 0.618708 0.928695
0.636179 0.619089 0.933089
0.768429 0.617563 0.937392
0.908186 0.616129 0.942031
1.000000 0.623102 0.954726
0.084993 0.728664 0.933196
0.172702 0.734615 0.932021
0.285420 0.737926 0.929946
0.401587 0.739757 0.927581
0.520150 0.740826 0.925460
0.642573 0.742702 0.926070
0.769635 0.743969 0.930007
0.903212 0.742138 0.933761
1.000000 0.745724 0.943099
0.093446 0.851575 0.939269
0.179065 0.857084 0.937285
0.291646 0.859770 0.934127
0.408057 0.861189 0.930526
0.526955 0.861784 0.926619
0.649714 0.863478 0.923980
0.775937 0.866575 0.923156
0.902388 0.869261 0.925444
1.000000 0.868437 0.930388
0.099886 0.963348 0.944656
0.183658 0.967117 0.942443
0.296559 0.968856 0.939162
0.413581 0.969696 0.935622
0.533257 0.969909 0.931823
0.655802 0.970001 0.928267
0.782361 0.970443 0.926268
0.908034 0.971191 0.924636
1.000000 0.971923 0.922881
