scripts/analysis/ae-luts/wedding-02.cube
# extracted from the AE project's embedded Apply Color LUT device-link ICC
LUT_3D_SIZE 33
DOMAIN_MIN 0 0 0
DOMAIN_MAX 1 1 1
0.000000 0.002945 0.016266
0.011368 0.002029 0.016663
0.034623 0.001266 0.017334
0.064988 0.000855 0.018235
0.096437 0.000885 0.019242
0.128710 0.001297 0.020279
0.161822 0.001724 0.021500
0.195453 0.002167 0.022919
0.229908 0.002640 0.024521
0.264881 0.003143 0.026276
0.300374 0.003632 0.028229
0.336370 0.004166 0.030335
0.372808 0.004715 0.032578
0.409522 0.005264 0.034897
0.446738 0.005829 0.037278
0.483955 0.006409 0.039612
0.521355 0.006989 0.041871
0.558694 0.007553 0.043931
0.595972 0.008118 0.045792
0.633494 0.008728 0.047623
0.671153 0.009339 0.049424
0.708812 0.009918 0.051209
0.746761 0.010513 0.053010
0.784924 0.011139 0.054841
0.823087 0.011749 0.056641
0.861204 0.012360 0.058457
0.898207 0.012940 0.060243
0.932113 0.013443 0.061967
0.962829 0.013870 0.063600
0.988296 0.014252 0.065171
1.000000 0.014664 0.066804
1.000000 0.015000 0.068345
1.000000 0.015274 0.069825
0.000778 0.026688 0.018341
0.011704 0.026902 0.016968
0.035935 0.026322 0.016876
0.067277 0.025437 0.017746
0.099123 0.024750 0.018875
0.131868 0.024308 0.020157
0.165423 0.023880 0.021592
0.199542 0.023651 0.023239
0.234348 0.023468 0.025086
0.269703 0.023575 0.027131
0.305577 0.023682 0.029358
0.341939 0.023911 0.031724
0.378759 0.024231 0.034226
0.415976 0.024598 0.036805
0.453376 0.024949 0.039384
0.490867 0.025162 0.041901
0.528542 0.025391 0.044312
0.566094 0.025452 0.046479
0.603494 0.025223 0.048371
0.640925 0.025040 0.050156
0.678477 0.024735 0.051896
0.716320 0.024445 0.053620
0.754192 0.024292 0.055390
0.792233 0.024063 0.057130
0.830426 0.023850 0.058885
0.868498 0.023758 0.060639
0.904875 0.023545 0.062348
0.938125 0.023285 0.063981
0.968338 0.023011 0.065583
0.991836 0.022690 0.067094
1.000000 0.022416 0.068635
1.000000 0.022034 0.070054
1.000000 0.021683 0.071473
0.001816 0.053300 0.020768
0.011948 0.054353 0.018891
0.035828 0.054383 0.017594
0.067414 0.053925 0.017395
0.100099 0.053162 0.018219
0.133379 0.052628 0.019623
0.167376 0.052201 0.021286
0.201923 0.052033 0.023194
0.237186 0.052125 0.025330
0.273152 0.052308 0.027710
0.309514 0.052705 0.030274
0.346395 0.053269 0.033005
0.383749 0.053971 0.035874
0.421332 0.054749 0.038804
0.459236 0.055406 0.041764
0.497261 0.056123 0.044648
0.535241 0.056519 0.047364
0.573220 0.056641 0.049821
0.610819 0.056519 0.051926
0.648447 0.056016 0.053803
0.686198 0.055451 0.055634
0.724071 0.054887 0.057450
0.761944 0.054154 0.059236
0.800137 0.053559 0.061051
0.838499 0.052979 0.062882
0.876402 0.052369 0.064683
0.912261 0.051575 0.066423
0.945098 0.050889 0.068147
0.974807 0.050080 0.069902
0.994858 0.049256 0.071519
1.000000 0.048325 0.073136
1.000000 0.047364 0.074601
1.000000 0.046281 0.076097
0.003006 0.081331 0.023453
0.012757 0.082841 0.021744
0.035737 0.083482 0.019715
0.066896 0.083467 0.018326
0.100038 0.083085 0.018173
0.134157 0.082567 0.019181
0.168627 0.082460 0.020859
0.203845 0.082536 0.022934
0.239445 0.082795 0.025299
0.275746 0.083330 0.027955
0.312612 0.084108 0.030808
0.349996 0.085100 0.033875
0.387701 0.086091 0.037049
0.425818 0.087312 0.040330
0.464240 0.088396 0.043610
0.502541 0.089357 0.046754
0.540978 0.090150 0.049744
0.579416 0.090654 0.052461
0.617365 0.090578 0.054765
0.655131 0.090303 0.056733
0.692912 0.089891 0.058610
0.730983 0.089357 0.060472
0.769055 0.088777 0.062318
0.807279 0.088350 0.064164
0.845640 0.087770 0.065995
0.883513 0.087144 0.067796
0.919097 0.086458 0.069551
0.951385 0.085710 0.071214
0.980621 0.085008 0.072938
0.996902 0.084199 0.074586
1.000000 0.083391 0.076204
1.000000 0.082414 0.077668
1.000000 0.081346 0.079179
0.004349 0.110216 0.026429
0.014267 0.112123 0.024887
0.036439 0.113268 0.022843
0.066697 0.113878 0.020890
0.099550 0.113832 0.019608
0.134020 0.113680 0.019623
0.169345 0.113603 0.020859
0.205112 0.113909 0.022889
0.241230 0.114351 0.025330
0.278065 0.115160 0.028168
0.315450 0.116136 0.031281
0.353201 0.117510 0.034607
0.391409 0.118898 0.038102
0.430030 0.120394 0.041688
0.468666 0.121782 0.045274
0.507530 0.123064 0.048646
0.546242 0.124071 0.051865
0.585016 0.124987 0.054887
0.623301 0.125322 0.057465
0.661341 0.125154 0.059571
0.699260 0.124727 0.061448
0.737392 0.124331 0.063355
0.775662 0.123934 0.065248
0.813886 0.123354 0.067094
0.852430 0.122927 0.068971
0.890089 0.122286 0.070771
0.925322 0.121767 0.072572
0.957305 0.120989 0.074235
0.985946 0.120272 0.075822
0.998383 0.119524 0.077531
1.000000 0.118578 0.079042
1.000000 0.117708 0.080613
1.000000 0.116777 0.082155
0.005844 0.140185 0.029801
0.016175 0.142153 0.028336
0.037980 0.143648 0.026444
0.067475 0.144808 0.024460
0.099535 0.145373 0.022660
0.133837 0.145556 0.021653
0.169467 0.145739 0.021942
0.205905 0.146090 0.023468
0.242649 0.146700 0.025742
0.279896 0.147692 0.028550
0.317678 0.148913 0.031800
0.355947 0.150439 0.035325
0.394675 0.152041 0.039078
0.433661 0.153902 0.042924
0.472770 0.155642 0.046754
0.511971 0.157183 0.050416
0.551217 0.158633 0.053986
0.590326 0.159823 0.057298
0.629068 0.160418 0.060136
0.667308 0.160525 0.062409
0.705440 0.160128 0.064347
0.743511 0.159670 0.066194
0.781750 0.159335 0.068055
0.820096 0.158846 0.069886
0.858610 0.158343 0.071717
0.896040 0.157824 0.073503
0.931106 0.157244 0.075395
0.962768 0.156664 0.077134
0.991028 0.155917 0.078721
0.999420 0.155138 0.080400
1.000000 0.154299 0.081910
1.000000 0.153429 0.083497
1.000000 0.152407 0.084810
0.007446 0.170855 0.033509
0.018341 0.172961 0.032151
0.040192 0.174762 0.030365
0.069261 0.176242 0.028519
0.100664 0.177401 0.026734
0.134218 0.178225 0.025299
0.169741 0.178683 0.024643
0.206271 0.179156 0.025132
0.243702 0.179889 0.026947
0.281514 0.180865 0.029450
0.319707 0.182300 0.032639
0.358541 0.183917 0.036255
0.397665 0.185931 0.040131
0.437003 0.187808 0.044175
0.476463 0.189731 0.048096
0.516106 0.191699 0.052079
0.555734 0.193439 0.055940
0.595315 0.194873 0.059510
0.634501 0.195819 0.062608
0.672984 0.196109 0.065095
0.711223 0.195911 0.067094
0.749325 0.195575 0.068986
0.787701 0.195087 0.070832
0.826062 0.194568 0.072663
0.864576 0.194186 0.074495
0.901900 0.193637 0.076280
0.936416 0.193011 0.077989
0.967788 0.192477 0.079820
0.994949 0.191775 0.081468
1.000000 0.190967 0.083009
1.000000 0.190219 0.084627
1.000000 0.189456 0.086198
1.000000 0.188296 0.087526
0.009003 0.202182 0.037446
0.020783 0.204547 0.036271
0.042924 0.206546 0.034638
0.071672 0.208255 0.032944
0.102617 0.209888 0.031296
0.135576 0.211200 0.029816
0.170443 0.212192 0.028672
0.206943 0.213062 0.028367
0.244373 0.213703 0.029145
0.282643 0.214984 0.031189
0.321431 0.216464 0.034073
0.360678 0.218280 0.037568
0.400320 0.220218 0.041459
0.440040 0.222477 0.045563
0.480003 0.224506 0.049622
0.519951 0.226627 0.053773
0.560067 0.228534 0.057832
0.599939 0.230274 0.061601
0.639384 0.231373 0.064881
0.678279 0.231968 0.067552
0.716655 0.231846 0.069673
0.754955 0.231525 0.071580
0.793225 0.231144 0.073457
0.831739 0.230625 0.075288
0.870390 0.230213 0.077134
0.907454 0.229770 0.078920
0.941604 0.229114 0.080613
0.972519 0.228367 0.082246
0.996216 0.227909 0.084016
1.000000 0.227070 0.085542
1.000000 0.226352 0.087175
1.000000 0.225360 0.088533
1.000000 0.224506 0.090074
0.010620 0.234089 0.041672
0.023362 0.236698 0.040711
0.046128 0.238895 0.039231
0.074891 0.240986 0.037751
0.105333 0.242878 0.036286
0.137697 0.244526 0.034791
0.171893 0.246128 0.033570
0.208011 0.247242 0.032792
0.245289 0.248386 0.032853
0.283848 0.249775 0.034150
0.323095 0.251301 0.036439
0.362676 0.253132 0.039536
0.402701 0.255238 0.043229
0.442878 0.257511 0.047242
0.483192 0.259632 0.051331
0.523644 0.261982 0.055558
0.564034 0.264134 0.059739
0.604166 0.265949 0.063615
0.643763 0.267048 0.066926
0.682811 0.267689 0.069657
0.721569 0.267704 0.071916
0.759991 0.267552 0.073915
0.798459 0.267185 0.075822
0.837034 0.266804 0.077684
0.875639 0.266377 0.079515
0.912474 0.265904 0.081300
0.946441 0.265354 0.082994
0.977005 0.264591 0.084611
0.997299 0.264088 0.086397
1.000000 0.263233 0.087892
1.000000 0.262623 0.089555
1.000000 0.261585 0.090913
1.000000 0.260731 0.092439
0.012284 0.266682 0.046250
0.026093 0.269383 0.045441
0.049790 0.271931 0.044175
0.078477 0.274388 0.042893
0.108797 0.276509 0.041566
0.140734 0.278386 0.040208
0.174319 0.280171 0.038880
0.209766 0.281895 0.038025
0.246815 0.283406 0.037705
0.285359 0.284993 0.038315
0.324529 0.286748 0.039918
0.364508 0.288762 0.042435
0.404807 0.290852 0.045670
0.445289 0.292988 0.049287
0.486000 0.295354 0.053330
0.526787 0.297780 0.057557
0.567590 0.299931 0.061707
0.607874 0.301701 0.065507
0.647883 0.303029 0.068925
0.687205 0.303792 0.071794
0.726009 0.303853 0.074006
0.764446 0.303609 0.075929
0.803082 0.303166 0.077790
0.841672 0.302724 0.079622
0.880278 0.302403 0.081453
0.917205 0.302083 0.083406
0.950896 0.301564 0.085161
0.981140 0.300908 0.086778
0.998077 0.300175 0.088319
1.000000 0.299474 0.090028
1.000000 0.298634 0.091447
1.000000 0.297948 0.093065
1.000000 0.297093 0.094591
0.013977 0.299809 0.051102
0.028962 0.302602 0.050477
0.053620 0.305425 0.049378
0.082261 0.308064 0.048219
0.112596 0.310552 0.047059
0.144305 0.312825 0.045945
0.177661 0.314961 0.044800
0.212589 0.316930 0.043870
0.249149 0.318853 0.043366
0.287297 0.320821 0.043534
0.326436 0.322728 0.044511
0.366430 0.324804 0.046342
0.406790 0.326955 0.048905
0.447562 0.329122 0.052094
0.488716 0.331487 0.055863
0.529732 0.333883 0.059846
0.570596 0.335988 0.063706
0.611292 0.337911 0.067475
0.651591 0.339315 0.070954
0.691264 0.340093 0.073838
0.730190 0.340139 0.076036
0.768719 0.339864 0.077943
0.807462 0.339528 0.079789
0.846250 0.339162 0.081621
0.884810 0.338643 0.083421
0.921309 0.338094 0.085161
0.954879 0.337804 0.087022
0.984970 0.337163 0.088670
0.998703 0.336400 0.090211
1.000000 0.335805 0.091905
1.000000 0.334951 0.093339
1.000000 0.334264 0.094942
1.000000 0.333394 0.096376
0.015686 0.333379 0.056184
0.031876 0.336431 0.055756
0.057786 0.339452 0.054841
0.086580 0.342260 0.053834
0.116854 0.345098 0.052842
0.148562 0.347646 0.051911
0.181506 0.350042 0.050996
0.216144 0.352453 0.050172
0.252308 0.354818 0.049607
0.289769 0.357031 0.049500
0.328664 0.359136 0.049989
0.368368 0.361196 0.051133
0.408820 0.363363 0.053025
0.449775 0.365728 0.055711
0.491096 0.368231 0.058991
0.532433 0.370535 0.062593
0.573480 0.372549 0.066148
0.614328 0.374380 0.069703
0.654780 0.375723 0.073014
0.694591 0.376577 0.075792
0.733791 0.376547 0.077913
0.772580 0.376226 0.079774
0.811398 0.375845 0.081590
0.850141 0.375448 0.083375
0.888808 0.375006 0.085145
0.925124 0.374533 0.086854
0.958373 0.373846 0.088518
0.988235 0.373312 0.090272
0.999161 0.372686 0.091844
1.000000 0.371984 0.093446
1.000000 0.371176 0.094942
1.000000 0.370459 0.096559
1.000000 0.369467 0.097841
0.018051 0.367391 0.061448
0.034974 0.370520 0.061173
0.062165 0.373877 0.060472
0.091157 0.377020 0.059648
0.121401 0.379919 0.058808
0.153048 0.382834 0.058045
0.185962 0.385489 0.057359
0.220310 0.388281 0.056687
0.255955 0.390784 0.056123
0.293034 0.393362 0.055894
0.331441 0.395804 0.056092
0.370687 0.397925 0.056672
0.411154 0.400229 0.058045
0.452033 0.402625 0.060121
0.493339 0.405020 0.062745
0.534585 0.407202 0.065644
0.575814 0.409201 0.068864
0.616999 0.410986 0.072129
0.657542 0.412329 0.075151
0.697581 0.413031 0.077699
0.736736 0.412940 0.079667
0.775830 0.412696 0.081437
0.814755 0.412268 0.083192
0.853742 0.411810 0.084947
0.892409 0.411322 0.086656
0.928542 0.410773 0.088304
0.961563 0.410178 0.089921
0.991104 0.409384 0.091478
0.999496 0.408896 0.093202
1.000000 0.408011 0.094652
1.000000 0.407446 0.096284
1.000000 0.406638 0.097810
1.000000 0.405707 0.099168
0.022538 0.401770 0.066850
0.039200 0.404959 0.066697
0.066636 0.408484 0.066163
0.095720 0.411810 0.065507
0.126131 0.415061 0.064851
0.157717 0.418189 0.064240
0.190524 0.421195 0.063752
0.224659 0.424201 0.063249
0.260090 0.427070 0.062806
0.296483 0.429572 0.062318
0.334340 0.432166 0.062287
0.373434 0.434760 0.062730
0.413581 0.437354 0.063691
0.454353 0.439750 0.065156
0.495338 0.441901 0.066972
0.536614 0.444083 0.069337
0.578073 0.446021 0.072038
0.619089 0.447761 0.074800
0.659785 0.448890 0.077348
0.699718 0.449287 0.079408
0.739071 0.449287 0.081254
0.778347 0.448905 0.082933
0.817441 0.448569 0.084596
0.856672 0.448081 0.086275
0.895354 0.447532 0.087922
0.931518 0.447089 0.089540
0.964218 0.446418 0.091096
0.993652 0.445563 0.092607
0.999741 0.445029 0.094285
1.000000 0.444266 0.095735
1.000000 0.443641 0.097353
1.000000 0.442649 0.098695
1.000000 0.441840 0.100237
0.027298 0.436225 0.072206
0.043488 0.439582 0.072190
0.071092 0.443290 0.071809
0.100298 0.446937 0.071351
0.130755 0.450370 0.070863
0.162448 0.453712 0.070390
0.195331 0.456931 0.070039
0.229297 0.460136 0.069734
0.264271 0.463020 0.069215
0.300420 0.465995 0.068925
0.337972 0.468986 0.068864
0.376577 0.471733 0.069062
0.416205 0.474372 0.069642
0.456397 0.476631 0.070436
0.497215 0.478859 0.071748
0.538491 0.481010 0.073518
0.579782 0.482902 0.075547
0.620706 0.484428 0.077668
0.661204 0.485191 0.079530
0.701122 0.485405 0.081147
0.740688 0.485237 0.082643
0.780102 0.484932 0.084123
0.819486 0.484550 0.085649
0.858717 0.484154 0.087190
0.897429 0.483558 0.088746
0.933822 0.483085 0.090486
0.966445 0.482567 0.092012
0.995666 0.481788 0.093477
0.999924 0.481071 0.094972
1.000000 0.480369 0.096513
1.000000 0.479454 0.097978
1.000000 0.478691 0.099458
1.000000 0.478004 0.100984
0.031922 0.470771 0.077424
0.047471 0.474144 0.077501
0.075380 0.478157 0.077317
0.104814 0.481865 0.077012
0.135393 0.485618 0.076707
0.167071 0.489143 0.076371
0.199847 0.492638 0.076081
0.233539 0.495842 0.075776
0.268482 0.499077 0.075578
0.304509 0.502434 0.075410
0.341619 0.505455 0.075303
0.379690 0.508461 0.075364
0.418631 0.511025 0.075471
0.458427 0.513405 0.075959
0.499046 0.515831 0.076829
0.539986 0.517845 0.077958
0.580880 0.519448 0.079179
0.621637 0.520668 0.080522
0.662089 0.521462 0.081865
0.702174 0.521553 0.083024
0.741863 0.521340 0.084184
0.781491 0.521172 0.085466
0.821057 0.520638 0.086809
0.860426 0.520165 0.088197
0.899336 0.519661 0.089631
0.935348 0.519081 0.091051
0.968124 0.518486 0.092638
0.996826 0.517723 0.094057
1.000000 0.516838 0.095399
1.000000 0.516304 0.096971
1.000000 0.515389 0.098299
1.000000 0.514565 0.099840
1.000000 0.513848 0.101381
0.036240 0.505119 0.082353
0.051270 0.508644 0.082521
0.079316 0.512688 0.082475
0.108904 0.516701 0.082338
0.139559 0.520638 0.082216
0.171283 0.524468 0.082048
0.203967 0.527947 0.081666
0.237720 0.531487 0.081651
0.272679 0.535058 0.081621
0.308431 0.538430 0.081529
0.345159 0.541695 0.081422
0.382589 0.544656 0.081224
0.421256 0.547417 0.081224
0.460594 0.550027 0.081437
0.500679 0.552392 0.081865
0.541115 0.554299 0.082399
0.581567 0.555688 0.082933
0.622171 0.556847 0.083604
0.662379 0.557275 0.084260
0.702480 0.557427 0.084932
0.742321 0.557366 0.085756
0.782101 0.557046 0.086763
0.821851 0.556634 0.087861
0.861524 0.556146 0.089052
0.900481 0.555550 0.090288
0.936477 0.554910 0.091554
0.969116 0.554086 0.092836
0.997024 0.553567 0.094347
1.000000 0.552667 0.095644
1.000000 0.551949 0.097124
1.000000 0.551125 0.098405
1.000000 0.550393 0.099916
1.000000 0.549615 0.101396
0.040070 0.539239 0.086839
0.054551 0.542763 0.087083
0.082765 0.546975 0.087190
0.112490 0.551278 0.087236
0.143191 0.555245 0.087205
0.174868 0.559014 0.086961
0.207660 0.563027 0.086961
0.241459 0.566735 0.087022
0.276295 0.570428 0.087114
0.311833 0.574060 0.087129
0.348089 0.577279 0.086900
0.385321 0.580423 0.086717
0.423529 0.583307 0.086610
0.462470 0.586069 0.086564
0.501915 0.588342 0.086519
0.541680 0.590005 0.086458
0.581720 0.591470 0.086488
0.621973 0.592355 0.086549
0.662104 0.592813 0.086641
0.702083 0.592996 0.086915
0.742199 0.592981 0.087373
0.782116 0.592676 0.088029
0.822141 0.592386 0.088838
0.861967 0.591852 0.089769
0.901030 0.591226 0.090791
0.937026 0.590539 0.091875
0.969635 0.589792 0.092988
0.997086 0.589059 0.094347
1.000000 0.588296 0.095598
1.000000 0.587472 0.096956
1.000000 0.586694 0.098238
1.000000 0.585931 0.099702
1.000000 0.585000 0.101030
0.043488 0.573083 0.090929
0.057206 0.576516 0.091173
0.085573 0.580896 0.091325
0.115358 0.585183 0.091447
0.146304 0.589425 0.091585
0.177905 0.593347 0.091463
0.210819 0.597513 0.091585
0.244541 0.601495 0.091707
0.279240 0.605295 0.091875
0.314687 0.608957 0.091920
0.350668 0.612299 0.091752
0.387549 0.615518 0.091539
0.425269 0.618570 0.091325
0.463645 0.621332 0.091051
0.502449 0.623484 0.090608
0.541772 0.625223 0.090120
0.581308 0.626444 0.089677
0.621180 0.627420 0.089281
0.661219 0.627939 0.088991
0.701350 0.628214 0.088884
0.741527 0.628260 0.088991
0.781537 0.628138 0.089281
0.821683 0.627710 0.089769
0.861646 0.627314 0.090394
0.900816 0.626673 0.091173
0.937011 0.625956 0.092042
0.969512 0.625177 0.092988
0.997086 0.624369 0.094026
1.000000 0.623728 0.095323
1.000000 0.622751 0.096452
1.000000 0.622126 0.097856
1.000000 0.621286 0.099229
1.000000 0.620478 0.100496
0.046754 0.606867 0.094865
0.059785 0.610193 0.095064
0.087938 0.614496 0.095155
0.117754 0.618845 0.095232
0.148577 0.623056 0.095323
0.180377 0.627268 0.095354
0.213092 0.631235 0.095384
0.246738 0.635325 0.095552
0.281315 0.639338 0.095766
0.316579 0.643107 0.095888
0.352453 0.646494 0.095720
0.388983 0.649882 0.095506
0.426276 0.652934 0.095171
0.464103 0.655558 0.094697
0.502342 0.657816 0.094011
0.541161 0.659525 0.093217
0.580438 0.660945 0.092485
0.620111 0.661921 0.091844
0.659998 0.662699 0.091295
0.700069 0.663081 0.090852
0.740230 0.663218 0.090608
0.780453 0.663157 0.090562
0.820539 0.662913 0.090700
0.860761 0.662379 0.091005
0.900038 0.661891 0.091508
0.936355 0.661173 0.092149
0.969055 0.660395 0.092897
0.997024 0.659556 0.093767
1.000000 0.658915 0.094926
1.000000 0.658061 0.095949
1.000000 0.657404 0.097276
1.000000 0.656413 0.098405
1.000000 0.655772 0.099825
0.049866 0.640635 0.098665
0.062104 0.643839 0.098817
0.090303 0.648188 0.098863
0.119982 0.652445 0.098833
0.150683 0.656596 0.098863
0.182391 0.660822 0.098894
0.214801 0.664744 0.098741
0.248310 0.668757 0.098787
0.282643 0.672755 0.098924
0.317708 0.676524 0.099046
0.353277 0.679988 0.098848
0.389487 0.683268 0.098589
0.426398 0.686351 0.098207
0.463981 0.689128 0.097627
0.501930 0.691463 0.096803
0.540429 0.693339 0.095918
0.579416 0.694911 0.095064
0.618814 0.696162 0.094240
0.658518 0.697093 0.093477
0.698466 0.697612 0.092790
0.738582 0.697856 0.092241
0.778805 0.697871 0.091875
0.819074 0.697688 0.091661
0.859403 0.697353 0.091676
0.898772 0.696880 0.091844
0.935210 0.696193 0.092241
0.968002 0.695567 0.092790
0.996704 0.694759 0.093462
0.999985 0.694072 0.094423
1.000000 0.693263 0.095369
1.000000 0.692576 0.096544
1.000000 0.691615 0.097642
1.000000 0.690990 0.099001
0.052796 0.674327 0.102266
0.064240 0.677424 0.102403
0.092485 0.681727 0.102373
0.121904 0.685878 0.102266
0.152575 0.690043 0.102205
0.184146 0.694194 0.102159
0.216510 0.698070 0.101915
0.249744 0.702083 0.101839
0.283772 0.705852 0.101839
0.318578 0.709697 0.101854
0.353918 0.713161 0.101656
0.389899 0.716503 0.101320
0.426490 0.719600 0.100877
0.463722 0.722438 0.100252
0.501411 0.724926 0.099458
0.539498 0.726879 0.098451
0.578149 0.728557 0.097444
0.617243 0.730083 0.096483
0.656870 0.731029 0.095521
0.696651 0.731823 0.094652
0.736660 0.732189 0.093858
0.776837 0.732464 0.093202
0.817197 0.732296 0.092638
0.857404 0.732036 0.092332
0.897017 0.731456 0.092195
0.933623 0.730999 0.092332
0.966567 0.730465 0.092683
0.995773 0.729686 0.093156
0.999924 0.728908 0.093828
1.000000 0.728237 0.094743
1.000000 0.727443 0.095689
1.000000 0.726741 0.096803
1.000000 0.726131 0.098085
0.055558 0.707958 0.105699
0.066346 0.711086 0.105821
0.094377 0.715282 0.105699
0.123812 0.719356 0.105531
0.154314 0.723445 0.105364
0.185702 0.727474 0.105196
0.217868 0.731258 0.104860
0.250858 0.735164 0.104662
0.284749 0.738964 0.104509
0.319249 0.742718 0.104402
0.354421 0.746227 0.104234
0.390066 0.749462 0.103777
0.426429 0.752483 0.103227
0.463218 0.755489 0.102586
0.500618 0.758083 0.101793
0.538506 0.760128 0.100710
0.576791 0.762036 0.099626
0.615763 0.763592 0.098543
0.654978 0.764828 0.097459
0.694682 0.765759 0.096407
0.734554 0.766278 0.095430
0.774792 0.766674 0.094545
0.814939 0.766583 0.093675
0.855222 0.766339 0.093004
0.894911 0.766003 0.092622
0.931624 0.765606 0.092485
0.964767 0.765209 0.092653
0.994095 0.764508 0.092927
0.999802 0.763729 0.093339
1.000000 0.763272 0.094133
1.000000 0.762448 0.094865
1.000000 0.761837 0.095964
1.000000 0.761242 0.097139
0.058137 0.741527 0.108965
0.068116 0.744518 0.109041
0.096162 0.748638 0.108812
0.125490 0.752758 0.108568
0.155856 0.756725 0.108293
0.187045 0.760647 0.108003
0.219135 0.764553 0.107683
0.251942 0.768261 0.107271
0.285374 0.771923 0.106950
0.319722 0.775586 0.106691
0.354620 0.779019 0.106416
0.390021 0.782208 0.105928
0.426093 0.785321 0.105333
0.462730 0.788235 0.104662
0.499840 0.790890 0.103838
0.537469 0.793179 0.102770
0.575418 0.795178 0.101595
0.614069 0.796857 0.100435
0.653178 0.798245 0.099245
0.692500 0.799313 0.098070
0.732341 0.800122 0.096941
0.772259 0.800610 0.095842
0.812467 0.800656 0.094759
0.852781 0.800565 0.093889
0.892515 0.800336 0.093233
0.929412 0.800000 0.092790
0.962676 0.799710 0.092744
0.992142 0.799237 0.092790
0.999634 0.798642 0.092988
1.000000 0.798077 0.093584
1.000000 0.797330 0.094179
1.000000 0.796887 0.095125
1.000000 0.796246 0.096117
0.060487 0.774975 0.111986
0.069673 0.777844 0.112016
0.097612 0.782010 0.111727
0.126802 0.785992 0.111360
0.157137 0.789853 0.110948
0.188159 0.793652 0.110567
0.220081 0.797498 0.110170
0.252628 0.801068 0.109590
0.285954 0.804746 0.109133
0.320043 0.808316 0.108751
0.354681 0.811688 0.108370
0.389853 0.814832 0.107836
0.425666 0.817929 0.107210
0.462013 0.820935 0.106508
0.499001 0.823651 0.105669
0.536248 0.826062 0.104631
0.574029 0.828153 0.103410
0.612360 0.829908 0.102159
0.651194 0.831556 0.100923
0.690455 0.832807 0.099657
0.730068 0.833753 0.098390
0.769757 0.834211 0.097078
0.809888 0.834562 0.095872
0.850156 0.834638 0.094835
0.889937 0.834668 0.093980
0.926925 0.834440 0.093294
0.960311 0.834150 0.092912
0.989960 0.833860 0.092805
0.999435 0.833234 0.092805
1.000000 0.832776 0.093080
1.000000 0.832181 0.093584
1.000000 0.831785 0.094392
1.000000 0.831067 0.095125
0.062577 0.808286 0.114763
0.071092 0.811185 0.114778
0.098909 0.815091 0.114336
0.127962 0.818997 0.113878
0.158022 0.822812 0.113359
0.189014 0.826520 0.112856
0.220874 0.830274 0.112352
0.253178 0.833814 0.111757
0.286244 0.837339 0.111147
0.320058 0.840803 0.110613
0.354589 0.844251 0.110124
0.389731 0.847440 0.109590
0.425162 0.850446 0.108919
0.461372 0.853422 0.108141
0.497948 0.856153 0.107286
0.535088 0.858762 0.106264
0.572610 0.860929 0.105013
0.610651 0.862791 0.103731
0.649226 0.864561 0.102449
0.688243 0.865934 0.101122
0.727657 0.867033 0.099794
0.767346 0.867796 0.098421
0.807309 0.868269 0.097063
0.847471 0.868467 0.095857
0.887221 0.868620 0.094804
0.924285 0.868513 0.093919
0.957717 0.868269 0.093263
0.987503 0.868132 0.092988
0.999161 0.867750 0.092790
1.000000 0.867292 0.092775
1.000000 0.866850 0.093156
1.000000 0.866529 0.093782
1.000000 0.865858 0.094362
0.064546 0.841611 0.117418
0.072236 0.844343 0.117357
0.099825 0.848142 0.116716
0.128893 0.851957 0.116136
0.158816 0.855573 0.115526
0.189639 0.859266 0.114916
0.221332 0.862913 0.114305
0.253681 0.866453 0.113710
0.286503 0.869825 0.112963
0.320058 0.873243 0.112276
0.354376 0.876585 0.111711
0.389212 0.879713 0.111162
0.424704 0.882643 0.110445
0.460533 0.885451 0.109621
0.497017 0.888228 0.108751
0.533959 0.890700 0.107759
0.571298 0.892882 0.106584
0.609049 0.894789 0.105257
0.647318 0.896513 0.103899
0.686091 0.897917 0.102556
0.725292 0.899077 0.101167
0.764858 0.899962 0.099779
0.804730 0.900572 0.098375
0.844862 0.900908 0.097017
0.884520 0.901015 0.095766
0.921614 0.901106 0.094743
