public/luts/fx3.cube
# framediff hero grade: FX3 smoothed fit (open/phone; AE chain composed)
# generated by gradefit.py
LUT_3D_SIZE 65
DOMAIN_MIN 0 0 0
DOMAIN_MAX 1 1 1
0.041967 0.034693 0.074526
0.041967 0.034693 0.074526
0.041967 0.034693 0.074526
0.041967 0.034693 0.074526
0.041967 0.034693 0.074526
0.041967 0.034693 0.074526
0.056791 0.034390 0.074947
0.105170 0.034214 0.074877
0.130093 0.034906 0.074049
0.149219 0.035756 0.073216
0.166171 0.036945 0.072637
0.182568 0.038582 0.072378
0.201540 0.041277 0.072615
0.222055 0.045688 0.074023
0.243183 0.051489 0.076470
0.265627 0.058800 0.080033
0.289279 0.067637 0.084784
0.314152 0.078056 0.090789
0.340347 0.090091 0.098094
0.367662 0.103593 0.106609
0.396058 0.118317 0.116107
0.425343 0.133799 0.126187
0.455458 0.149373 0.136170
0.486195 0.163967 0.145145
0.518026 0.177037 0.152678
0.550623 0.187074 0.157371
0.584534 0.194885 0.159896
0.619448 0.202370 0.161931
0.654455 0.209697 0.163684
0.689302 0.216886 0.165208
0.723709 0.223950 0.166538
0.756720 0.230754 0.167655
0.786923 0.237111 0.168565
0.811997 0.242668 0.169286
0.830213 0.247094 0.169848
0.841076 0.250111 0.170329
0.844902 0.251483 0.170752
0.845876 0.251835 0.170862
0.845876 0.251835 0.170862
0.845876 0.251835 0.170862
0.845876 0.251835 0.170862
0.845876 0.251835 0.170862
0.845876 0.251835 0.170862
0.845876 0.251835 0.170862
0.845876 0.251835 0.170862
0.845876 0.251835 0.170862
0.845876 0.251835 0.170862
0.845876 0.251835 0.170862
0.845876 0.251835 0.170862
0.845876 0.251835 0.170862
0.845876 0.251835 0.170862
0.845876 0.251835 0.170862
0.845876 0.251835 0.170862
0.845876 0.251835 0.170862
0.845876 0.251835 0.170862
0.845876 0.251835 0.170862
0.845876 0.251835 0.170862
0.845876 0.251835 0.170862
0.845876 0.251835 0.170862
0.845876 0.251835 0.170862
0.845876 0.251835 0.170862
0.845876 0.251835 0.170862
0.845876 0.251835 0.170862
0.845876 0.251835 0.170862
0.845876 0.251835 0.170862
0.041967 0.034693 0.074526
0.041967 0.034693 0.074526
0.041967 0.034693 0.074526
0.041967 0.034693 0.074526
0.041967 0.034693 0.074526
0.041967 0.034693 0.074526
0.056791 0.034390 0.074947
0.105170 0.034214 0.074877
0.130093 0.034906 0.074049
0.149219 0.035756 0.073216
0.166171 0.036945 0.072637
0.182568 0.038582 0.072378
0.201540 0.041277 0.072615
0.222055 0.045688 0.074023
0.243183 0.051489 0.076470
0.265627 0.058800 0.080033
0.289279 0.067637 0.084784
0.314152 0.078056 0.090789
0.340347 0.090091 0.098094
0.367662 0.103593 0.106609
0.396058 0.118317 0.116107
0.425343 0.133799 0.126187
0.455458 0.149373 0.136170
0.486195 0.163967 0.145145
0.518026 0.177037 0.152678
0.550623 0.187074 0.157371
0.584534 0.194885 0.159896
0.619448 0.202370 0.161931
0.654455 0.209697 0.163684
0.689302 0.216886 0.165208
0.723709 0.223950 0.166538
0.756720 0.230754 0.167655
0.786923 0.237111 0.168565
0.811997 0.242668 0.169286
0.830213 0.247094 0.169848
0.841076 0.250111 0.170329
0.844902 0.251483 0.170752
0.845876 0.251835 0.170862
0.845876 0.251835 0.170862
0.845876 0.251835 0.170862
0.845876 0.251835 0.170862
0.845876 0.251835 0.170862
0.845876 0.251835 0.170862
0.845876 0.251835 0.170862
0.845876 0.251835 0.170862
0.845876 0.251835 0.170862
0.845876 0.251835 0.170862
0.845876 0.251835 0.170862
0.845876 0.251835 0.170862
0.845876 0.251835 0.170862
0.845876 0.251835 0.170862
0.845876 0.251835 0.170862
0.845876 0.251835 0.170862
0.845876 0.251835 0.170862
0.845876 0.251835 0.170862
0.845876 0.251835 0.170862
0.845876 0.251835 0.170862
0.845876 0.251835 0.170862
0.845876 0.251835 0.170862
0.845876 0.251835 0.170862
0.845876 0.251835 0.170862
0.845876 0.251835 0.170862
0.845876 0.251835 0.170862
0.845876 0.251835 0.170862
0.845876 0.251835 0.170862
0.041967 0.034693 0.074526
0.041967 0.034693 0.074526
0.041967 0.034693 0.074526
0.041967 0.034693 0.074526
0.041967 0.034693 0.074526
0.041967 0.034693 0.074526
0.056791 0.034390 0.074947
0.105170 0.034214 0.074877
0.130093 0.034906 0.074049
0.149219 0.035756 0.073216
0.166171 0.036945 0.072637
0.182568 0.038582 0.072378
0.201540 0.041277 0.072615
0.222055 0.045688 0.074023
0.243183 0.051489 0.076470
0.265627 0.058800 0.080033
0.289279 0.067637 0.084784
0.314152 0.078056 0.090789
0.340347 0.090091 0.098094
0.367662 0.103593 0.106609
0.396058 0.118317 0.116107
0.425343 0.133799 0.126187
0.455458 0.149373 0.136170
0.486195 0.163967 0.145145
0.518026 0.177037 0.152678
0.550623 0.187074 0.157371
0.584534 0.194885 0.159896
0.619448 0.202370 0.161931
0.654455 0.209697 0.163684
0.689302 0.216886 0.165208
0.723709 0.223950 0.166538
0.756720 0.230754 0.167655
0.786923 0.237111 0.168565
0.811997 0.242668 0.169286
0.830213 0.247094 0.169848
0.841076 0.250111 0.170329
0.844902 0.251483 0.170752
0.845876 0.251835 0.170862
0.845876 0.251835 0.170862
0.845876 0.251835 0.170862
0.845876 0.251835 0.170862
0.845876 0.251835 0.170862
0.845876 0.251835 0.170862
0.845876 0.251835 0.170862
0.845876 0.251835 0.170862
0.845876 0.251835 0.170862
0.845876 0.251835 0.170862
0.845876 0.251835 0.170862
0.845876 0.251835 0.170862
0.845876 0.251835 0.170862
0.845876 0.251835 0.170862
0.845876 0.251835 0.170862
0.845876 0.251835 0.170862
0.845876 0.251835 0.170862
0.845876 0.251835 0.170862
0.845876 0.251835 0.170862
0.845876 0.251835 0.170862
0.845876 0.251835 0.170862
0.845876 0.251835 0.170862
0.845876 0.251835 0.170862
0.845876 0.251835 0.170862
0.845876 0.251835 0.170862
0.845876 0.251835 0.170862
0.845876 0.251835 0.170862
0.845876 0.251835 0.170862
0.041967 0.034693 0.074526
0.041967 0.034693 0.074526
0.041967 0.034693 0.074526
0.041967 0.034693 0.074526
0.041967 0.034693 0.074526
0.041967 0.034693 0.074526
0.056791 0.034390 0.074947
0.105170 0.034214 0.074877
0.130093 0.034906 0.074049
0.149219 0.035756 0.073216
0.166171 0.036945 0.072637
0.182568 0.038582 0.072378
0.201540 0.041277 0.072615
0.222055 0.045688 0.074023
0.243183 0.051489 0.076470
0.265627 0.058800 0.080033
0.289279 0.067637 0.084784
0.314152 0.078056 0.090789
0.340347 0.090091 0.098094
0.367662 0.103593 0.106609
0.396058 0.118317 0.116107
0.425343 0.133799 0.126187
0.455458 0.149373 0.136170
0.486195 0.163967 0.145145
0.518026 0.177037 0.152678
0.550623 0.187074 0.157371
0.584534 0.194885 0.159896
0.619448 0.202370 0.161931
0.654455 0.209697 0.163684
0.689302 0.216886 0.165208
0.723709 0.223950 0.166538
0.756720 0.230754 0.167655
0.786923 0.237111 0.168565
0.811997 0.242668 0.169286
0.830213 0.247094 0.169848
0.841076 0.250111 0.170329
0.844902 0.251483 0.170752
0.845876 0.251835 0.170862
0.845876 0.251835 0.170862
0.845876 0.251835 0.170862
0.845876 0.251835 0.170862
0.845876 0.251835 0.170862
0.845876 0.251835 0.170862
0.845876 0.251835 0.170862
0.845876 0.251835 0.170862
0.845876 0.251835 0.170862
0.845876 0.251835 0.170862
0.845876 0.251835 0.170862
0.845876 0.251835 0.170862
0.845876 0.251835 0.170862
0.845876 0.251835 0.170862
0.845876 0.251835 0.170862
0.845876 0.251835 0.170862
0.845876 0.251835 0.170862
0.845876 0.251835 0.170862
0.845876 0.251835 0.170862
0.845876 0.251835 0.170862
0.845876 0.251835 0.170862
0.845876 0.251835 0.170862
0.845876 0.251835 0.170862
0.845876 0.251835 0.170862
0.845876 0.251835 0.170862
0.845876 0.251835 0.170862
0.845876 0.251835 0.170862
0.845876 0.251835 0.170862
0.041967 0.034693 0.074526
0.041967 0.034693 0.074526
0.041967 0.034693 0.074526
0.041967 0.034693 0.074526
0.041967 0.034693 0.074526
0.041967 0.034693 0.074526
0.056791 0.034390 0.074947
0.105170 0.034214 0.074877
0.130093 0.034906 0.074049
0.149219 0.035756 0.073216
0.166171 0.036945 0.072637
0.182568 0.038582 0.072378
0.201540 0.041277 0.072615
0.222055 0.045688 0.074023
0.243183 0.051489 0.076470
0.265627 0.058800 0.080033
0.289279 0.067637 0.084784
0.314152 0.078056 0.090789
0.340347 0.090091 0.098094
0.367662 0.103593 0.106609
0.396058 0.118317 0.116107
0.425343 0.133799 0.126187
0.455458 0.149373 0.136170
0.486195 0.163967 0.145145
0.518026 0.177037 0.152678
0.550623 0.187074 0.157371
0.584534 0.194885 0.159896
0.619448 0.202370 0.161931
0.654455 0.209697 0.163684
0.689302 0.216886 0.165208
0.723709 0.223950 0.166538
0.756720 0.230754 0.167655
0.786923 0.237111 0.168565
0.811997 0.242668 0.169286
0.830213 0.247094 0.169848
0.841076 0.250111 0.170329
0.844902 0.251483 0.170752
0.845876 0.251835 0.170862
0.845876 0.251835 0.170862
0.845876 0.251835 0.170862
0.845876 0.251835 0.170862
0.845876 0.251835 0.170862
0.845876 0.251835 0.170862
0.845876 0.251835 0.170862
0.845876 0.251835 0.170862
0.845876 0.251835 0.170862
0.845876 0.251835 0.170862
0.845876 0.251835 0.170862
0.845876 0.251835 0.170862
0.845876 0.251835 0.170862
0.845876 0.251835 0.170862
0.845876 0.251835 0.170862
0.845876 0.251835 0.170862
0.845876 0.251835 0.170862
0.845876 0.251835 0.170862
0.845876 0.251835 0.170862
0.845876 0.251835 0.170862
0.845876 0.251835 0.170862
0.845876 0.251835 0.170862
0.845876 0.251835 0.170862
0.845876 0.251835 0.170862
0.845876 0.251835 0.170862
0.845876 0.251835 0.170862
0.845876 0.251835 0.170862
0.845876 0.251835 0.170862
0.041967 0.034693 0.074526
0.041967 0.034693 0.074526
0.041967 0.034693 0.074526
0.041967 0.034693 0.074526
0.041967 0.034693 0.074526
0.041967 0.034693 0.074526
0.056791 0.034390 0.074947
0.105170 0.034214 0.074877
0.130093 0.034906 0.074049
0.149219 0.035756 0.073216
0.166171 0.036945 0.072637
0.182568 0.038582 0.072378
0.201540 0.041277 0.072615
0.222055 0.045688 0.074023
0.243183 0.051489 0.076470
0.265627 0.058800 0.080033
0.289279 0.067637 0.084784
0.314152 0.078056 0.090789
0.340347 0.090091 0.098094
0.367662 0.103593 0.106609
0.396058 0.118317 0.116107
0.425343 0.133799 0.126187
0.455458 0.149373 0.136170
0.486195 0.163967 0.145145
0.518026 0.177037 0.152678
0.550623 0.187074 0.157371
0.584534 0.194885 0.159896
0.619448 0.202370 0.161931
0.654455 0.209697 0.163684
0.689302 0.216886 0.165208
0.723709 0.223950 0.166538
0.756720 0.230754 0.167655
0.786923 0.237111 0.168565
0.811997 0.242668 0.169286
0.830213 0.247094 0.169848
0.841076 0.250111 0.170329
0.844902 0.251483 0.170752
0.845876 0.251835 0.170862
0.845876 0.251835 0.170862
0.845876 0.251835 0.170862
0.845876 0.251835 0.170862
0.845876 0.251835 0.170862
0.845876 0.251835 0.170862
0.845876 0.251835 0.170862
0.845876 0.251835 0.170862
0.845876 0.251835 0.170862
0.845876 0.251835 0.170862
0.845876 0.251835 0.170862
0.845876 0.251835 0.170862
0.845876 0.251835 0.170862
0.845876 0.251835 0.170862
0.845876 0.251835 0.170862
0.845876 0.251835 0.170862
0.845876 0.251835 0.170862
0.845876 0.251835 0.170862
0.845876 0.251835 0.170862
0.845876 0.251835 0.170862
0.845876 0.251835 0.170862
0.845876 0.251835 0.170862
0.845876 0.251835 0.170862
0.845876 0.251835 0.170862
0.845876 0.251835 0.170862
0.845876 0.251835 0.170862
0.845876 0.251835 0.170862
0.845876 0.251835 0.170862
0.043351 0.053381 0.076189
0.043351 0.053381 0.076189
0.043351 0.053381 0.076189
0.043351 0.053381 0.076189
0.043351 0.053381 0.076189
0.043351 0.053381 0.076189
0.056348 0.052492 0.075213
0.104929 0.034214 0.074885
0.129913 0.034898 0.074056
0.149075 0.035749 0.073223
0.166036 0.036934 0.072641
0.182449 0.038566 0.072378
0.201427 0.041253 0.072608
0.221956 0.045667 0.074016
0.243094 0.051464 0.076460
0.265544 0.058771 0.080018
0.289204 0.067607 0.084767
0.314082 0.078025 0.090770
0.340283 0.090060 0.098075
0.367604 0.103563 0.106590
0.396006 0.118290 0.116090
0.425297 0.133775 0.126171
0.455417 0.149352 0.136157
0.486159 0.163950 0.145135
0.517994 0.177027 0.152672
0.550594 0.187067 0.157368
0.584508 0.194880 0.159895
0.619425 0.202366 0.161930
0.654434 0.209693 0.163682
0.689284 0.216882 0.165207
0.723694 0.223947 0.166537
0.756708 0.230751 0.167655
0.786914 0.237109 0.168564
0.811992 0.242666 0.169286
0.830210 0.247093 0.169848
0.841074 0.250110 0.170329
0.844902 0.251483 0.170752
0.845876 0.251835 0.170862
0.845876 0.251835 0.170862
0.845876 0.251835 0.170862
0.845876 0.251835 0.170862
0.845876 0.251835 0.170862
0.845876 0.251835 0.170862
0.845876 0.251835 0.170862
0.845876 0.251835 0.170862
0.845876 0.251835 0.170862
0.845876 0.251835 0.170862
0.845876 0.251835 0.170862
0.845876 0.251835 0.170862
0.845876 0.251835 0.170862
0.845876 0.251835 0.170862
0.845876 0.251835 0.170862
0.845876 0.251835 0.170862
0.845876 0.251835 0.170862
0.845876 0.251835 0.170862
0.845876 0.251835 0.170862
0.845876 0.251835 0.170862
0.845876 0.251835 0.170862
0.845876 0.251835 0.170862
0.845876 0.251835 0.170862
0.845876 0.251835 0.170862
0.845876 0.251835 0.170862
0.845876 0.251835 0.170862
0.845876 0.251835 0.170862
0.845876 0.251835 0.170862
0.074647 0.081477 0.093013
0.074647 0.081477 0.093013
0.074647 0.081477 0.093013
0.074647 0.081477 0.093013
0.074647 0.081477 0.093013
0.074647 0.081477 0.093013
0.074467 0.081349 0.092830
0.098997 0.083161 0.104575
0.117437 0.086263 0.108036
0.133377 0.089071 0.109739
0.152470 0.093203 0.111581
0.170609 0.096781 0.113055
0.191896 0.100886 0.115044
0.214979 0.102826 0.114716
0.237898 0.099750 0.109731
0.264060 0.058262 0.079760
0.287867 0.067075 0.084470
0.312843 0.077475 0.090442
0.339162 0.089517 0.097735
0.366593 0.103045 0.106258
0.395098 0.117809 0.115776
0.424485 0.133347 0.125893
0.454688 0.148983 0.135923
0.485514 0.163656 0.144958
0.517425 0.176838 0.152579
0.550068 0.186937 0.157321
0.584044 0.194780 0.159867
0.619023 0.202282 0.161910
0.654067 0.209616 0.163664
0.688971 0.216818 0.165194
0.723433 0.223893 0.166528
0.756497 0.230707 0.167648
0.786757 0.237075 0.168560
0.811889 0.242642 0.169283
0.830156 0.247079 0.169846
0.841037 0.250100 0.170327
0.844889 0.251478 0.170751
0.845876 0.251835 0.170862
0.845876 0.251835 0.170862
0.845876 0.251835 0.170862
0.845876 0.251835 0.170862
0.845876 0.251835 0.170862
0.845876 0.251835 0.170862
0.845876 0.251835 0.170862
0.845876 0.251835 0.170862
0.845876 0.251835 0.170862
0.845876 0.251835 0.170862
0.845876 0.251835 0.170862
0.845876 0.251835 0.170862
0.845876 0.251835 0.170862
0.845876 0.251835 0.170862
0.845876 0.251835 0.170862
0.845876 0.251835 0.170862
0.845876 0.251835 0.170862
0.845876 0.251835 0.170862
0.845876 0.251835 0.170862
0.845876 0.251835 0.170862
0.845876 0.251835 0.170862
0.845876 0.251835 0.170862
0.845876 0.251835 0.170862
0.845876 0.251835 0.170862
0.845876 0.251835 0.170862
0.845876 0.251835 0.170862
0.845876 0.251835 0.170862
0.845876 0.251835 0.170862
0.101107 0.103191 0.121286
0.101107 0.103191 0.121286
0.101107 0.103191 0.121286
0.101107 0.103191 0.121286
0.101107 0.103191 0.121286
0.101107 0.103191 0.121286
0.101029 0.103096 0.121186
0.113420 0.103615 0.123888
0.124542 0.103015 0.122125
0.135241 0.103222 0.120841
0.150782 0.106153 0.121365
0.166619 0.109362 0.122196
0.186065 0.113425 0.123535
0.208170 0.118350 0.125650
0.230909 0.123226 0.127909
0.255651 0.128401 0.130568
0.281571 0.133721 0.133473
0.308753 0.139036 0.136623
0.337241 0.141166 0.137902
0.365578 0.102526 0.105925
0.394186 0.117327 0.115461
0.423670 0.132917 0.125614
0.453958 0.148612 0.135688
0.484868 0.163362 0.144781
0.516842 0.176612 0.152453
0.549542 0.186807 0.157273
0.583580 0.194680 0.159840
0.618621 0.202197 0.161890
0.653700 0.209539 0.163646
0.688657 0.216753 0.165180
0.723171 0.223839 0.166519
0.756287 0.230664 0.167642
0.786600 0.237041 0.168555
0.811786 0.242617 0.169279
0.830103 0.247064 0.169844
0.841000 0.250089 0.170325
0.844877 0.251474 0.170750
0.845876 0.251835 0.170862
0.845876 0.251835 0.170862
0.845876 0.251835 0.170862
0.845876 0.251835 0.170862
0.845876 0.251835 0.170862
0.845876 0.251835 0.170862
0.845876 0.251835 0.170862
0.845876 0.251835 0.170862
0.845876 0.251835 0.170862
0.845876 0.251835 0.170862
0.845876 0.251835 0.170862
0.845876 0.251835 0.170862
0.845876 0.251835 0.170862
0.845876 0.251835 0.170862
0.845876 0.251835 0.170862
0.845876 0.251835 0.170862
0.845876 0.251835 0.170862
0.845876 0.251835 0.170862
0.845876 0.251835 0.170862
0.845876 0.251835 0.170862
0.845876 0.251835 0.170862
0.845876 0.251835 0.170862
0.845876 0.251835 0.170862
0.845876 0.251835 0.170862
0.845876 0.251835 0.170862
0.845876 0.251835 0.170862
0.845876 0.251835 0.170862
0.845876 0.251835 0.170862
0.111626 0.118108 0.135252
0.111626 0.118108 0.135252
0.111626 0.118108 0.135252
0.111626 0.118108 0.135252
0.111626 0.118108 0.135252
0.111626 0.118108 0.135252
0.111614 0.118063 0.135229
0.116333 0.113633 0.129592
0.125119 0.111060 0.125426
0.135033 0.110444 0.123276
0.148667 0.112368 0.123002
0.163041 0.114868 0.123236
0.180796 0.118156 0.123892
0.202613 0.123310 0.125786
0.224889 0.128463 0.127797
0.249618 0.134445 0.130492
0.275356 0.140430 0.133348
0.302289 0.146240 0.136356
0.330478 0.151753 0.139477
0.360027 0.156444 0.142539
0.390793 0.160800 0.145645
0.422540 0.159468 0.146126
0.453227 0.148241 0.135453
0.484220 0.163067 0.144603
0.516255 0.176378 0.152320
0.549015 0.186677 0.157225
0.583115 0.194580 0.159812
0.618219 0.202113 0.161870
0.653332 0.209462 0.163627
0.688343 0.216689 0.165167
0.722909 0.223786 0.166509
0.756077 0.230620 0.167635
0.786442 0.237007 0.168551
0.811683 0.242593 0.169276
0.830049 0.247050 0.169842
0.840962 0.250079 0.170323
0.844865 0.251470 0.170748
0.845876 0.251835 0.170862
0.845876 0.251835 0.170862
0.845876 0.251835 0.170862
0.845876 0.251835 0.170862
0.845876 0.251835 0.170862
0.845876 0.251835 0.170862
0.845876 0.251835 0.170862
0.845876 0.251835 0.170862
0.845876 0.251835 0.170862
0.845876 0.251835 0.170862
0.845876 0.251835 0.170862
0.845876 0.251835 0.170862
0.845876 0.251835 0.170862
0.845876 0.251835 0.170862
0.845876 0.251835 0.170862
0.845876 0.251835 0.170862
0.845876 0.251835 0.170862
0.845876 0.251835 0.170862
0.845876 0.251835 0.170862
0.845876 0.251835 0.170862
0.845876 0.251835 0.170862
0.845876 0.251835 0.170862
0.845876 0.251835 0.170862
0.845876 0.251835 0.170862
0.845876 0.251835 0.170862
0.845876 0.251835 0.170862
0.845876 0.251835 0.170862
0.845876 0.251835 0.170862
0.113808 0.126198 0.139413
0.113808 0.126198 0.139413
0.113808 0.126198 0.139413
0.113808 0.126198 0.139413
0.113808 0.126198 0.139413
0.113808 0.126198 0.139413
0.113803 0.126166 0.139399
0.117968 0.122521 0.134072
0.126909 0.120181 0.129715
0.137277 0.119905 0.127546
0.149975 0.121413 0.126825
0.163950 0.123697 0.126716
0.180836 0.126638 0.126914
0.201358 0.131009 0.128084
0.222284 0.135353 0.129344
0.246149 0.140813 0.131501
0.271112 0.146414 0.133863
0.297518 0.152073 0.136501
0.325448 0.158104 0.139546
0.354750 0.164185 0.142810
0.385476 0.169763 0.146095
0.417433 0.174041 0.149091
0.450921 0.176941 0.151867
0.483572 0.162772 0.144424
0.515668 0.176143 0.152186
0.548486 0.186546 0.157177
0.582649 0.194480 0.159785
0.617816 0.202029 0.161850
0.652964 0.209385 0.163609
0.688029 0.216624 0.165154
0.722647 0.223732 0.166500
0.755866 0.230576 0.167629
0.786285 0.236973 0.168547
0.811580 0.242568 0.169273
0.829996 0.247035 0.169840
0.840925 0.250068 0.170321
0.844852 0.251465 0.170747
0.845876 0.251835 0.170862
0.845876 0.251835 0.170862
0.845876 0.251835 0.170862
0.845876 0.251835 0.170862
0.845876 0.251835 0.170862
0.845876 0.251835 0.170862
0.845876 0.251835 0.170862
0.845876 0.251835 0.170862
0.845876 0.251835 0.170862
0.845876 0.251835 0.170862
0.845876 0.251835 0.170862
0.845876 0.251835 0.170862
0.845876 0.251835 0.170862
0.845876 0.251835 0.170862
0.845876 0.251835 0.170862
0.845876 0.251835 0.170862
0.845876 0.251835 0.170862
0.845876 0.251835 0.170862
0.845876 0.251835 0.170862
0.845876 0.251835 0.170862
0.845876 0.251835 0.170862
0.845876 0.251835 0.170862
0.845876 0.251835 0.170862
0.845876 0.251835 0.170862
0.845876 0.251835 0.170862
0.845876 0.251835 0.170862
0.845876 0.251835 0.170862
0.845876 0.251835 0.170862
0.114879 0.132786 0.142121
0.114879 0.132786 0.142121
0.114879 0.132786 0.142121
0.114879 0.132786 0.142121
0.114879 0.132786 0.142121
0.114879 0.132786 0.142121
0.114875 0.132758 0.142109
0.118756 0.130773 0.138491
0.128574 0.128784 0.133914
0.139536 0.128851 0.131728
0.151354 0.129969 0.130602
0.164887 0.131938 0.130101
0.180897 0.134429 0.129796
0.200613 0.138546 0.130553
0.220655 0.142634 0.131388
0.243986 0.148047 0.133289
0.268326 0.153662 0.135413
0.294243 0.159499 0.137874
0.321604 0.165479 0.140593
0.350394 0.171416 0.143517
0.380757 0.177194 0.146618
0.412370 0.182394 0.149656
0.445565 0.187399 0.152831
0.479979 0.190253 0.155361
0.515875 0.190416 0.157311
0.547912 0.186404 0.157124
0.582145 0.194372 0.159755
0.617378 0.201937 0.161828
0.652565 0.209301 0.163589
0.687687 0.216554 0.165140
0.722362 0.223673 0.166490
0.755637 0.230529 0.167622
0.786114 0.236936 0.168542
0.811468 0.242542 0.169270
0.829938 0.247019 0.169838
0.840885 0.250057 0.170319
0.844839 0.251460 0.170745
0.845876 0.251835 0.170862
0.845876 0.251835 0.170862
0.845876 0.251835 0.170862
0.845876 0.251835 0.170862
0.845876 0.251835 0.170862
0.845876 0.251835 0.170862
0.845876 0.251835 0.170862
0.845876 0.251835 0.170862
0.845876 0.251835 0.170862
0.845876 0.251835 0.170862
0.845876 0.251835 0.170862
0.845876 0.251835 0.170862
0.845876 0.251835 0.170862
0.845876 0.251835 0.170862
0.845876 0.251835 0.170862
0.845876 0.251835 0.170862
0.845876 0.251835 0.170862
0.845876 0.251835 0.170862
0.845876 0.251835 0.170862
0.845876 0.251835 0.170862
0.845876 0.251835 0.170862
0.845876 0.251835 0.170862
0.845876 0.251835 0.170862
0.845876 0.251835 0.170862
0.845876 0.251835 0.170862
0.845876 0.251835 0.170862
0.845876 0.251835 0.170862
0.845876 0.251835 0.170862
0.116292 0.141336 0.145595
0.116292 0.141336 0.145595
0.116292 0.141336 0.145595
0.116292 0.141336 0.145595
0.116292 0.141336 0.145595
0.116292 0.141336 0.145595
0.116287 0.141306 0.145583
0.118242 0.140604 0.143946
0.129143 0.139100 0.138944
0.140931 0.139611 0.136764
0.151967 0.140546 0.135395
0.165252 0.142397 0.134646
0.180531 0.144492 0.133899
0.199628 0.148227 0.134181
0.218840 0.151830 0.134466
0.241417 0.156807 0.135835
0.265068 0.162005 0.137441
0.290420 0.167524 0.139430
0.317258 0.173409 0.141784
0.345669 0.179738 0.144605
0.375605 0.186131 0.147667
0.406764 0.192089 0.150735
0.439586 0.197649 0.153859
0.473670 0.201912 0.156593
0.509193 0.205177 0.159094
0.546311 0.206123 0.160996
0.584190 0.200581 0.161270
0.616805 0.201818 0.161799
0.652042 0.209192 0.163563
0.687241 0.216462 0.165121
0.721990 0.223597 0.166476
0.755338 0.230467 0.167612
0.785891 0.236887 0.168535
0.811322 0.242507 0.169266
0.829862 0.246999 0.169835
0.840832 0.250042 0.170317
0.844821 0.251454 0.170743
0.845876 0.251835 0.170862
0.845876 0.251835 0.170862
0.845876 0.251835 0.170862
0.845876 0.251835 0.170862
0.845876 0.251835 0.170862
0.845876 0.251835 0.170862
0.845876 0.251835 0.170862
0.845876 0.251835 0.170862
0.845876 0.251835 0.170862
0.845876 0.251835 0.170862
0.845876 0.251835 0.170862
0.845876 0.251835 0.170862
0.845876 0.251835 0.170862
0.845876 0.251835 0.170862
0.845876 0.251835 0.170862
0.845876 0.251835 0.170862
0.845876 0.251835 0.170862
0.845876 0.251835 0.170862
0.845876 0.251835 0.170862
0.845876 0.251835 0.170862
0.845876 0.251835 0.170862
0.845876 0.251835 0.170862
0.845876 0.251835 0.170862
0.845876 0.251835 0.170862
0.845876 0.251835 0.170862
0.845876 0.251835 0.170862
0.845876 0.251835 0.170862
0.845876 0.251835 0.170862
0.117831 0.150447 0.149304
0.117831 0.150447 0.149304
0.117831 0.150447 0.149304
0.117831 0.150447 0.149304
0.117831 0.150447 0.149304
0.117831 0.150447 0.149304
0.117827 0.150421 0.149293
0.117748 0.149960 0.149105
0.129500 0.149704 0.144250
0.141777 0.150590 0.142016
0.152130 0.151500 0.140497
0.165336 0.153452 0.139646
0.179877 0.155414 0.138657
0.198517 0.158982 0.138625
0.217240 0.162434 0.138603
0.239095 0.167099 0.139505
0.262124 0.172050 0.140672
0.286909 0.177436 0.142276
0.313128 0.183098 0.144169
0.341045 0.189123 0.146493
0.370492 0.195371 0.149130
0.401287 0.201408 0.151964
0.433728 0.207235 0.154931
0.467337 0.212652 0.157848
0.502391 0.217222 0.160559
0.539108 0.220265 0.162854
0.576658 0.220953 0.164344
0.616095 0.217778 0.164942
0.651440 0.209066 0.163533
0.686727 0.216356 0.165099
0.721560 0.223509 0.166461
0.754994 0.230395 0.167602
0.785634 0.236832 0.168528
0.811154 0.242467 0.169261
0.829774 0.246975 0.169831
0.840772 0.250025 0.170314
0.844801 0.251447 0.170741
0.845876 0.251835 0.170862
