public/luts/fx3.cube
# framediff hero grade: FX3 smoothed fit (open/phone; AE chain composed)
# generated by gradefit.py
LUT_3D_SIZE 9
DOMAIN_MIN 0 0 0
DOMAIN_MAX 1 1 1
0.041967 0.034693 0.074526
0.130093 0.034906 0.074049
0.289279 0.067637 0.084784
0.518026 0.177037 0.152678
0.786923 0.237111 0.168565
0.845876 0.251835 0.170862
0.845876 0.251835 0.170862
0.845876 0.251835 0.170862
0.845876 0.251835 0.170862
0.101107 0.103191 0.121286
0.124542 0.103015 0.122125
0.281571 0.133721 0.133473
0.516842 0.176612 0.152453
0.786600 0.237041 0.168555
0.845876 0.251835 0.170862
0.845876 0.251835 0.170862
0.845876 0.251835 0.170862
0.845876 0.251835 0.170862
0.121945 0.181118 0.161470
0.121852 0.180377 0.161177
0.250845 0.205364 0.152759
0.481222 0.251320 0.165596
0.784602 0.236608 0.168499
0.845876 0.251835 0.170862
0.845876 0.251835 0.170862
0.845876 0.251835 0.170862
0.845876 0.251835 0.170862
0.118976 0.286322 0.196789
0.119023 0.286003 0.196700
0.182569 0.310718 0.193954
0.388506 0.356213 0.190541
0.675454 0.383926 0.190366
0.816501 0.299951 0.178852
0.845876 0.251835 0.170862
0.845876 0.251835 0.170862
0.845876 0.251835 0.170862
0.095456 0.409146 0.227857
0.095475 0.409048 0.227834
0.095592 0.408448 0.227693
0.218830 0.456470 0.220801
0.513954 0.504343 0.209226
0.622298 0.496059 0.204562
0.760762 0.366531 0.187919
0.845876 0.251835 0.170862
0.845876 0.251835 0.170862
0.088768 0.447485 0.237556
0.088768 0.447485 0.237556
0.088768 0.447485 0.237556
0.088768 0.447485 0.237556
0.372241 0.523717 0.221301
0.557872 0.551091 0.212548
0.557872 0.551091 0.212548
0.661250 0.462773 0.200700
0.845876 0.251835 0.170862
0.088768 0.447485 0.237556
0.088768 0.447485 0.237556
0.088768 0.447485 0.237556
0.088768 0.447485 0.237556
0.088768 0.447485 0.237556
0.554591 0.550678 0.212805
0.557872 0.551091 0.212548
0.557872 0.551091 0.212548
0.559625 0.548956 0.211724
0.088768 0.447485 0.237556
0.088768 0.447485 0.237556
0.088768 0.447485 0.237556
0.088768 0.447485 0.237556
0.088768 0.447485 0.237556
0.088768 0.447485 0.237556
0.557872 0.551091 0.212548
0.557872 0.551091 0.212548
0.557872 0.551091 0.212548
0.088768 0.447485 0.237556
0.088768 0.447485 0.237556
0.088768 0.447485 0.237556
0.088768 0.447485 0.237556
0.088768 0.447485 0.237556
0.088768 0.447485 0.237556
0.088768 0.447485 0.237556
0.557872 0.551091 0.212548
0.557872 0.551091 0.212548
0.049181 0.042565 0.164831
0.133435 0.042190 0.158089
0.315743 0.098208 0.154202
0.535598 0.199641 0.187454
0.786733 0.237070 0.168559
0.845876 0.251835 0.170862
0.845876 0.251835 0.170862
0.845876 0.251835 0.170862
0.845876 0.251835 0.170862
0.112815 0.123392 0.172286
0.084703 0.083071 0.131905
0.292018 0.143393 0.168592
0.532655 0.197109 0.183719
0.786410 0.237000 0.168550
0.845876 0.251835 0.170862
0.845876 0.251835 0.170862
0.845876 0.251835 0.170862
0.845876 0.251835 0.170862
0.131668 0.200097 0.199515
0.131124 0.198628 0.197940
0.262036 0.210979 0.173410
0.481335 0.249483 0.165239
0.784412 0.236567 0.168493
0.845876 0.251835 0.170862
0.845876 0.251835 0.170862
0.845876 0.251835 0.170862
0.845876 0.251835 0.170862
0.119071 0.285686 0.196612
0.119118 0.285365 0.196523
0.181616 0.309652 0.193792
0.388343 0.355424 0.190349
0.675895 0.383199 0.190264
0.817833 0.298126 0.178593
0.845876 0.251835 0.170862
0.845876 0.251835 0.170862
0.845876 0.251835 0.170862
0.095493 0.408952 0.227812
0.095512 0.408855 0.227789
0.095630 0.408254 0.227648
0.218354 0.456128 0.220788
0.513948 0.504121 0.209205
0.622618 0.495791 0.204532
0.761585 0.365664 0.187802
0.845876 0.251835 0.170862
0.845876 0.251835 0.170862
0.088768 0.447485 0.237556
0.088768 0.447485 0.237556
0.088768 0.447485 0.237556
0.088768 0.447485 0.237556
0.371852 0.523654 0.221316
0.557872 0.551091 0.212548
0.557872 0.551091 0.212548
0.661674 0.462396 0.200654
0.845876 0.251835 0.170862
0.088768 0.447485 0.237556
0.088768 0.447485 0.237556
0.088768 0.447485 0.237556
0.088768 0.447485 0.237556
0.088768 0.447485 0.237556
0.554567 0.550675 0.212807
0.557872 0.551091 0.212548
0.557872 0.551091 0.212548
0.559648 0.548929 0.211714
0.088768 0.447485 0.237556
0.088768 0.447485 0.237556
0.088768 0.447485 0.237556
0.088768 0.447485 0.237556
0.088768 0.447485 0.237556
0.088768 0.447485 0.237556
0.557872 0.551091 0.212548
0.557872 0.551091 0.212548
0.557872 0.551091 0.212548
0.088768 0.447485 0.237556
0.088768 0.447485 0.237556
0.088768 0.447485 0.237556
0.088768 0.447485 0.237556
0.088768 0.447485 0.237556
0.088768 0.447485 0.237556
0.088768 0.447485 0.237556
0.557872 0.551091 0.212548
0.557872 0.551091 0.212548
0.078692 0.069815 0.298968
0.148215 0.080233 0.297763
0.375995 0.178137 0.295857
0.592304 0.271409 0.317771
0.832476 0.324395 0.315397
0.859568 0.289754 0.228470
0.845876 0.251835 0.170862
0.845876 0.251835 0.170862
0.845876 0.251835 0.170862
0.078403 0.069550 0.297859
0.132319 0.076909 0.297042
0.372240 0.175593 0.294402
0.590575 0.270471 0.316518
0.831939 0.323673 0.314211
0.859028 0.288246 0.225997
0.845876 0.251835 0.170862
0.845876 0.251835 0.170862
0.845876 0.251835 0.170862
0.187146 0.265260 0.326624
0.187010 0.264204 0.325851
0.283189 0.251274 0.285367
0.560143 0.320698 0.315046
0.828530 0.319084 0.306662
0.854859 0.276600 0.206891
0.845876 0.251835 0.170862
0.845876 0.251835 0.170862
0.845876 0.251835 0.170862
0.163159 0.367685 0.356100
0.163115 0.367129 0.355583
0.240946 0.386609 0.352050
0.507785 0.454509 0.320227
0.752822 0.464095 0.330431
0.826471 0.285736 0.176817
0.845876 0.251835 0.170862
0.845876 0.251835 0.170862
0.845876 0.251835 0.170862
0.104442 0.439708 0.286913
0.104302 0.439046 0.285827
0.103338 0.434627 0.278498
0.217320 0.456765 0.225501
0.513914 0.502743 0.209076
0.624597 0.494127 0.204347
0.766506 0.360257 0.187080
0.845876 0.251835 0.170862
0.845876 0.251835 0.170862
0.088768 0.447485 0.237556
0.088768 0.447485 0.237556
0.088768 0.447485 0.237556
0.088768 0.447485 0.237556
0.369444 0.523264 0.221410
0.557872 0.551091 0.212548
0.557872 0.551091 0.212548
0.664303 0.460052 0.200367
0.845876 0.251835 0.170862
0.088768 0.447485 0.237556
0.088768 0.447485 0.237556
0.088768 0.447485 0.237556
0.088768 0.447485 0.237556
0.088768 0.447485 0.237556
0.554418 0.550656 0.212819
0.557872 0.551091 0.212548
0.557872 0.551091 0.212548
0.559789 0.548761 0.211652
0.088768 0.447485 0.237556
0.088768 0.447485 0.237556
0.088768 0.447485 0.237556
0.088768 0.447485 0.237556
0.088768 0.447485 0.237556
0.088768 0.447485 0.237556
0.557872 0.551091 0.212548
0.557872 0.551091 0.212548
0.557872 0.551091 0.212548
0.088768 0.447485 0.237556
0.088768 0.447485 0.237556
0.088768 0.447485 0.237556
0.088768 0.447485 0.237556
0.088768 0.447485 0.237556
0.088768 0.447485 0.237556
0.088768 0.447485 0.237556
0.557872 0.551091 0.212548
0.557872 0.551091 0.212548
0.139788 0.126372 0.484797
0.139725 0.126314 0.484633
0.460414 0.294492 0.497220
0.663004 0.369986 0.501679
0.870075 0.425696 0.506075
0.903003 0.429456 0.480984
0.882522 0.358374 0.349904
0.845876 0.251835 0.170862
0.845876 0.251835 0.170862
0.139579 0.126178 0.484252
0.139516 0.126120 0.484088
0.456885 0.292186 0.496601
0.661671 0.369429 0.501071
0.869760 0.425322 0.505522
0.902918 0.429131 0.480381
0.882341 0.357804 0.348866
0.845876 0.251835 0.170862
0.845876 0.251835 0.170862
0.305228 0.346887 0.504934
0.305747 0.345932 0.504490
0.417464 0.359168 0.501805
0.650772 0.379164 0.503307
0.867802 0.423002 0.502095
0.902390 0.427112 0.476636
0.881202 0.354207 0.342322
0.845876 0.251835 0.170862
0.845876 0.251835 0.170862
0.237732 0.455877 0.537694
0.237840 0.455436 0.537403
0.291467 0.464616 0.536451
0.538611 0.498793 0.534156
0.833545 0.557953 0.544866
0.900692 0.420616 0.464590
0.877292 0.341868 0.319874
0.845876 0.251835 0.170862
0.845876 0.251835 0.170862
0.162420 0.576549 0.553955
0.162424 0.576340 0.553746
0.162446 0.575051 0.552458
0.355532 0.621612 0.553218
0.711234 0.682252 0.548762
0.812646 0.668045 0.516906
0.808733 0.380130 0.245984
0.845876 0.251835 0.170862
0.845876 0.251835 0.170862
0.115737 0.547768 0.423894
0.115678 0.547578 0.423540
0.115312 0.546402 0.421340
0.114133 0.542611 0.414253
0.450232 0.611213 0.384221
0.557872 0.551091 0.212548
0.557872 0.551091 0.212548
0.672778 0.452494 0.199436
0.845876 0.251835 0.170862
0.088768 0.447485 0.237556
0.088768 0.447485 0.237556
0.088768 0.447485 0.237556
0.088768 0.447485 0.237556
0.088768 0.447485 0.237556
0.553950 0.550596 0.212853
0.557872 0.551091 0.212548
0.557872 0.551091 0.212548
0.560233 0.548233 0.211456
0.088768 0.447485 0.237556
0.088768 0.447485 0.237556
0.088768 0.447485 0.237556
0.088768 0.447485 0.237556
0.088768 0.447485 0.237556
0.088768 0.447485 0.237556
0.557872 0.551091 0.212548
0.557872 0.551091 0.212548
0.557872 0.551091 0.212548
0.088768 0.447485 0.237556
0.088768 0.447485 0.237556
0.088768 0.447485 0.237556
0.088768 0.447485 0.237556
0.088768 0.447485 0.237556
0.088768 0.447485 0.237556
0.088768 0.447485 0.237556
0.557872 0.551091 0.212548
0.557872 0.551091 0.212548
0.299664 0.275517 0.768965
0.299603 0.275460 0.768887
0.299234 0.275113 0.768405
0.746279 0.507533 0.757198
0.904738 0.559766 0.756494
0.934842 0.577533 0.750220
0.931044 0.555644 0.711885
0.909294 0.454024 0.526509
0.845876 0.251835 0.170862
0.299464 0.275329 0.768705
0.299404 0.275273 0.768627
0.299034 0.274925 0.768145
0.745221 0.507189 0.756985
0.904576 0.559575 0.756304
0.934820 0.577410 0.750005
0.931021 0.555507 0.711645
0.909227 0.453748 0.525999
0.845876 0.251835 0.170862
0.298232 0.274173 0.767102
0.298172 0.274117 0.767024
0.297800 0.273768 0.766541
0.738602 0.505058 0.755670
0.903515 0.558362 0.755080
0.934689 0.576654 0.748680
0.930874 0.554664 0.710169
0.908813 0.452040 0.522837
0.845876 0.251835 0.170862
0.398342 0.555039 0.772169
0.398713 0.554564 0.772016
0.401025 0.551613 0.771069
0.651508 0.588739 0.770897
0.890254 0.612690 0.767274
0.934277 0.574276 0.744515
0.930350 0.551869 0.705172
0.907481 0.446584 0.512740
0.845876 0.251835 0.170862
0.257996 0.701342 0.796109
0.258074 0.701173 0.796020
0.258551 0.700132 0.795469
0.426707 0.725895 0.792574
0.790756 0.773982 0.790016
0.901325 0.788936 0.791067
0.928653 0.542919 0.689125
0.902723 0.428383 0.478994
0.845876 0.251835 0.170862
0.200376 0.744068 0.777265
0.200353 0.744029 0.777203
0.200218 0.743789 0.776819
0.199792 0.743037 0.775619
0.617474 0.810498 0.772006
0.869784 0.848679 0.767926
0.859826 0.830830 0.728200
0.801754 0.542527 0.396264
0.845876 0.251835 0.170862
0.147932 0.635273 0.586312
0.147894 0.635185 0.586150
0.147662 0.634638 0.585150
0.146928 0.632914 0.581999
0.144701 0.627440 0.571918
0.749825 0.730847 0.541211
0.642851 0.630295 0.353530
0.557872 0.551091 0.212548
0.562117 0.546228 0.210849
0.088768 0.447485 0.237556
0.088768 0.447485 0.237556
0.088768 0.447485 0.237556
0.088768 0.447485 0.237556
0.088768 0.447485 0.237556
0.088768 0.447485 0.237556
0.557872 0.551091 0.212548
0.557872 0.551091 0.212548
0.557872 0.551091 0.212548
0.088768 0.447485 0.237556
0.088768 0.447485 0.237556
0.088768 0.447485 0.237556
0.088768 0.447485 0.237556
0.088768 0.447485 0.237556
0.088768 0.447485 0.237556
0.088768 0.447485 0.237556
0.557872 0.551091 0.212548
0.557872 0.551091 0.212548
0.494811 0.459490 0.916036
0.494811 0.459490 0.916036
0.494811 0.459490 0.916036
0.667855 0.559453 0.872969
0.905229 0.625705 0.866987
0.945445 0.654422 0.864818
0.945445 0.654422 0.864818
0.945445 0.654422 0.864818
0.936333 0.586873 0.766055
0.494811 0.459490 0.916036
0.494811 0.459490 0.916036
0.494811 0.459490 0.916036
0.665849 0.559008 0.873364
0.905057 0.625612 0.866993
0.945445 0.654422 0.864818
0.945445 0.654422 0.864818
0.945445 0.654422 0.864818
0.936316 0.586765 0.765874
0.494811 0.459490 0.916036
0.494811 0.459490 0.916036
0.494811 0.459490 0.916036
0.651780 0.555539 0.876463
0.903991 0.625043 0.867029
0.945445 0.654422 0.864818
0.945445 0.654422 0.864818
0.945445 0.654422 0.864818
0.936211 0.586104 0.764756
0.494811 0.459490 0.916036
0.494811 0.459490 0.916036
0.494811 0.459490 0.916036
0.494811 0.459490 0.916036
0.900613 0.623238 0.867146
0.945445 0.654422 0.864818
0.945445 0.654422 0.864818
0.945445 0.654422 0.864818
0.935882 0.584025 0.761244
0.383362 0.722641 0.884278
0.383580 0.722444 0.884264
0.384926 0.721226 0.884176
0.389200 0.717357 0.883896
0.823041 0.778077 0.879506
0.928733 0.763752 0.873320
0.945445 0.654422 0.864818
0.945445 0.654422 0.864818
0.934816 0.577387 0.749964
0.260208 0.833042 0.891142
0.260208 0.833042 0.891142
0.260208 0.833042 0.891142
0.260208 0.833042 0.891142
0.595357 0.867346 0.887962
0.888476 0.896296 0.884841
0.888565 0.896004 0.884808
0.945445 0.654422 0.864818
0.930683 0.553623 0.708317
0.260208 0.833042 0.891142
0.260208 0.833042 0.891142
0.260208 0.833042 0.891142
0.260208 0.833042 0.891142
0.260208 0.833042 0.891142
0.877719 0.894887 0.884990
0.888474 0.896292 0.884831
0.887099 0.893081 0.877610
0.834503 0.751713 0.604628
0.206558 0.755003 0.794722
0.206537 0.754966 0.794663
0.206409 0.754739 0.794301
0.206010 0.754030 0.793170
0.204767 0.751829 0.789655
0.200833 0.744877 0.778556
0.866248 0.841109 0.750334
0.735458 0.713840 0.507737
0.557872 0.551091 0.212548
0.088768 0.447485 0.237556
0.088768 0.447485 0.237556
0.088768 0.447485 0.237556
0.088768 0.447485 0.237556
0.088768 0.447485 0.237556
0.088768 0.447485 0.237556
0.088768 0.447485 0.237556
0.557872 0.551091 0.212548
0.557872 0.551091 0.212548
0.494811 0.459490 0.916036
0.494811 0.459490 0.916036
0.494811 0.459490 0.916036
0.494811 0.459490 0.916036
0.773097 0.580212 0.870177
0.945445 0.654422 0.864818
0.945445 0.654422 0.864818
0.945445 0.654422 0.864818
0.945445 0.654422 0.864818
0.494811 0.459490 0.916036
0.494811 0.459490 0.916036
0.494811 0.459490 0.916036
0.494811 0.459490 0.916036
0.772147 0.579985 0.870193
0.945445 0.654422 0.864818
0.945445 0.654422 0.864818
0.945445 0.654422 0.864818
0.945445 0.654422 0.864818
0.494811 0.459490 0.916036
0.494811 0.459490 0.916036
0.494811 0.459490 0.916036
0.494811 0.459490 0.916036
0.766149 0.578553 0.870297
0.945445 0.654422 0.864818
0.945445 0.654422 0.864818
0.945445 0.654422 0.864818
0.945445 0.654422 0.864818
0.494811 0.459490 0.916036
0.494811 0.459490 0.916036
0.494811 0.459490 0.916036
0.494811 0.459490 0.916036
0.743717 0.573851 0.870629
0.945445 0.654422 0.864818
0.945445 0.654422 0.864818
0.945445 0.654422 0.864818
0.945445 0.654422 0.864818
0.494811 0.459490 0.916036
0.494811 0.459490 0.916036
0.494811 0.459490 0.916036
0.494811 0.459490 0.916036
0.627505 0.546166 0.884166
0.945445 0.654422 0.864818
0.945445 0.654422 0.864818
0.945445 0.654422 0.864818
0.945445 0.654422 0.864818
0.270635 0.824455 0.890763
0.270679 0.824419 0.890761
0.270947 0.824200 0.890751
0.271852 0.823450 0.890717
0.275524 0.820309 0.890572
0.894381 0.885220 0.884044
0.909940 0.845342 0.880468
0.945445 0.654422 0.864818
0.945445 0.654422 0.864818
0.260208 0.833042 0.891142
0.260208 0.833042 0.891142
0.260208 0.833042 0.891142
0.260208 0.833042 0.891142
0.260208 0.833042 0.891142
0.811980 0.887767 0.885744
0.888476 0.896296 0.884841
0.888476 0.896296 0.884841
0.945445 0.654422 0.864818
0.260208 0.833042 0.891142
0.260208 0.833042 0.891142
0.260208 0.833042 0.891142
0.260208 0.833042 0.891142
0.260208 0.833042 0.891142
0.260208 0.833042 0.891142
0.888476 0.896296 0.884841
0.888476 0.896296 0.884841
0.888476 0.896296 0.884841
0.260208 0.833042 0.891142
0.260208 0.833042 0.891142
0.260208 0.833042 0.891142
0.260208 0.833042 0.891142
0.260208 0.833042 0.891142
0.260208 0.833042 0.891142
0.260208 0.833042 0.891142
0.888177 0.895560 0.883222
0.856497 0.825501 0.716723
0.494811 0.459490 0.916036
0.494811 0.459490 0.916036
0.494811 0.459490 0.916036
0.494811 0.459490 0.916036
0.494811 0.459490 0.916036
0.882007 0.614295 0.867725
0.945445 0.654422 0.864818
0.945445 0.654422 0.864818
0.945445 0.654422 0.864818
0.494811 0.459490 0.916036
0.494811 0.459490 0.916036
0.494811 0.459490 0.916036
0.494811 0.459490 0.916036
0.494811 0.459490 0.916036
0.881725 0.614179 0.867733
0.945445 0.654422 0.864818
0.945445 0.654422 0.864818
0.945445 0.654422 0.864818
0.494811 0.459490 0.916036
0.494811 0.459490 0.916036
0.494811 0.459490 0.916036
0.494811 0.459490 0.916036
0.494811 0.459490 0.916036
0.879976 0.613458 0.867782
0.945445 0.654422 0.864818
0.945445 0.654422 0.864818
0.945445 0.654422 0.864818
0.494811 0.459490 0.916036
0.494811 0.459490 0.916036
0.494811 0.459490 0.916036
0.494811 0.459490 0.916036
0.494811 0.459490 0.916036
0.874376 0.611152 0.867939
0.945445 0.654422 0.864818
0.945445 0.654422 0.864818
0.945445 0.654422 0.864818
0.494811 0.459490 0.916036
0.494811 0.459490 0.916036
0.494811 0.459490 0.916036
0.494811 0.459490 0.916036
0.494811 0.459490 0.916036
0.854258 0.603405 0.868481
0.945445 0.654422 0.864818
0.945445 0.654422 0.864818
0.945445 0.654422 0.864818
0.494811 0.459490 0.916036
0.494811 0.459490 0.916036
0.494811 0.459490 0.916036
0.494811 0.459490 0.916036
0.494811 0.459490 0.916036
0.710268 0.567337 0.871074
0.945445 0.654422 0.864818
0.945445 0.654422 0.864818
0.945445 0.654422 0.864818
0.260208 0.833042 0.891142
0.260208 0.833042 0.891142
0.260208 0.833042 0.891142
0.260208 0.833042 0.891142
0.260208 0.833042 0.891142
0.260208 0.833042 0.891142
0.888476 0.896296 0.884841
0.888476 0.896296 0.884841
0.945445 0.654422 0.864818
0.260208 0.833042 0.891142
0.260208 0.833042 0.891142
0.260208 0.833042 0.891142
0.260208 0.833042 0.891142
0.260208 0.833042 0.891142
0.260208 0.833042 0.891142
0.888476 0.896296 0.884841
0.888476 0.896296 0.884841
0.888476 0.896296 0.884841
0.260208 0.833042 0.891142
0.260208 0.833042 0.891142
0.260208 0.833042 0.891142
0.260208 0.833042 0.891142
0.260208 0.833042 0.891142
0.260208 0.833042 0.891142
0.260208 0.833042 0.891142
0.888476 0.896296 0.884841
0.888476 0.896296 0.884841
0.494811 0.459490 0.916036
0.494811 0.459490 0.916036
0.494811 0.459490 0.916036
0.494811 0.459490 0.916036
0.494811 0.459490 0.916036
0.494811 0.459490 0.916036
0.944694 0.653557 0.864842
0.945445 0.654422 0.864818
0.945445 0.654422 0.864818
0.494811 0.459490 0.916036
0.494811 0.459490 0.916036
0.494811 0.459490 0.916036
0.494811 0.459490 0.916036
0.494811 0.459490 0.916036
0.494811 0.459490 0.916036
0.944684 0.653546 0.864842
0.945445 0.654422 0.864818
0.945445 0.654422 0.864818
0.494811 0.459490 0.916036
0.494811 0.459490 0.916036
0.494811 0.459490 0.916036
0.494811 0.459490 0.916036
0.494811 0.459490 0.916036
0.494811 0.459490 0.916036
0.944618 0.653470 0.864845
0.945445 0.654422 0.864818
0.945445 0.654422 0.864818
0.494811 0.459490 0.916036
0.494811 0.459490 0.916036
0.494811 0.459490 0.916036
0.494811 0.459490 0.916036
0.494811 0.459490 0.916036
0.494811 0.459490 0.916036
0.944395 0.653212 0.864852
0.945445 0.654422 0.864818
0.945445 0.654422 0.864818
0.494811 0.459490 0.916036
0.494811 0.459490 0.916036
0.494811 0.459490 0.916036
0.494811 0.459490 0.916036
0.494811 0.459490 0.916036
0.494811 0.459490 0.916036
0.943023 0.651844 0.864932
0.945445 0.654422 0.864818
0.945445 0.654422 0.864818
0.494811 0.459490 0.916036
0.494811 0.459490 0.916036
0.494811 0.459490 0.916036
0.494811 0.459490 0.916036
0.494811 0.459490 0.916036
0.494811 0.459490 0.916036
0.936079 0.645588 0.865362
0.945445 0.654422 0.864818
0.945445 0.654422 0.864818
0.494811 0.459490 0.916036
0.494811 0.459490 0.916036
0.494811 0.459490 0.916036
0.494811 0.459490 0.916036
0.494811 0.459490 0.916036
0.494811 0.459490 0.916036
0.820901 0.592527 0.869280
0.945445 0.654422 0.864818
0.945445 0.654422 0.864818
0.260208 0.833042 0.891142
0.260208 0.833042 0.891142
0.260208 0.833042 0.891142
0.260208 0.833042 0.891142
0.260208 0.833042 0.891142
0.260208 0.833042 0.891142
0.260208 0.833042 0.891142
0.888476 0.896296 0.884841
0.888476 0.896296 0.884841
0.260208 0.833042 0.891142
0.260208 0.833042 0.891142
0.260208 0.833042 0.891142
0.260208 0.833042 0.891142
0.260208 0.833042 0.891142
0.260208 0.833042 0.891142
0.260208 0.833042 0.891142
0.888476 0.896296 0.884841
0.888476 0.896296 0.884841
