public/luts/fx3.cube
# framediff hero grade: FX3 smoothed fit (open/phone; AE chain composed)
# generated by gradefit.py
LUT_3D_SIZE 5
DOMAIN_MIN 0 0 0
DOMAIN_MAX 1 1 1
0.041967 0.034693 0.074526
0.289279 0.067637 0.084784
0.786923 0.237111 0.168565
0.845876 0.251835 0.170862
0.845876 0.251835 0.170862
0.121945 0.181118 0.161470
0.250845 0.205364 0.152759
0.784602 0.236608 0.168499
0.845876 0.251835 0.170862
0.845876 0.251835 0.170862
0.095456 0.409146 0.227857
0.095592 0.408448 0.227693
0.513954 0.504343 0.209226
0.760762 0.366531 0.187919
0.845876 0.251835 0.170862
0.088768 0.447485 0.237556
0.088768 0.447485 0.237556
0.088768 0.447485 0.237556
0.557872 0.551091 0.212548
0.559625 0.548956 0.211724
0.088768 0.447485 0.237556
0.088768 0.447485 0.237556
0.088768 0.447485 0.237556
0.088768 0.447485 0.237556
0.557872 0.551091 0.212548
0.078692 0.069815 0.298968
0.375995 0.178137 0.295857
0.832476 0.324395 0.315397
0.845876 0.251835 0.170862
0.845876 0.251835 0.170862
0.187146 0.265260 0.326624
0.283189 0.251274 0.285367
0.828530 0.319084 0.306662
0.845876 0.251835 0.170862
0.845876 0.251835 0.170862
0.104442 0.439708 0.286913
0.103338 0.434627 0.278498
0.513914 0.502743 0.209076
0.766506 0.360257 0.187080
0.845876 0.251835 0.170862
0.088768 0.447485 0.237556
0.088768 0.447485 0.237556
0.088768 0.447485 0.237556
0.557872 0.551091 0.212548
0.559789 0.548761 0.211652
0.088768 0.447485 0.237556
0.088768 0.447485 0.237556
0.088768 0.447485 0.237556
0.088768 0.447485 0.237556
0.557872 0.551091 0.212548
0.299664 0.275517 0.768965
0.299234 0.275113 0.768405
0.904738 0.559766 0.756494
0.931044 0.555644 0.711885
0.845876 0.251835 0.170862
0.298232 0.274173 0.767102
0.297800 0.273768 0.766541
0.903515 0.558362 0.755080
0.930874 0.554664 0.710169
0.845876 0.251835 0.170862
0.257996 0.701342 0.796109
0.258551 0.700132 0.795469
0.790756 0.773982 0.790016
0.928653 0.542919 0.689125
0.845876 0.251835 0.170862
0.147932 0.635273 0.586312
0.147662 0.634638 0.585150
0.144701 0.627440 0.571918
0.642851 0.630295 0.353530
0.562117 0.546228 0.210849
0.088768 0.447485 0.237556
0.088768 0.447485 0.237556
0.088768 0.447485 0.237556
0.088768 0.447485 0.237556
0.557872 0.551091 0.212548
0.494811 0.459490 0.916036
0.494811 0.459490 0.916036
0.773097 0.580212 0.870177
0.945445 0.654422 0.864818
0.945445 0.654422 0.864818
0.494811 0.459490 0.916036
0.494811 0.459490 0.916036
0.766149 0.578553 0.870297
0.945445 0.654422 0.864818
0.945445 0.654422 0.864818
0.494811 0.459490 0.916036
0.494811 0.459490 0.916036
0.627505 0.546166 0.884166
0.945445 0.654422 0.864818
0.945445 0.654422 0.864818
0.260208 0.833042 0.891142
0.260208 0.833042 0.891142
0.260208 0.833042 0.891142
0.888476 0.896296 0.884841
0.945445 0.654422 0.864818
0.260208 0.833042 0.891142
0.260208 0.833042 0.891142
0.260208 0.833042 0.891142
0.260208 0.833042 0.891142
0.856497 0.825501 0.716723
0.494811 0.459490 0.916036
0.494811 0.459490 0.916036
0.494811 0.459490 0.916036
0.944694 0.653557 0.864842
0.945445 0.654422 0.864818
0.494811 0.459490 0.916036
0.494811 0.459490 0.916036
0.494811 0.459490 0.916036
0.944618 0.653470 0.864845
0.945445 0.654422 0.864818
0.494811 0.459490 0.916036
0.494811 0.459490 0.916036
0.494811 0.459490 0.916036
0.943023 0.651844 0.864932
0.945445 0.654422 0.864818
0.494811 0.459490 0.916036
0.494811 0.459490 0.916036
0.494811 0.459490 0.916036
0.820901 0.592527 0.869280
0.945445 0.654422 0.864818
0.260208 0.833042 0.891142
0.260208 0.833042 0.891142
0.260208 0.833042 0.891142
0.260208 0.833042 0.891142
0.888476 0.896296 0.884841
