public/luts/global.cube
# framediff hero grade: global (rec709 segments; AE chain composed)
# generated by gradefit.py
LUT_3D_SIZE 5
DOMAIN_MIN 0 0 0
DOMAIN_MAX 1 1 1
0.027018 0.028286 0.089866
0.265137 0.035048 0.093394
0.542775 0.033264 0.091286
0.775414 0.076010 0.119496
0.910079 0.117280 0.151078
0.064232 0.257417 0.117703
0.274562 0.240225 0.138559
0.554102 0.250016 0.129118
0.829737 0.268507 0.155281
0.966662 0.277398 0.158036
0.118821 0.473517 0.162798
0.310590 0.485740 0.166202
0.559279 0.500011 0.170434
0.837481 0.509195 0.162597
0.947361 0.521178 0.158780
0.198183 0.669900 0.213624
0.344220 0.690463 0.206406
0.579048 0.712719 0.196295
0.826931 0.724338 0.196951
0.957220 0.760575 0.154927
0.246269 0.758399 0.241489
0.372239 0.767360 0.237569
0.589619 0.783499 0.230022
0.819407 0.808325 0.221225
0.916657 0.834294 0.209876
0.014376 0.026392 0.268830
0.250647 0.062000 0.272900
0.519576 0.097029 0.276786
0.755857 0.143668 0.286451
0.874982 0.163368 0.297926
0.051059 0.249031 0.295981
0.285605 0.255506 0.291188
0.541243 0.273574 0.294964
0.806325 0.289913 0.320730
0.922069 0.291541 0.323828
0.060410 0.475549 0.298173
0.303752 0.506354 0.318900
0.534512 0.483189 0.324678
0.835516 0.511585 0.347752
0.952492 0.519442 0.347195
0.119562 0.682075 0.324911
0.340117 0.698371 0.345482
0.581248 0.723130 0.342727
0.834875 0.750273 0.346885
0.938861 0.765090 0.351513
0.237792 0.763039 0.360735
0.371297 0.777547 0.363970
0.591496 0.811603 0.364233
0.843724 0.866982 0.364416
0.968890 0.915745 0.361118
0.040707 0.046067 0.471415
0.248391 0.066152 0.480308
0.496395 0.160751 0.483157
0.727346 0.190567 0.486491
0.837078 0.204028 0.492825
0.048084 0.231537 0.485678
0.271864 0.271258 0.494054
0.516953 0.285095 0.503642
0.769157 0.304564 0.511936
0.885019 0.312860 0.521370
0.055777 0.460055 0.500626
0.309441 0.471023 0.510383
0.553096 0.485046 0.509319
0.822030 0.515052 0.523542
0.966524 0.515889 0.546863
0.148480 0.675436 0.517360
0.339134 0.695000 0.529979
0.564018 0.701786 0.536521
0.828341 0.724563 0.541418
0.973896 0.755946 0.561283
0.242493 0.764664 0.530400
0.376126 0.789057 0.542636
0.588658 0.855789 0.558927
0.879089 0.958806 0.569748
0.996757 0.965113 0.565405
0.114899 0.094685 0.669750
0.254369 0.141956 0.674124
0.488347 0.192801 0.664260
0.700752 0.214433 0.657754
0.811932 0.222084 0.656949
0.123562 0.245854 0.674092
0.276802 0.259184 0.705209
0.515017 0.269853 0.716496
0.728123 0.312452 0.684290
0.833142 0.321922 0.679659
0.166395 0.464329 0.678597
0.309455 0.479526 0.713533
0.554185 0.482452 0.719140
0.766207 0.503195 0.712951
0.891427 0.519409 0.715750
0.207918 0.659877 0.686272
0.336688 0.682435 0.715785
0.560754 0.698791 0.733552
0.808410 0.713715 0.727682
0.986993 0.729270 0.746890
0.258898 0.761191 0.685524
0.384345 0.791717 0.710180
0.593277 0.901826 0.763081
0.831778 0.936642 0.759778
0.978146 0.922102 0.756678
0.181642 0.164333 0.763003
0.285082 0.178801 0.768186
0.489864 0.204940 0.760301
0.692161 0.220775 0.748785
0.803667 0.227014 0.739881
0.195433 0.272879 0.772168
0.306391 0.281776 0.806991
0.517854 0.300689 0.796328
0.722018 0.313656 0.780958
0.820997 0.320917 0.756207
0.219798 0.467073 0.778186
0.333854 0.482540 0.853393
0.543014 0.496906 0.847445
0.770258 0.496164 0.850233
0.865477 0.506282 0.796583
0.247468 0.653352 0.771139
0.368046 0.678691 0.822105
0.556327 0.730610 0.930587
0.789981 0.720984 0.879499
0.929865 0.729968 0.852040
0.268906 0.758382 0.763624
0.389227 0.789452 0.800577
0.598681 0.881097 0.892711
0.839453 0.949084 0.946707
0.988788 0.945825 0.942884
