public/luts/global.cube
# framediff hero grade: global (rec709 segments; AE chain composed)
# generated by gradefit.py
LUT_3D_SIZE 9
DOMAIN_MIN 0 0 0
DOMAIN_MAX 1 1 1
0.027018 0.028286 0.089866
0.133789 0.027806 0.090953
0.265137 0.035048 0.093394
0.395494 0.045677 0.097038
0.542775 0.033264 0.091286
0.647807 0.047121 0.099301
0.775414 0.076010 0.119496
0.880478 0.097176 0.136625
0.910079 0.117280 0.151078
0.063458 0.110016 0.106142
0.155478 0.123642 0.115060
0.269801 0.139216 0.113919
0.416984 0.133069 0.093867
0.550330 0.140141 0.116006
0.672425 0.148080 0.125976
0.802235 0.154075 0.139956
0.917440 0.148889 0.148245
0.943821 0.154776 0.154307
0.064232 0.257417 0.117703
0.160551 0.248962 0.139352
0.274562 0.240225 0.138559
0.400369 0.243292 0.131628
0.554102 0.250016 0.129118
0.691003 0.263983 0.138421
0.829737 0.268507 0.155281
0.942957 0.279414 0.161221
0.966662 0.277398 0.158036
0.078725 0.368458 0.138262
0.178973 0.371073 0.155183
0.289459 0.369570 0.155307
0.417154 0.371193 0.156921
0.556092 0.370871 0.148413
0.703185 0.381654 0.146852
0.832213 0.386807 0.155852
0.925061 0.391430 0.166266
0.956552 0.388965 0.160075
0.118821 0.473517 0.162798
0.196215 0.481494 0.167320
0.310590 0.485740 0.166202
0.427887 0.488728 0.164503
0.559279 0.500011 0.170434
0.709860 0.504174 0.160797
0.837481 0.509195 0.162597
0.910813 0.515747 0.173375
0.947361 0.521178 0.158780
0.146515 0.581615 0.181301
0.216540 0.589781 0.182270
0.321100 0.601123 0.174070
0.440925 0.611599 0.163863
0.572214 0.616759 0.167959
0.703253 0.619798 0.185960
0.833908 0.624834 0.177717
0.921130 0.642039 0.172547
0.956655 0.643786 0.152399
0.198183 0.669900 0.213624
0.253069 0.678103 0.211843
0.344220 0.690463 0.206406
0.455127 0.703316 0.199267
0.579048 0.712719 0.196295
0.705905 0.717619 0.195111
0.826931 0.724338 0.196951
0.918297 0.746081 0.182475
0.957220 0.760575 0.154927
0.232835 0.731053 0.233431
0.280783 0.736464 0.232273
0.364511 0.745198 0.229450
0.469852 0.754806 0.225254
0.587566 0.763992 0.221167
0.708141 0.773931 0.217646
0.822203 0.787340 0.213569
0.903899 0.808677 0.202320
0.936988 0.825175 0.188309
0.246269 0.758399 0.241489
0.291556 0.761410 0.240213
0.372239 0.767360 0.237569
0.474658 0.774931 0.233886
0.589619 0.783499 0.230022
0.708044 0.794019 0.226216
0.819407 0.808325 0.221225
0.895541 0.826274 0.213814
0.916657 0.834294 0.209876
0.014930 0.023909 0.158881
0.115945 0.027857 0.160899
0.262731 0.039822 0.162961
0.404601 0.037276 0.162764
0.530558 0.054834 0.170520
0.647377 0.074529 0.165215
0.769200 0.088936 0.174939
0.873822 0.109178 0.189379
0.904061 0.128263 0.202568
0.049493 0.109789 0.188467
0.141377 0.130400 0.178100
0.266498 0.142496 0.180269
0.405817 0.131282 0.179751
0.528321 0.152127 0.186543
0.657308 0.165282 0.194757
0.778213 0.168051 0.199097
0.912007 0.158881 0.197095
0.939170 0.165722 0.205265
0.057902 0.254912 0.193745
0.158948 0.255033 0.192931
0.282103 0.242482 0.201594
0.419061 0.259647 0.211531
0.548035 0.275225 0.211064
0.685489 0.275615 0.206645
0.818726 0.278786 0.219477
0.936507 0.282805 0.217136
0.967867 0.277970 0.209337
0.060854 0.379785 0.194863
0.170183 0.382192 0.205395
0.286573 0.371664 0.195096
0.398648 0.366342 0.206779
0.540747 0.372270 0.210837
0.686453 0.374561 0.222837
0.843793 0.392086 0.236276
0.926656 0.402189 0.238920
0.948354 0.398002 0.235209
0.078200 0.475886 0.205706
0.186168 0.484921 0.215202
0.300598 0.491002 0.219712
0.418532 0.485769 0.222653
0.537442 0.491577 0.233836
0.699810 0.501489 0.231105
0.824376 0.509556 0.234812
0.926537 0.513187 0.251687
0.944683 0.517453 0.246194
0.098629 0.589636 0.222479
0.196122 0.592809 0.226441
0.320464 0.609201 0.233707
0.442590 0.618465 0.234053
0.570690 0.621111 0.237771
0.692651 0.627297 0.253197
0.834615 0.634663 0.231942
0.915345 0.642716 0.242528
0.936717 0.642237 0.241294
0.162416 0.677565 0.253474
0.234502 0.686603 0.254992
0.337679 0.707841 0.255608
0.449975 0.727494 0.251648
0.586288 0.730013 0.242567
0.715008 0.738579 0.241445
0.833265 0.738173 0.239905
0.924770 0.762290 0.246462
0.948410 0.769397 0.242910
0.222773 0.733753 0.280175
0.275129 0.740145 0.281491
0.362472 0.752386 0.281214
0.468907 0.765559 0.277807
0.589867 0.776171 0.273810
0.713607 0.791221 0.270847
0.833813 0.809236 0.268305
0.929310 0.839881 0.260359
0.971265 0.874959 0.256772
0.241643 0.760696 0.289434
0.289209 0.764732 0.290254
0.371442 0.772553 0.289375
0.474737 0.782734 0.287019
0.591377 0.794781 0.284380
0.713039 0.810663 0.281836
0.830287 0.830120 0.277586
0.916455 0.856374 0.271545
0.944207 0.872461 0.269306
0.014376 0.026392 0.268830
0.107447 0.028777 0.271244
0.250647 0.062000 0.272900
0.387938 0.090396 0.274403
0.519576 0.097029 0.276786
0.641583 0.122351 0.280292
0.755857 0.143668 0.286451
0.844693 0.156995 0.293230
0.874982 0.163368 0.297926
0.046862 0.109379 0.278726
0.140830 0.138176 0.280111
0.265203 0.153914 0.280320
0.401010 0.154849 0.283023
0.525346 0.159747 0.288808
0.661171 0.167040 0.296705
0.777753 0.192423 0.303505
0.866285 0.201289 0.307534
0.891212 0.203788 0.309878
0.051059 0.249031 0.295981
0.162992 0.240097 0.293367
0.285605 0.255506 0.291188
0.412423 0.270093 0.290947
0.541243 0.273574 0.294964
0.673387 0.285180 0.311682
0.806325 0.289913 0.320730
0.903454 0.290963 0.323829
0.922069 0.291541 0.323828
0.049152 0.371686 0.300199
0.173622 0.368317 0.294733
0.298952 0.364298 0.301264
0.424469 0.368849 0.323047
0.549059 0.387121 0.320040
0.684170 0.399066 0.323478
0.827522 0.406912 0.331454
0.921610 0.410936 0.331962
0.936167 0.406465 0.336142
0.060410 0.475549 0.298173
0.182374 0.495661 0.294482
0.303752 0.506354 0.318900
0.408321 0.493291 0.330175
0.534512 0.483189 0.324678
0.696750 0.496967 0.344642
0.835516 0.511585 0.347752
0.953034 0.518503 0.344954
0.952492 0.519442 0.347195
0.077678 0.588823 0.310982
0.205182 0.583097 0.314762
0.317536 0.598876 0.335311
0.426732 0.609708 0.335998
0.558638 0.610259 0.333142
0.698225 0.618204 0.341197
0.830999 0.630232 0.345134
0.910472 0.635015 0.351269
0.931640 0.637143 0.351746
0.119562 0.682075 0.324911
0.228034 0.685813 0.337454
0.340117 0.698371 0.345482
0.453998 0.723142 0.343117
0.581248 0.723130 0.342727
0.706984 0.738619 0.343733
0.834875 0.750273 0.346885
0.917205 0.759450 0.350215
0.938861 0.765090 0.351513
0.213392 0.735648 0.351710
0.271153 0.742202 0.355128
0.361762 0.754846 0.356893
0.468621 0.771287 0.355696
0.588924 0.788075 0.356441
0.717243 0.818076 0.357294
0.845897 0.842007 0.357621
0.938198 0.864535 0.350070
0.981681 0.902080 0.356643
0.237792 0.763039 0.360735
0.287743 0.767943 0.362929
0.371297 0.777547 0.363970
0.474595 0.791604 0.364011
0.591496 0.811603 0.364233
0.718470 0.840513 0.365922
0.843724 0.866982 0.364416
0.935158 0.893806 0.358331
0.968890 0.915745 0.361118
0.012865 0.019560 0.370654
0.119006 0.039380 0.375831
0.244887 0.055718 0.383531
0.375773 0.111893 0.381275
0.508530 0.133968 0.381392
0.632179 0.150197 0.384836
0.743116 0.170180 0.389236
0.825280 0.183061 0.394115
0.854296 0.187652 0.397478
0.033882 0.112400 0.381795
0.134818 0.145664 0.379928
0.261607 0.154882 0.385536
0.387378 0.169296 0.388175
0.519806 0.177951 0.390985
0.655298 0.172105 0.397231
0.769740 0.203148 0.403526
0.849984 0.219928 0.408870
0.871802 0.224053 0.411219
0.049564 0.233611 0.385411
0.164158 0.241969 0.392535
0.278434 0.258772 0.391995
0.394760 0.281054 0.393523
0.527466 0.280220 0.402964
0.663297 0.287115 0.410147
0.800975 0.292903 0.421687
0.927381 0.292847 0.429685
0.928125 0.299478 0.428591
0.048475 0.357965 0.396882
0.172558 0.353320 0.398091
0.289696 0.345110 0.386369
0.419853 0.376069 0.398342
0.541935 0.382486 0.409463
0.676316 0.399424 0.414728
0.818724 0.405439 0.435846
0.918985 0.406778 0.441481
0.946533 0.405122 0.443280
0.056466 0.470070 0.399701
0.166569 0.472889 0.399299
0.304773 0.476270 0.403899
0.440482 0.484325 0.418551
0.559576 0.481103 0.426973
0.690460 0.496780 0.426043
0.832214 0.515086 0.438446
0.934674 0.524076 0.452206
0.950159 0.520870 0.452583
0.072662 0.580464 0.405904
0.186908 0.586365 0.405987
0.328431 0.603156 0.408530
0.419019 0.606583 0.416164
0.549118 0.598806 0.432524
0.687970 0.597344 0.430629
0.831456 0.615667 0.445191
0.951105 0.631781 0.458615
0.957497 0.637815 0.459566
0.127339 0.680919 0.420456
0.230618 0.696157 0.434527
0.340483 0.692700 0.432319
0.451425 0.700581 0.439892
0.569989 0.711334 0.440641
0.701496 0.727428 0.445097
0.834301 0.746209 0.445777
0.927246 0.758570 0.455771
0.948326 0.764481 0.459726
0.211422 0.735778 0.436314
0.270464 0.743529 0.440974
0.362168 0.754781 0.445257
0.467724 0.772730 0.448876
0.584706 0.801885 0.452418
0.715663 0.842337 0.455168
0.852714 0.874949 0.458238
0.956768 0.891470 0.463258
0.983161 0.907730 0.464267
0.237983 0.764593 0.443761
0.289148 0.770657 0.447426
0.372734 0.782497 0.450975
0.474577 0.802414 0.454440
0.589134 0.836483 0.458864
0.724122 0.890234 0.468109
0.866248 0.928760 0.478381
0.959304 0.938340 0.470007
0.991742 0.950267 0.458244
0.040707 0.046067 0.471415
0.130801 0.070668 0.475854
0.248391 0.066152 0.480308
0.368068 0.112365 0.486647
0.496395 0.160751 0.483157
0.618154 0.177171 0.484230
0.727346 0.190567 0.486491
0.807343 0.200419 0.489725
0.837078 0.204028 0.492825
0.045436 0.127158 0.466861
0.138690 0.142081 0.483004
0.258247 0.162733 0.486390
0.381817 0.183845 0.489879
0.507495 0.202273 0.491808
0.633002 0.211116 0.494627
0.745890 0.224199 0.497418
0.824437 0.235508 0.502083
0.849593 0.238664 0.505393
0.048084 0.231537 0.485678
0.157349 0.242607 0.490535
0.271864 0.271258 0.494054
0.395385 0.277072 0.498005
0.516953 0.285095 0.503642
0.645100 0.294950 0.505934
0.769157 0.304564 0.511936
0.861743 0.311000 0.517785
0.885019 0.312860 0.521370
0.054575 0.332897 0.476000
0.174380 0.348874 0.499804
0.299261 0.363266 0.506422
0.418304 0.386136 0.496180
0.530357 0.390764 0.503886
0.656537 0.398396 0.513042
0.792096 0.407263 0.522167
0.903314 0.410469 0.535305
0.937087 0.408537 0.541627
0.055777 0.460055 0.500626
0.179752 0.466014 0.508649
0.309441 0.471023 0.510383
0.433132 0.469959 0.512527
0.553096 0.485046 0.509319
0.672195 0.499993 0.517830
0.822030 0.515052 0.523542
0.942973 0.512825 0.534318
0.966524 0.515889 0.546863
0.078067 0.577732 0.509519
0.186045 0.583766 0.508877
0.319404 0.587579 0.517118
0.432569 0.588824 0.518378
0.549612 0.592036 0.521075
0.682418 0.588586 0.534763
0.833941 0.609990 0.529524
0.967092 0.634240 0.544907
0.979451 0.640411 0.559071
0.148480 0.675436 0.517360
0.227478 0.685118 0.523500
0.339134 0.695000 0.529979
0.449101 0.699988 0.534564
0.564018 0.701786 0.536521
0.689430 0.709739 0.541486
0.828341 0.724563 0.541418
0.958649 0.739096 0.550758
0.973896 0.755946 0.561283
0.217511 0.733902 0.525142
0.274061 0.742879 0.530794
0.364399 0.759036 0.538545
0.466595 0.784047 0.545986
0.580478 0.805132 0.550291
0.708626 0.833946 0.552794
0.850727 0.870346 0.554510
0.960635 0.896669 0.558915
0.980967 0.899821 0.565720
0.242493 0.764664 0.530400
0.293440 0.772458 0.535629
0.376126 0.789057 0.542636
0.475895 0.818070 0.550729
0.588658 0.855789 0.558927
0.719378 0.915782 0.565444
0.879089 0.958806 0.569748
0.982446 0.970301 0.571765
0.996757 0.965113 0.565405
0.092858 0.088175 0.573993
0.142271 0.092213 0.577669
0.249637 0.123880 0.580340
0.370047 0.153107 0.580333
0.490236 0.180176 0.578831
0.606510 0.195361 0.577828
0.711689 0.205590 0.577364
0.791165 0.212505 0.578359
0.822430 0.215172 0.580774
0.063199 0.138189 0.576248
0.153213 0.146239 0.581323
0.257387 0.173962 0.589105
0.381262 0.198309 0.589214
0.500761 0.216136 0.589168
0.618003 0.229095 0.588021
0.724756 0.238753 0.587278
0.802788 0.245622 0.588724
0.830312 0.248057 0.591632
0.067648 0.233095 0.581930
0.152769 0.243593 0.590486
0.274099 0.256374 0.601393
0.396586 0.271072 0.601729
0.511644 0.285803 0.605348
0.630638 0.300336 0.602488
0.742952 0.310549 0.600771
0.825970 0.317377 0.602692
0.852126 0.319999 0.606428
0.101299 0.344041 0.584282
0.167013 0.357544 0.599668
0.297927 0.376207 0.597555
0.417635 0.388223 0.595000
0.524884 0.387094 0.613810
0.644413 0.396721 0.615085
0.763924 0.404745 0.613116
0.859039 0.412308 0.618648
0.888269 0.415706 0.625112
0.095765 0.462682 0.591000
0.188142 0.463246 0.610134
0.310620 0.473116 0.613247
0.430694 0.478437 0.612454
0.542380 0.497009 0.603401
0.656163 0.502915 0.612450
0.784848 0.508328 0.622304
0.901317 0.517496 0.629732
0.940746 0.523758 0.643630
0.099226 0.575359 0.607040
0.194355 0.584815 0.623473
0.316935 0.582798 0.624353
0.433682 0.581295 0.622670
0.556211 0.578903 0.620610
0.674974 0.591508 0.610830
0.796754 0.609054 0.619306
0.951047 0.625637 0.633284
0.985884 0.633834 0.656353
0.172239 0.669856 0.612660
0.231796 0.682696 0.622387
0.340013 0.689629 0.630230
0.447064 0.697227 0.633863
0.559683 0.691588 0.632711
0.683067 0.692536 0.635179
0.818868 0.705797 0.634745
0.957287 0.719174 0.636637
0.991851 0.737644 0.650872
0.228888 0.730277 0.610741
0.281219 0.740158 0.618102
0.368015 0.759983 0.629242
0.461971 0.801662 0.641726
0.577675 0.815516 0.649233
0.701985 0.821595 0.650622
0.827460 0.835607 0.647215
0.941420 0.852300 0.645007
0.976216 0.865983 0.656416
0.250385 0.763360 0.613386
0.299601 0.772438 0.620399
0.380267 0.793173 0.631448
0.478323 0.834231 0.646887
0.590371 0.889908 0.663903
0.717512 0.906851 0.662694
0.854583 0.942177 0.651306
0.973736 0.957871 0.643157
0.994322 0.965846 0.661234
0.114899 0.094685 0.669750
0.140437 0.082660 0.680362
0.254369 0.141956 0.674124
0.372198 0.173756 0.668138
0.488347 0.192801 0.664260
0.599867 0.205624 0.661059
0.700752 0.214433 0.657754
0.779159 0.219965 0.655921
0.811932 0.222084 0.656949
0.122952 0.154051 0.671406
0.167466 0.143079 0.690749
0.258836 0.180844 0.693322
0.383804 0.208676 0.680664
0.500163 0.223479 0.677520
0.611139 0.236681 0.673341
0.712217 0.245905 0.667578
0.788359 0.251251 0.664778
0.817608 0.253191 0.666032
0.123562 0.245854 0.674092
0.162452 0.253871 0.685921
0.276802 0.259184 0.705209
0.401518 0.274974 0.699242
0.515017 0.269853 0.716496
0.624927 0.300153 0.700960
0.728123 0.312452 0.684290
0.805506 0.318913 0.678251
0.833142 0.321922 0.679659
0.149263 0.352850 0.675844
0.192266 0.361264 0.686973
0.307936 0.370233 0.708858
0.413666 0.383287 0.705908
0.533796 0.378798 0.714140
0.638186 0.393236 0.720599
0.747155 0.401413 0.702521
0.829838 0.408842 0.694479
0.857722 0.413572 0.696945
0.166395 0.464329 0.678597
0.213468 0.469547 0.691485
0.309455 0.479526 0.713533
0.432607 0.477519 0.723533
0.554185 0.482452 0.719140
0.650056 0.499215 0.731790
0.766207 0.503195 0.712951
0.859418 0.510627 0.708778
0.891427 0.519409 0.715750
0.175123 0.572931 0.685527
0.222704 0.580475 0.696267
0.319690 0.593175 0.717671
0.436286 0.593858 0.728015
0.557556 0.591974 0.726312
0.662207 0.607020 0.725497
0.785349 0.611314 0.716685
0.894869 0.617785 0.721715
0.937257 0.628788 0.734021
0.207918 0.659877 0.686272
0.245881 0.666255 0.693624
0.336688 0.682435 0.715785
0.443786 0.697452 0.735473
0.560754 0.698791 0.733552
0.683655 0.692392 0.731318
0.808410 0.713715 0.727682
0.937965 0.720722 0.734272
0.986993 0.729270 0.746890
0.242690 0.725629 0.684264
0.289781 0.735106 0.693136
0.370161 0.754425 0.710163
0.467108 0.790207 0.730719
0.582532 0.823114 0.748589
0.705426 0.825431 0.753928
0.823863 0.819612 0.748549
0.926378 0.820844 0.751896
0.981761 0.836139 0.754504
0.258898 0.761191 0.685524
0.306211 0.770666 0.694436
0.384345 0.791717 0.710180
0.481398 0.831383 0.732636
0.593277 0.901826 0.763081
0.710113 0.928141 0.767465
0.831778 0.936642 0.759778
0.934087 0.915909 0.756351
0.978146 0.922102 0.756678
0.159595 0.141059 0.732481
0.190601 0.142143 0.738450
0.272458 0.164770 0.739708
0.378120 0.186539 0.734494
0.489008 0.201100 0.729581
0.596993 0.211525 0.724873
0.694702 0.219082 0.719426
0.771229 0.223872 0.715016
0.805837 0.225768 0.714089
0.166181 0.182921 0.737194
0.198403 0.178100 0.752945
0.275455 0.196851 0.762571
0.388289 0.219497 0.748653
0.501278 0.231931 0.742531
0.609206 0.241672 0.737771
0.705922 0.249371 0.729182
0.780170 0.254000 0.722444
0.810766 0.255598 0.721139
0.176352 0.263693 0.741446
0.215348 0.265132 0.760046
0.290125 0.267807 0.802979
0.401004 0.286409 0.777471
0.520363 0.293236 0.773042
0.629356 0.302050 0.776225
0.723290 0.313150 0.752108
0.795262 0.319090 0.737024
0.823770 0.321609 0.734029
0.190676 0.361700 0.744575
0.231186 0.365499 0.764076
0.317248 0.378000 0.809281
0.413409 0.382983 0.807978
0.539543 0.383723 0.794244
0.653710 0.388722 0.831902
0.747301 0.397554 0.787446
0.816510 0.405337 0.757286
0.844028 0.409483 0.751684
0.205052 0.465803 0.746316
0.248500 0.470303 0.767414
0.329328 0.479847 0.817928
0.423989 0.483968 0.825095
0.548153 0.494062 0.803838
0.655835 0.491686 0.811153
0.761928 0.498329 0.800306
0.841162 0.504476 0.778001
0.870702 0.511158 0.771844
0.218635 0.566925 0.745729
0.264384 0.574118 0.762859
0.348290 0.584857 0.802921
0.434418 0.607441 0.843756
0.555647 0.599690 0.827189
0.659092 0.607635 0.816915
0.772968 0.607207 0.816506
0.865924 0.612509 0.794340
0.903616 0.620113 0.791762
0.236756 0.654790 0.742836
0.281680 0.663566 0.756285
0.359274 0.680324 0.785978
0.452258 0.708063 0.828194
0.557388 0.717967 0.845808
0.684090 0.707276 0.837104
0.791216 0.718624 0.833983
0.912086 0.728995 0.822834
0.948556 0.731557 0.820332
0.255047 0.722315 0.739716
0.300744 0.732014 0.751365
0.376617 0.751332 0.775814
0.471304 0.781475 0.812149
0.580935 0.810135 0.839195
0.703785 0.832867 0.852272
0.833382 0.819066 0.850007
0.938591 0.835988 0.854619
0.982915 0.850919 0.854799
0.265915 0.759286 0.739302
0.311838 0.768877 0.750061
0.388009 0.789653 0.771460
0.483972 0.825181 0.802923
0.595186 0.878170 0.838349
0.707993 0.932888 0.864690
0.836709 0.941207 0.878544
0.928911 0.919937 0.874482
0.983363 0.922765 0.878396
0.181642 0.164333 0.763003
0.213119 0.167425 0.766126
0.285082 0.178801 0.768186
0.382634 0.193153 0.765176
0.489864 0.204940 0.760301
0.595975 0.213988 0.755126
0.692161 0.220775 0.748785
0.767705 0.225189 0.742612
0.803667 0.227014 0.739881
0.186076 0.199776 0.766665
0.219908 0.202219 0.773645
0.293061 0.212051 0.780278
0.392908 0.225580 0.776382
0.501875 0.236094 0.770866
0.608494 0.244157 0.765743
0.703633 0.250560 0.756897
0.777037 0.254746 0.747969
0.808575 0.256164 0.744442
0.195433 0.272879 0.772168
0.231807 0.275783 0.784276
0.306391 0.281776 0.806991
0.405107 0.292572 0.803620
0.517854 0.300689 0.796328
0.628454 0.306570 0.796475
0.722018 0.313656 0.780958
0.791905 0.318867 0.762698
0.820997 0.320917 0.756207
0.207254 0.366142 0.776490
0.246371 0.370204 0.793471
0.322711 0.375285 0.830659
0.416066 0.384963 0.842241
0.534060 0.389963 0.824410
0.655369 0.391525 0.840081
0.750795 0.396605 0.825820
0.813483 0.403682 0.786473
0.840273 0.407034 0.774164
0.219798 0.467073 0.778186
0.261150 0.472785 0.799397
0.333854 0.482540 0.853393
0.426745 0.495567 0.872628
0.543014 0.496906 0.847445
0.661078 0.495311 0.846964
0.770258 0.496164 0.850233
0.842152 0.500318 0.820393
0.865477 0.506282 0.796583
0.233004 0.565899 0.775830
0.276869 0.573397 0.794862
0.353523 0.586576 0.840613
0.445174 0.606683 0.899667
0.543429 0.612304 0.890915
0.665631 0.607958 0.861724
0.773533 0.606625 0.851490
0.860309 0.608612 0.835125
0.893171 0.614692 0.817694
0.247468 0.653352 0.771139
0.292193 0.662259 0.786476
0.368046 0.678691 0.822105
0.465056 0.703150 0.888703
0.556327 0.730610 0.930587
0.668902 0.722543 0.902183
0.789981 0.720984 0.879499
0.885544 0.727552 0.864018
0.929865 0.729968 0.852040
0.260681 0.721134 0.766303
0.305826 0.731112 0.779353
0.380337 0.752665 0.811169
0.473158 0.795155 0.876069
0.580495 0.820089 0.923326
0.681032 0.834753 0.931880
0.818814 0.829210 0.918778
0.940270 0.849622 0.923795
0.985977 0.851756 0.924004
0.268906 0.758382 0.763624
0.314123 0.768082 0.775110
0.389227 0.789452 0.800577
0.484369 0.826433 0.841677
0.598681 0.881097 0.892711
0.713565 0.928753 0.927828
0.839453 0.949084 0.946707
0.948742 0.936750 0.941587
0.988788 0.945825 0.942884
