public/luts/global.cube
# framediff hero grade: global (rec709 segments; AE chain composed)
# generated by gradefit.py
LUT_3D_SIZE 33
DOMAIN_MIN 0 0 0
DOMAIN_MAX 1 1 1
0.027018 0.028286 0.089866
0.039662 0.028846 0.087920
0.057486 0.029850 0.085193
0.087072 0.030014 0.084992
0.133789 0.027806 0.090953
0.175377 0.027097 0.095000
0.202347 0.029663 0.093981
0.231460 0.032273 0.093289
0.265137 0.035048 0.093394
0.295897 0.038072 0.094099
0.321587 0.041493 0.095779
0.354617 0.044039 0.096774
0.395494 0.045677 0.097038
0.435474 0.044898 0.097123
0.475183 0.042603 0.097103
0.509669 0.038289 0.094599
0.542775 0.033264 0.091286
0.567672 0.036428 0.091830
0.592235 0.040226 0.092597
0.619984 0.043150 0.095796
0.647807 0.047121 0.099301
0.675205 0.054276 0.103789
0.705981 0.061991 0.108952
0.741192 0.070454 0.115012
0.775414 0.076010 0.119496
0.809195 0.079813 0.123015
0.836963 0.084223 0.126840
0.862173 0.088567 0.130571
0.880478 0.097176 0.136625
0.896767 0.105711 0.142550
0.903674 0.110744 0.146184
0.906918 0.113972 0.148607
0.910079 0.117280 0.151078
0.034574 0.039532 0.093809
0.046952 0.042423 0.093073
0.063391 0.046138 0.092042
0.092680 0.048787 0.092845
0.136583 0.049315 0.096454
0.175469 0.049780 0.098361
0.204437 0.050080 0.097203
0.235593 0.050638 0.096461
0.269995 0.051551 0.096387
0.301031 0.052940 0.096733
0.328027 0.054787 0.097545
0.360937 0.056816 0.098224
0.398208 0.059021 0.098820
0.437052 0.059121 0.099344
0.476658 0.058406 0.099852
0.513733 0.054340 0.098200
0.549804 0.050557 0.097044
0.573629 0.054253 0.097572
0.598266 0.057722 0.098235
0.625950 0.060681 0.101243
0.654149 0.064528 0.104736
0.683052 0.069888 0.109048
0.713842 0.075737 0.113809
0.746149 0.081973 0.118935
0.780506 0.085806 0.122689
0.815842 0.088759 0.125914
0.842917 0.091576 0.129135
0.868046 0.094254 0.132218
0.887325 0.101863 0.137365
0.904611 0.108828 0.142061
0.910024 0.113383 0.145377
0.912533 0.116938 0.148052
0.914960 0.120588 0.150788
0.043461 0.053179 0.098814
0.054672 0.058010 0.099375
0.069140 0.064220 0.100100
0.097521 0.069666 0.101065
0.138262 0.073472 0.102064
0.175094 0.074812 0.102088
0.206299 0.072874 0.100847
0.239397 0.071375 0.100064
0.274696 0.070436 0.099851
0.306539 0.070049 0.099638
0.335223 0.070186 0.099426
0.366629 0.072208 0.100013
0.399359 0.075315 0.101061
0.437386 0.077073 0.102218
0.476779 0.078754 0.103770
0.518180 0.075249 0.104036
0.556885 0.072664 0.104496
0.580391 0.076387 0.104563
0.605250 0.080041 0.105290
0.632885 0.083573 0.108245
0.662318 0.086975 0.111843
0.693542 0.090018 0.116015
0.722652 0.093354 0.120056
0.750606 0.096971 0.124098
0.786977 0.099112 0.127161
0.824541 0.100885 0.129985
0.851068 0.101057 0.132203
0.876108 0.101824 0.134465
0.898175 0.107249 0.137792
0.916956 0.111930 0.140645
0.920387 0.116507 0.144013
0.921678 0.120740 0.147198
0.922828 0.125088 0.150474
0.053026 0.079236 0.102697
0.065875 0.084885 0.103802
0.082647 0.091728 0.105201
0.110878 0.096274 0.106743
0.146463 0.098522 0.108327
0.178787 0.100078 0.109031
0.207491 0.101277 0.108875
0.239023 0.102315 0.108069
0.273021 0.103205 0.106618
0.305788 0.102690 0.103209
0.337904 0.101146 0.098296
0.372308 0.101962 0.097123
0.407720 0.103553 0.097377
0.443320 0.107111 0.099601
0.478867 0.110216 0.102187
0.517228 0.107682 0.106761
0.553276 0.106362 0.110450
0.582601 0.108447 0.111334
0.610709 0.110926 0.112765
0.636941 0.114213 0.115391
0.667371 0.117232 0.119007
0.700806 0.119927 0.123255
0.730119 0.122298 0.126937
0.758090 0.124628 0.130471
0.794736 0.125838 0.133419
0.830399 0.126645 0.136212
0.857816 0.125747 0.138418
0.883654 0.125470 0.140533
0.907767 0.127406 0.142716
0.927040 0.128821 0.144421
0.929969 0.132266 0.147009
0.931569 0.135682 0.149547
0.933000 0.139225 0.152185
0.063458 0.110016 0.106142
0.079129 0.115541 0.107667
0.099256 0.122041 0.109582
0.125968 0.124328 0.112163
0.155478 0.123642 0.115060
0.182699 0.126192 0.116969
0.208000 0.131608 0.118091
0.237390 0.135854 0.116906
0.269801 0.139216 0.113919
0.304399 0.138080 0.106295
0.340464 0.134414 0.095906
0.378527 0.133478 0.093351
0.416984 0.133069 0.093867
0.448240 0.138217 0.097353
0.479801 0.142338 0.101550
0.515082 0.140849 0.110149
0.550330 0.140141 0.116006
0.585689 0.140538 0.117744
0.615506 0.142329 0.119705
0.640224 0.145247 0.122091
0.672425 0.148080 0.125976
0.708057 0.150944 0.130537
0.737565 0.152350 0.133809
0.766616 0.153389 0.136867
0.802235 0.154075 0.139956
0.836008 0.154044 0.142825
0.864374 0.152462 0.145201
0.891446 0.150697 0.147095
0.917440 0.148889 0.148245
0.936869 0.147275 0.149077
0.939514 0.149665 0.150798
0.941751 0.152162 0.152522
0.943821 0.154776 0.154307
0.068741 0.145480 0.111108
0.084084 0.149502 0.112858
0.103354 0.153864 0.114985
0.128007 0.154067 0.118229
0.154760 0.152203 0.121900
0.181954 0.154462 0.123682
0.209653 0.159509 0.124213
0.238457 0.162481 0.123076
0.267670 0.164248 0.121027
0.300937 0.164558 0.115327
0.335986 0.164570 0.108270
0.374073 0.164061 0.105789
0.412468 0.163552 0.104730
0.449213 0.164566 0.105763
0.485462 0.165367 0.107506
0.519921 0.166688 0.112045
0.554609 0.168262 0.115438
0.589499 0.169641 0.117678
0.619018 0.171781 0.120734
0.645138 0.174335 0.124328
0.677838 0.176731 0.129003
0.712117 0.179102 0.133942
0.743368 0.180618 0.137403
0.775342 0.182036 0.140896
0.810824 0.183434 0.144677
0.843810 0.183745 0.147842
0.872158 0.182176 0.149939
0.899050 0.179851 0.151640
0.924656 0.176610 0.152898
0.941643 0.174262 0.153774
0.945153 0.175133 0.154606
0.948527 0.176026 0.155462
0.951694 0.176994 0.156317
0.070650 0.183621 0.117041
0.084497 0.185093 0.118800
0.101663 0.186249 0.120920
0.125223 0.184612 0.124695
0.150792 0.182048 0.128989
0.180124 0.183439 0.130107
0.212106 0.186745 0.129514
0.239669 0.187432 0.128916
0.265111 0.186856 0.128454
0.296647 0.190201 0.126171
0.330291 0.195210 0.123863
0.368996 0.194947 0.119644
0.408554 0.194186 0.115752
0.451194 0.190678 0.113777
0.490348 0.189659 0.112793
0.523756 0.193473 0.113925
0.557934 0.196494 0.116016
0.592904 0.198517 0.118715
0.622700 0.201063 0.122650
0.650215 0.203697 0.126907
0.682709 0.205580 0.132071
0.715665 0.207341 0.137154
0.749468 0.209073 0.140970
0.783725 0.210883 0.144942
0.819164 0.212993 0.149391
0.851549 0.213551 0.152607
0.879823 0.212346 0.154357
0.906502 0.209720 0.155956
0.931340 0.205862 0.157375
0.946245 0.203204 0.158241
0.950694 0.202500 0.158226
0.955101 0.201789 0.158197
0.959385 0.200880 0.158135
0.068453 0.220886 0.118814
0.083803 0.220282 0.121979
0.103104 0.218909 0.126101
0.128016 0.216886 0.130231
0.154304 0.214777 0.134342
0.184135 0.215323 0.135202
0.215868 0.216693 0.134823
0.243130 0.215384 0.134160
0.269018 0.212929 0.133474
0.298944 0.213343 0.131160
0.329806 0.214107 0.128586
0.366692 0.216304 0.126114
0.404426 0.218382 0.123980
0.445014 0.218687 0.121613
0.483037 0.219438 0.120587
0.517314 0.220273 0.121371
0.555176 0.222488 0.122842
0.595329 0.225528 0.124527
0.625708 0.230294 0.127240
0.653702 0.235264 0.129973
0.686712 0.235370 0.135327
0.719971 0.235664 0.140340
0.754464 0.237274 0.144357
0.789609 0.238853 0.148502
0.825716 0.240507 0.152906
0.858374 0.241745 0.155601
0.887615 0.242526 0.156916
0.914396 0.243291 0.158295
0.937851 0.244076 0.159644
0.951885 0.244094 0.160376
0.955820 0.243066 0.159731
0.959597 0.241848 0.159029
0.963403 0.240691 0.158330
0.064232 0.257417 0.117703
0.083199 0.255079 0.123761
0.106769 0.251522 0.131391
0.133312 0.250171 0.135525
0.160551 0.248962 0.139352
0.189837 0.248256 0.140404
0.220173 0.247547 0.140820
0.247555 0.244256 0.139847
0.274562 0.240225 0.138559
0.301707 0.236137 0.135508
0.329314 0.232246 0.132470
0.364179 0.238113 0.132400
0.400369 0.243292 0.131628
0.439958 0.246838 0.128783
0.477707 0.248321 0.127661
0.513129 0.247435 0.128269
0.554102 0.250016 0.129118
0.597193 0.253838 0.129834
0.628138 0.259613 0.131355
0.658030 0.264642 0.133104
0.691003 0.263983 0.138421
0.724344 0.263945 0.143196
0.759178 0.265629 0.146986
0.794304 0.267166 0.150995
0.829737 0.268507 0.155281
0.862587 0.270394 0.157669
0.893223 0.272515 0.158988
0.920477 0.275920 0.160171
0.942957 0.279414 0.161221
0.956460 0.281164 0.161698
0.959992 0.280046 0.160534
0.963331 0.278704 0.159299
0.966662 0.277398 0.158036
0.063282 0.289406 0.118147
0.084422 0.286549 0.126207
0.110197 0.282882 0.136004
0.137279 0.281948 0.139711
0.165023 0.280810 0.143484
0.193306 0.279712 0.144000
0.222140 0.278564 0.144023
0.248739 0.276451 0.143946
0.275531 0.274117 0.143986
0.304158 0.269737 0.141612
0.333769 0.265797 0.139294
0.367534 0.266481 0.137144
0.402985 0.267657 0.134671
0.442262 0.270581 0.131504
0.479749 0.273997 0.131126
0.515691 0.277977 0.133116
0.555241 0.281648 0.133604
0.595336 0.284814 0.133393
0.629974 0.287784 0.134335
0.664122 0.289886 0.135858
0.696342 0.290899 0.140980
0.728979 0.292327 0.145051
0.762889 0.294572 0.147502
0.795520 0.296422 0.150801
0.827124 0.297987 0.154852
0.860262 0.299420 0.157780
0.892812 0.300680 0.160209
0.921609 0.302542 0.160724
0.944112 0.304114 0.160854
0.957912 0.304800 0.160743
0.961201 0.303535 0.159349
0.964490 0.302287 0.157925
0.967661 0.300939 0.156453
0.063666 0.318912 0.119376
0.086103 0.316955 0.128936
0.113152 0.314594 0.139749
0.140800 0.313448 0.143530
0.169179 0.312161 0.147406
0.196262 0.311201 0.147171
0.223808 0.310157 0.146721
0.249864 0.309342 0.148020
0.276608 0.308468 0.149525
0.307145 0.303736 0.147618
0.338368 0.299238 0.145396
0.371161 0.296121 0.142071
0.406074 0.295330 0.139061
0.444413 0.298058 0.135821
0.481243 0.302808 0.135898
0.517199 0.308506 0.137921
0.555471 0.311907 0.137859
0.594072 0.314696 0.137433
0.631034 0.315900 0.138361
0.666896 0.317066 0.139786
0.699773 0.319615 0.143248
0.732895 0.322005 0.145852
0.766700 0.324320 0.147543
0.797569 0.326122 0.150683
0.826566 0.327552 0.154703
0.859380 0.328832 0.158298
0.892041 0.330148 0.161744
0.920435 0.330578 0.161687
0.941421 0.330719 0.161386
0.954692 0.330537 0.160915
0.958728 0.329218 0.159332
0.962713 0.327930 0.157721
0.966561 0.326532 0.156049
0.070196 0.344620 0.127323
0.090515 0.343780 0.135766
0.115156 0.342795 0.144284
0.144295 0.342193 0.147874
0.174024 0.341695 0.151307
0.201219 0.341140 0.151610
0.228852 0.340542 0.151971
0.255511 0.339842 0.152453
0.283041 0.338919 0.152545
0.313280 0.335904 0.149148
0.344649 0.333609 0.146750
0.378184 0.334121 0.148590
0.412499 0.335273 0.148584
0.447269 0.336926 0.145446
0.481804 0.337569 0.143750
0.516685 0.337125 0.142558
0.555478 0.339739 0.142405
0.594369 0.342755 0.142620
0.629766 0.344685 0.144129
0.665057 0.346974 0.144917
0.700787 0.350686 0.144630
0.735985 0.353212 0.145380
0.770899 0.354692 0.147228
0.801279 0.355919 0.150780
0.829710 0.357014 0.155082
0.860487 0.359374 0.159400
0.890426 0.361698 0.163604
0.915280 0.361084 0.163519
0.932652 0.360478 0.163410
0.944365 0.359762 0.162967
0.950296 0.358565 0.161316
0.956229 0.357366 0.159629
0.962054 0.356028 0.157870
0.078725 0.368458 0.138262
0.094292 0.369126 0.143536
0.115964 0.369897 0.148755
0.147493 0.370529 0.152134
0.178973 0.371073 0.155183
0.206379 0.371076 0.156323
0.234142 0.370909 0.157159
0.261415 0.370400 0.156480
0.289459 0.369570 0.155307
0.319249 0.367755 0.151755
0.350441 0.367155 0.150799
0.384192 0.369604 0.155636
0.417154 0.371193 0.156921
0.448523 0.371833 0.154326
0.481595 0.370207 0.151892
0.515714 0.367700 0.149541
0.556092 0.370871 0.148413
0.596325 0.374179 0.147526
0.631590 0.376129 0.148983
0.667157 0.378417 0.148957
0.703185 0.381654 0.146852
0.738244 0.383604 0.146751
0.772597 0.384569 0.148157
0.803050 0.385675 0.151682
0.832213 0.386807 0.155852
0.861489 0.389823 0.161031
0.889331 0.392615 0.165873
0.910828 0.391909 0.166065
0.925061 0.391430 0.166266
0.935374 0.390790 0.165842
0.942395 0.390320 0.163985
0.949470 0.389692 0.162059
0.956552 0.388965 0.160075
0.087237 0.393192 0.144085
0.101577 0.395187 0.147121
0.123536 0.397228 0.150498
0.153763 0.398595 0.153768
0.183523 0.399790 0.156520
0.211288 0.400338 0.157499
0.239325 0.400735 0.158211
0.267021 0.400537 0.157898
0.295285 0.399935 0.157574
0.323892 0.398098 0.157273
0.354440 0.397442 0.158489
0.388006 0.398825 0.162002
0.419429 0.400077 0.163134
0.448589 0.401221 0.162311
0.480727 0.401548 0.161068
0.513913 0.401835 0.159817
0.557404 0.405340 0.155382
0.599785 0.408241 0.151721
0.636320 0.409427 0.152870
0.671883 0.410657 0.152433
0.706285 0.412200 0.150073
0.739453 0.413194 0.149488
0.771889 0.413982 0.149949
0.803287 0.415389 0.153107
0.834224 0.416947 0.156895
0.862482 0.420182 0.163100
0.888601 0.422920 0.168539
0.907042 0.423263 0.169286
0.918538 0.423459 0.169849
0.927574 0.423646 0.169474
0.934986 0.424301 0.167265
0.942450 0.424757 0.164957
0.949982 0.425302 0.162630
0.096792 0.418644 0.147943
0.110782 0.421816 0.149106
0.132499 0.424849 0.151230
0.159993 0.426901 0.154679
0.187765 0.428523 0.157521
0.216043 0.429484 0.158738
0.244460 0.430091 0.159697
0.272595 0.430048 0.159870
0.300795 0.429427 0.160348
0.328743 0.428003 0.161464
0.358826 0.427299 0.162888
0.391188 0.427154 0.164863
0.421329 0.428430 0.166682
0.450101 0.430788 0.168823
0.481803 0.432642 0.169071
0.514547 0.434413 0.168795
0.558037 0.437504 0.162952
0.599760 0.439949 0.158035
0.636679 0.441036 0.156046
0.672747 0.441765 0.154429
0.708001 0.442148 0.153438
0.741494 0.443239 0.152860
0.774212 0.444653 0.152446
0.805269 0.446300 0.155000
0.835684 0.447959 0.158269
0.862182 0.450616 0.165182
0.886251 0.452928 0.170862
0.904011 0.454021 0.171433
0.914532 0.454547 0.171865
0.923342 0.455247 0.171149
0.931235 0.456353 0.168280
0.939191 0.457554 0.165358
0.947216 0.458817 0.162383
0.108097 0.446192 0.155173
0.118840 0.448615 0.155254
0.138766 0.451163 0.156903
0.165082 0.453376 0.160054
0.192255 0.455052 0.162654
0.220539 0.455813 0.164595
0.249130 0.456422 0.165679
0.277919 0.456789 0.165221
0.306512 0.457002 0.164380
0.334494 0.457106 0.162855
0.363449 0.456178 0.162159
0.393124 0.454108 0.162358
0.422797 0.456060 0.166744
0.452819 0.460341 0.173860
0.484449 0.463117 0.175967
0.517019 0.465508 0.176771
0.557946 0.468323 0.171158
0.597716 0.470656 0.165229
0.634823 0.472082 0.158550
0.672015 0.472459 0.155823
0.709275 0.471981 0.157053
0.744077 0.473683 0.156510
0.777948 0.476086 0.155214
0.807918 0.477753 0.157034
0.836875 0.479358 0.159795
0.860946 0.481054 0.167204
0.883160 0.482707 0.172947
0.901257 0.484343 0.172997
0.911737 0.485086 0.173100
0.920863 0.486174 0.171787
0.929346 0.487552 0.168077
0.937939 0.489010 0.164320
0.946608 0.490547 0.160485
0.118821 0.473517 0.162798
0.125888 0.474912 0.161817
0.144287 0.477084 0.162712
0.169531 0.479738 0.165072
0.196215 0.481494 0.167320
0.224227 0.482375 0.169482
0.252743 0.483309 0.169910
0.281912 0.484477 0.168512
0.310590 0.485740 0.166202
0.338699 0.486965 0.163100
0.367404 0.486721 0.161581
0.396609 0.485549 0.161099
0.427887 0.488728 0.164503
0.460269 0.493435 0.168943
0.491659 0.497573 0.169757
0.523467 0.501060 0.170195
0.559279 0.500011 0.170434
0.595940 0.500006 0.168629
0.634582 0.502627 0.161742
0.672560 0.503959 0.159352
0.709860 0.504174 0.160797
0.745308 0.505268 0.160606
0.780192 0.506640 0.159848
0.809452 0.507887 0.160727
0.837481 0.509195 0.162597
0.860709 0.511157 0.169195
0.882163 0.512961 0.173923
0.900269 0.514891 0.173536
0.910813 0.515747 0.173375
0.920166 0.516832 0.171562
0.929119 0.518224 0.167373
0.938198 0.519696 0.163122
0.947361 0.521178 0.158780
0.124933 0.500221 0.167657
0.129610 0.501239 0.165750
0.148089 0.503662 0.165805
0.173158 0.506823 0.167014
0.199174 0.509056 0.168263
0.225868 0.510664 0.169538
0.253753 0.512503 0.169099
0.282772 0.514317 0.167235
0.311698 0.515992 0.164997
0.340632 0.517520 0.162584
0.370474 0.518840 0.161315
0.401154 0.520341 0.160566
0.435171 0.523990 0.159158
0.470631 0.528149 0.156975
0.501039 0.534000 0.156771
0.531097 0.538088 0.158013
0.560500 0.531650 0.167097
0.593733 0.528684 0.171213
0.634451 0.533052 0.165225
0.673029 0.535637 0.163277
0.710021 0.536812 0.164499
0.746095 0.536976 0.164841
0.782031 0.536851 0.164931
0.810529 0.537608 0.164688
0.837800 0.538665 0.165534
0.860450 0.541127 0.171030
0.881475 0.543380 0.174643
0.899641 0.545331 0.173788
0.910283 0.546323 0.173356
0.919872 0.547369 0.171066
0.929296 0.548671 0.166491
0.938843 0.550005 0.161846
0.948451 0.551284 0.157113
0.130208 0.526687 0.172058
0.132985 0.527434 0.169429
0.152041 0.530278 0.168827
0.177192 0.533718 0.169426
0.202745 0.536483 0.170169
0.228426 0.538826 0.170761
0.256042 0.541176 0.169808
0.284865 0.543363 0.167850
0.313833 0.545492 0.165679
0.342943 0.547694 0.163302
0.373026 0.549677 0.161572
0.403779 0.551494 0.159997
0.438121 0.554873 0.157808
0.473380 0.558449 0.155620
0.504130 0.562903 0.155658
0.534890 0.565515 0.156925
0.564331 0.560213 0.164281
0.596641 0.557995 0.169397
0.633611 0.560970 0.171009
0.670521 0.563060 0.171746
0.707467 0.564492 0.171664
0.744099 0.565797 0.171190
0.780822 0.566968 0.170591
0.808446 0.566730 0.169033
0.835720 0.567248 0.168518
0.861704 0.571096 0.172060
0.884709 0.574309 0.174192
0.902386 0.576364 0.173243
0.912741 0.577501 0.172780
0.922296 0.578439 0.170078
0.932064 0.579645 0.165086
0.941921 0.580761 0.160002
0.951852 0.581908 0.154830
0.138139 0.554161 0.176577
0.140372 0.555573 0.173463
0.159917 0.558119 0.173814
0.184552 0.560788 0.175611
0.209186 0.563548 0.175851
0.233909 0.566488 0.175155
0.260662 0.568919 0.173370
0.288621 0.571183 0.171044
0.316823 0.574233 0.168124
0.345193 0.577696 0.164814
0.374878 0.579530 0.162008
0.405155 0.580824 0.159239
0.439014 0.583981 0.158032
0.473530 0.587229 0.157204
0.505727 0.589817 0.156774
0.537912 0.591160 0.157107
0.568436 0.588402 0.161033
0.599902 0.587187 0.167208
0.632637 0.588566 0.176946
0.667718 0.590114 0.180294
0.704496 0.591840 0.179027
0.741705 0.594296 0.177674
0.778981 0.596874 0.176271
0.806038 0.595581 0.173498
0.833573 0.595751 0.171653
0.862994 0.601039 0.173114
0.888128 0.605264 0.173766
0.905440 0.607494 0.172711
0.915518 0.608726 0.172183
0.925067 0.609640 0.169045
0.935091 0.610623 0.163616
0.945189 0.611453 0.158081
0.955506 0.612495 0.152452
0.146515 0.581615 0.181301
0.148746 0.583426 0.178154
0.169009 0.585331 0.179810
0.192795 0.587134 0.182493
0.216540 0.589781 0.182270
0.240522 0.592778 0.181059
0.266590 0.595211 0.179249
0.293776 0.597595 0.177211
0.321100 0.601123 0.174070
0.348513 0.605040 0.170354
0.377801 0.607512 0.167808
0.407775 0.609738 0.165598
0.440925 0.611599 0.163863
0.474597 0.613112 0.162060
0.507124 0.615183 0.163248
0.539793 0.616711 0.164864
0.572214 0.616759 0.167959
0.604584 0.616826 0.172365
0.636489 0.616717 0.179008
0.669483 0.617790 0.183295
0.703253 0.619798 0.185960
0.738935 0.621782 0.184285
0.775153 0.623693 0.181372
0.804280 0.623527 0.179449
0.833908 0.624834 0.177717
0.865518 0.631545 0.176649
0.892302 0.637057 0.175369
0.910540 0.640257 0.173538
0.921130 0.642039 0.172547
0.930154 0.642829 0.169031
0.938889 0.643176 0.163574
0.947682 0.643384 0.158032
0.956655 0.643786 0.152399
0.160249 0.605598 0.190292
0.163842 0.607377 0.188404
0.182707 0.609505 0.189408
0.203355 0.611585 0.190695
0.225867 0.614259 0.190290
0.249100 0.617092 0.189459
0.274316 0.619936 0.187887
0.300353 0.622984 0.186104
0.326334 0.626883 0.182401
0.352383 0.631166 0.177965
0.381187 0.634980 0.175749
0.410802 0.638860 0.174055
0.443034 0.639004 0.170754
0.475672 0.638593 0.167361
0.508386 0.640365 0.170243
0.541495 0.642192 0.172983
0.575673 0.644969 0.174992
0.608703 0.646204 0.177559
0.639812 0.644736 0.181098
0.670968 0.645369 0.185861
0.702229 0.647407 0.191513
0.736442 0.648930 0.189732
0.771547 0.650151 0.185848
0.802288 0.650938 0.184944
0.833562 0.653088 0.183598
0.866631 0.660838 0.180528
0.894776 0.667347 0.177602
0.914257 0.671598 0.174788
0.925747 0.674014 0.173174
0.934340 0.674837 0.169256
0.941943 0.674752 0.163740
0.949631 0.674691 0.158160
0.957413 0.674658 0.152498
0.174251 0.629097 0.199370
0.178955 0.630719 0.198496
0.195862 0.632827 0.198517
0.213773 0.634930 0.198587
0.235155 0.637440 0.198012
0.257419 0.640073 0.197269
0.281644 0.643072 0.195719
0.306578 0.646288 0.193973
0.332027 0.650114 0.190517
0.357780 0.654105 0.186708
0.386276 0.657890 0.184797
0.415349 0.661544 0.183139
0.446332 0.662772 0.180166
0.477528 0.664106 0.177412
0.509769 0.666099 0.179090
0.542239 0.668092 0.180484
0.574998 0.670914 0.181524
0.607352 0.672595 0.182744
0.638722 0.672470 0.184330
0.670698 0.672815 0.186503
0.703066 0.673392 0.189102
0.736593 0.674247 0.188472
0.770329 0.675025 0.186913
0.800527 0.676065 0.187920
0.830790 0.678144 0.188335
0.861339 0.684398 0.186078
0.888771 0.690312 0.183134
0.911044 0.695739 0.178429
0.924679 0.698942 0.175575
0.933582 0.700520 0.171037
0.940971 0.701252 0.165341
0.948485 0.702094 0.159595
0.956057 0.702938 0.153772
0.186331 0.649870 0.206606
0.191300 0.651385 0.206092
0.207395 0.653610 0.205965
0.223942 0.655886 0.205819
0.244282 0.658665 0.205100
0.265354 0.661579 0.204260
0.288683 0.664883 0.202774
0.312616 0.668250 0.201104
0.337879 0.671968 0.198595
0.363768 0.675790 0.196007
0.391731 0.679408 0.194191
0.420118 0.682916 0.192401
0.449613 0.686231 0.190031
0.479355 0.689629 0.187812
0.511250 0.691417 0.188013
0.543208 0.693262 0.188116
0.574809 0.695720 0.188259
0.606606 0.697548 0.188312
0.638430 0.698348 0.188281
0.670918 0.698434 0.188376
0.704082 0.697964 0.188575
0.736721 0.698353 0.188846
0.769275 0.698952 0.189101
0.798948 0.700315 0.191333
0.828311 0.702370 0.192904
0.856663 0.707449 0.191311
0.883189 0.712862 0.188449
0.907353 0.719342 0.182293
0.922826 0.723387 0.178363
0.932133 0.725747 0.173159
0.939808 0.727564 0.167081
0.947567 0.729531 0.160974
0.955351 0.731415 0.154803
0.198183 0.669900 0.213624
0.203267 0.671170 0.213349
0.218344 0.673310 0.213010
0.233609 0.675423 0.212642
0.253069 0.678103 0.211843
0.273153 0.680855 0.211003
0.295815 0.683957 0.209686
0.319063 0.687059 0.208253
0.344220 0.690463 0.206406
0.369941 0.693915 0.204507
0.397554 0.697191 0.202884
0.425562 0.700392 0.201260
0.455127 0.703316 0.199267
0.485065 0.706131 0.197380
0.516463 0.708224 0.197051
0.547830 0.710342 0.196644
0.579048 0.712719 0.196295
0.610417 0.714679 0.195910
0.641918 0.716059 0.195585
0.673775 0.717009 0.195319
0.705905 0.717619 0.195111
0.737469 0.718741 0.195092
0.768993 0.720102 0.195148
0.798187 0.721943 0.196234
0.826931 0.724338 0.196951
0.853979 0.729280 0.195579
0.879373 0.734639 0.192912
0.902681 0.741587 0.186667
0.918297 0.746081 0.182475
0.928617 0.749719 0.176363
0.938086 0.753300 0.169265
0.947651 0.757008 0.162125
0.957220 0.760575 0.154927
0.208439 0.687455 0.219531
0.213742 0.688689 0.219418
0.228086 0.690747 0.219119
0.242621 0.692828 0.218819
0.261459 0.695432 0.218189
0.280866 0.698075 0.217534
0.303094 0.701119 0.216533
0.325807 0.704172 0.215473
0.350662 0.707508 0.214139
0.376074 0.710897 0.212805
0.403429 0.714151 0.211490
0.431164 0.717333 0.210146
0.460795 0.719913 0.208551
0.490792 0.722354 0.206921
0.521427 0.724604 0.205957
0.552217 0.726844 0.204996
0.582927 0.729018 0.204154
0.613825 0.731018 0.203369
0.644926 0.732796 0.202758
0.676094 0.734403 0.202178
0.707303 0.735877 0.201637
0.738032 0.737698 0.201359
0.768621 0.739631 0.201156
0.797358 0.741960 0.201277
0.825598 0.744703 0.201201
0.851599 0.749586 0.199821
0.876025 0.754897 0.197278
0.898490 0.762158 0.191159
0.914270 0.767166 0.186846
0.925399 0.771882 0.180206
0.936103 0.776863 0.172651
0.946905 0.781947 0.165052
0.957757 0.786944 0.157355
0.218112 0.704089 0.225076
0.223366 0.705093 0.224999
0.236911 0.706896 0.224653
0.250730 0.708724 0.224319
0.268936 0.711005 0.223726
0.287634 0.713349 0.223128
0.309349 0.716076 0.222250
0.331602 0.718840 0.221341
0.356041 0.721823 0.220184
0.381003 0.724863 0.219020
0.407929 0.727783 0.217773
0.435189 0.730654 0.216509
0.464376 0.733053 0.215042
0.493738 0.735415 0.213601
0.523980 0.737761 0.212648
0.554361 0.740071 0.211682
0.584851 0.742384 0.210832
0.615462 0.744597 0.210005
0.646216 0.746702 0.209302
0.676979 0.748744 0.208617
0.707709 0.750740 0.207948
0.737933 0.753045 0.207412
0.767986 0.755463 0.206902
0.796478 0.758447 0.206462
0.824419 0.761689 0.205837
