public/luts/grid.cube
# framediff hero grade: per-segment fit for grid (AE chain composed)
# generated by gradefit.py
LUT_3D_SIZE 5
DOMAIN_MIN 0 0 0
DOMAIN_MAX 1 1 1
0.037577 0.057123 0.101410
0.237405 0.114398 0.143499
0.462833 0.185892 0.191637
0.648940 0.236471 0.232314
0.727627 0.251883 0.246394
0.149493 0.217749 0.173468
0.272533 0.237642 0.140429
0.507915 0.274375 0.170812
0.676285 0.319834 0.230256
0.738187 0.330975 0.246208
0.199136 0.392871 0.220593
0.294278 0.414112 0.211149
0.505187 0.459880 0.201470
0.733192 0.493085 0.219465
0.775035 0.492845 0.242929
0.212641 0.534105 0.246716
0.312683 0.552610 0.248165
0.497319 0.587297 0.246394
0.742274 0.659103 0.243131
0.792219 0.655545 0.255695
0.214745 0.604405 0.256249
0.315364 0.616820 0.258918
0.497395 0.645198 0.262222
0.700437 0.689250 0.265764
0.773288 0.704844 0.268619
0.109445 0.114392 0.237226
0.232584 0.131839 0.247199
0.440918 0.175808 0.274914
0.629155 0.225304 0.308837
0.712924 0.240782 0.322599
0.147834 0.214894 0.267219
0.248312 0.227497 0.270298
0.461256 0.244955 0.269965
0.649846 0.300486 0.313288
0.726676 0.319087 0.331810
0.191361 0.379151 0.302400
0.285324 0.399116 0.307418
0.460734 0.429891 0.298464
0.732015 0.467186 0.311743
0.796716 0.484624 0.337923
0.203514 0.519824 0.325278
0.302743 0.538973 0.332949
0.481648 0.574445 0.339549
0.703069 0.632533 0.337786
0.814408 0.665010 0.355053
0.204700 0.592355 0.334697
0.304371 0.605588 0.341779
0.482398 0.633365 0.351067
0.692723 0.682788 0.359670
0.787390 0.713917 0.365302
0.164631 0.158478 0.380139
0.247081 0.166979 0.386781
0.418321 0.188211 0.401730
0.600995 0.215142 0.423388
0.691152 0.227014 0.435827
0.170555 0.231771 0.391500
0.251932 0.242550 0.399564
0.425781 0.261807 0.412332
0.624534 0.293789 0.441105
0.708447 0.305281 0.454163
0.185504 0.367978 0.412613
0.280296 0.389800 0.428174
0.460632 0.423959 0.456066
0.678283 0.452556 0.472254
0.804746 0.458437 0.484876
0.192029 0.501604 0.431381
0.291856 0.521545 0.445522
0.467163 0.560784 0.473378
0.623557 0.572139 0.468467
0.779522 0.619322 0.504068
0.192236 0.576014 0.441019
0.291447 0.591314 0.452697
0.465318 0.621225 0.473378
0.659856 0.659011 0.495949
0.748103 0.679855 0.506262
0.174049 0.166209 0.497308
0.246668 0.172578 0.504266
0.401415 0.187117 0.516089
0.572871 0.204718 0.530682
0.668252 0.214202 0.540612
0.175632 0.232140 0.504105
0.254094 0.242745 0.512906
0.411866 0.260401 0.526963
0.586465 0.279517 0.543320
0.675772 0.289992 0.554782
0.179622 0.357839 0.516121
0.266773 0.374149 0.527165
0.434086 0.405029 0.553991
0.611532 0.428015 0.570632
0.708592 0.444832 0.586079
0.181427 0.485348 0.528483
0.275644 0.503611 0.541600
0.457738 0.550318 0.580542
0.662620 0.606791 0.631115
0.762351 0.613295 0.631621
0.181623 0.560488 0.536454
0.277571 0.576533 0.549345
0.452426 0.611817 0.578443
0.644654 0.660239 0.619128
0.737677 0.676481 0.629440
0.172404 0.164475 0.562430
0.240996 0.170171 0.567579
0.391348 0.182791 0.577531
0.557579 0.197606 0.588428
0.655629 0.206779 0.594520
0.173348 0.227161 0.566326
0.248135 0.237330 0.572670
0.401997 0.253833 0.584352
0.568602 0.270707 0.595889
0.660366 0.279951 0.601730
0.175012 0.350762 0.573850
0.256680 0.365306 0.582315
0.414314 0.388463 0.599233
0.583795 0.410889 0.615516
0.678060 0.423787 0.622931
0.175775 0.476947 0.581388
0.264806 0.493630 0.591976
0.430107 0.524980 0.616072
0.610102 0.564986 0.648671
0.708284 0.582067 0.661543
0.176104 0.552067 0.584755
0.267656 0.567673 0.596174
0.437275 0.600499 0.622495
0.629024 0.649043 0.665830
0.784284 0.725834 0.741802
