public/luts/grid.cube
# framediff hero grade: per-segment fit for grid (AE chain composed)
# generated by gradefit.py
LUT_3D_SIZE 33
DOMAIN_MIN 0 0 0
DOMAIN_MAX 1 1 1
0.037577 0.057123 0.101410
0.051982 0.062387 0.105622
0.072434 0.070017 0.111747
0.097162 0.078038 0.118138
0.122577 0.083702 0.122520
0.149618 0.090208 0.127279
0.179588 0.098274 0.132853
0.209138 0.106306 0.138316
0.237405 0.114398 0.143499
0.266105 0.122782 0.148673
0.295373 0.131545 0.153747
0.324366 0.140507 0.159353
0.352996 0.149644 0.165524
0.380980 0.158796 0.171919
0.408704 0.168021 0.178488
0.435817 0.176972 0.185051
0.462833 0.185892 0.191637
0.488793 0.193989 0.197889
0.514533 0.201943 0.204061
0.539107 0.208955 0.209643
0.563298 0.215709 0.215043
0.586246 0.221652 0.219899
0.608395 0.227172 0.224456
0.629455 0.232124 0.228614
0.648940 0.236471 0.232314
0.667440 0.240441 0.235732
0.683128 0.243602 0.238509
0.697508 0.246440 0.241025
0.707946 0.248370 0.242795
0.717187 0.250062 0.244363
0.722006 0.250918 0.245253
0.724816 0.251402 0.245827
0.727627 0.251883 0.246394
0.047830 0.067198 0.111710
0.060917 0.071994 0.114749
0.078221 0.078175 0.118553
0.100697 0.085120 0.121586
0.126987 0.092036 0.122974
0.154495 0.097572 0.125252
0.183403 0.100508 0.129050
0.211835 0.105814 0.133740
0.239305 0.114841 0.139799
0.268135 0.124248 0.145517
0.298478 0.134061 0.150816
0.327918 0.143609 0.156909
0.356736 0.152978 0.163606
0.384647 0.162351 0.170466
0.412222 0.171760 0.177408
0.439306 0.180883 0.184355
0.466334 0.189957 0.191421
0.492270 0.198113 0.197925
0.517869 0.206026 0.204236
0.542376 0.213046 0.209946
0.566296 0.219654 0.215370
0.589263 0.225586 0.220322
0.611118 0.230951 0.224862
0.632108 0.235851 0.229066
0.651287 0.240041 0.232731
0.669759 0.243971 0.236186
0.684928 0.246948 0.238882
0.699121 0.249702 0.241390
0.709128 0.251491 0.243096
0.718038 0.253077 0.244626
0.722243 0.253774 0.245421
0.725050 0.254209 0.245986
0.727858 0.254646 0.246550
0.059426 0.078778 0.123527
0.069851 0.082119 0.124434
0.083148 0.086207 0.125285
0.104102 0.092707 0.124770
0.131442 0.101174 0.122881
0.159063 0.104798 0.122518
0.186703 0.101906 0.124226
0.213881 0.104886 0.128338
0.240412 0.115033 0.135365
0.269718 0.125704 0.141621
0.301380 0.136831 0.147147
0.331286 0.146982 0.153821
0.360382 0.156688 0.161148
0.388087 0.166327 0.168491
0.415535 0.175973 0.176014
0.442718 0.185379 0.183543
0.469746 0.194688 0.190987
0.495834 0.203086 0.197836
0.521324 0.211054 0.204337
0.545855 0.218169 0.210248
0.569590 0.224711 0.215746
0.592520 0.230673 0.220825
0.614086 0.235901 0.225370
0.635088 0.240812 0.229676
0.653961 0.244878 0.233328
0.672223 0.248735 0.236810
0.687001 0.251580 0.239474
0.700647 0.254190 0.241929
0.710559 0.255928 0.243667
0.718895 0.257378 0.245145
0.722554 0.257928 0.245873
0.725355 0.258320 0.246451
0.728154 0.258703 0.247033
0.076218 0.099721 0.133352
0.084099 0.102484 0.132701
0.093926 0.105650 0.131619
0.114003 0.111145 0.128956
0.141279 0.118094 0.125173
0.168163 0.121456 0.123808
0.194425 0.121356 0.124987
0.220631 0.125494 0.127587
0.246598 0.133471 0.131427
0.276288 0.141410 0.135924
0.308597 0.149279 0.140894
0.337888 0.157119 0.147995
0.366068 0.164914 0.156003
0.392761 0.174067 0.164119
0.419276 0.183575 0.172373
0.446636 0.193483 0.180695
0.473844 0.203240 0.188870
0.500071 0.211981 0.196293
0.525462 0.220035 0.203203
0.549929 0.227282 0.209465
0.573374 0.233762 0.215147
0.596264 0.239773 0.220487
0.617564 0.244913 0.225146
0.638497 0.249856 0.229632
0.657028 0.253810 0.233337
0.674870 0.257553 0.236863
0.689557 0.260381 0.239619
0.702648 0.262848 0.242055
0.712464 0.264558 0.243838
0.720170 0.265863 0.245274
0.723435 0.266311 0.245962
0.726225 0.266649 0.246557
0.729014 0.266975 0.247157
0.095118 0.124395 0.142528
0.100156 0.126380 0.140605
0.106113 0.128426 0.137874
0.125320 0.132112 0.133353
0.152182 0.136523 0.127867
0.178000 0.140849 0.125890
0.202907 0.145245 0.126845
0.228157 0.150058 0.127188
0.253627 0.154955 0.126935
0.283794 0.159053 0.129690
0.316552 0.162553 0.134029
0.344725 0.167723 0.141767
0.371714 0.172785 0.150699
0.397147 0.181620 0.159567
0.422644 0.191104 0.168515
0.450485 0.201764 0.177762
0.477881 0.212014 0.186657
0.504222 0.221146 0.194669
0.529502 0.229341 0.201954
0.553939 0.236735 0.208601
0.577126 0.243148 0.214472
0.599915 0.249229 0.220062
0.620978 0.254316 0.224842
0.641621 0.259172 0.229452
0.660080 0.263145 0.233294
0.677475 0.266775 0.236861
0.692056 0.269615 0.239713
0.704665 0.271960 0.242149
0.714367 0.273637 0.243966
0.721429 0.274810 0.245356
0.724386 0.275159 0.246002
0.727174 0.275513 0.246625
0.729962 0.275861 0.247244
0.111143 0.148168 0.150787
0.115098 0.149650 0.148559
0.119950 0.151200 0.145657
0.136000 0.153877 0.140466
0.156609 0.156884 0.134252
0.180758 0.161189 0.131087
0.207633 0.166409 0.129892
0.233272 0.169875 0.128938
0.258084 0.172227 0.128148
0.288440 0.176285 0.129301
0.321229 0.181133 0.131020
0.351349 0.185499 0.136564
0.380990 0.189554 0.142933
0.405195 0.197180 0.153423
0.430057 0.205339 0.163777
0.457252 0.215491 0.173935
0.484013 0.225229 0.183501
0.509949 0.234172 0.192150
0.534811 0.242146 0.199856
0.558949 0.249515 0.206955
0.581771 0.255783 0.213085
0.604299 0.261826 0.218999
0.625000 0.266810 0.223942
0.645295 0.271601 0.228728
0.663659 0.275581 0.232784
0.680622 0.279147 0.236450
0.695116 0.281991 0.239467
0.707258 0.284287 0.241949
0.716876 0.285964 0.243852
0.723159 0.286997 0.245173
0.725987 0.287334 0.245825
0.728762 0.287652 0.246477
0.731540 0.287949 0.247098
0.125767 0.171450 0.158659
0.129934 0.172805 0.156776
0.135013 0.174214 0.154356
0.145807 0.176054 0.148679
0.157996 0.177949 0.141928
0.181501 0.181901 0.137060
0.211638 0.186916 0.132987
0.237639 0.188562 0.131257
0.261834 0.188497 0.130642
0.292543 0.193810 0.129571
0.325185 0.200963 0.128399
0.357951 0.204341 0.131325
0.390003 0.207449 0.135435
0.413048 0.213079 0.147581
0.437578 0.219838 0.158964
0.464188 0.229588 0.169980
0.490304 0.238896 0.180145
0.515846 0.247692 0.189453
0.540264 0.255499 0.197557
0.564054 0.262805 0.205146
0.586480 0.268949 0.211533
0.608575 0.274871 0.217706
0.629147 0.279835 0.222950
0.649058 0.284521 0.227925
0.667337 0.288539 0.232218
0.683885 0.292004 0.236000
0.698209 0.294822 0.239149
0.709909 0.297035 0.241684
0.719314 0.298676 0.243667
0.724934 0.299562 0.244920
0.727698 0.299880 0.245604
0.730463 0.300198 0.246282
0.733219 0.300431 0.246936
0.138323 0.194624 0.166232
0.142552 0.196016 0.164593
0.147654 0.197446 0.162463
0.157041 0.199331 0.157110
0.167501 0.201410 0.151089
0.189537 0.205781 0.145726
0.216199 0.211021 0.140468
0.241728 0.212369 0.137379
0.267059 0.212161 0.135054
0.296178 0.214234 0.132814
0.325993 0.216489 0.130588
0.359018 0.221428 0.132327
0.391421 0.226497 0.135159
0.420666 0.232348 0.142768
0.448903 0.239234 0.151935
0.474110 0.247942 0.164399
0.498979 0.256246 0.175505
0.523411 0.264306 0.185719
0.546961 0.271584 0.194352
0.570118 0.278613 0.202564
0.592060 0.284548 0.209319
0.613667 0.290273 0.215849
0.633996 0.295220 0.221456
0.653536 0.299801 0.226696
0.671719 0.303823 0.231304
0.687818 0.307222 0.235244
0.701981 0.310027 0.238596
0.713201 0.312109 0.241181
0.722014 0.313704 0.243197
0.727339 0.314535 0.244473
0.730093 0.314861 0.245194
0.732844 0.315134 0.245886
0.735597 0.315433 0.246598
0.149493 0.217749 0.173468
0.153927 0.219304 0.172100
0.159213 0.220885 0.170301
0.169411 0.223319 0.165848
0.180259 0.225869 0.161138
0.198857 0.230525 0.155569
0.219529 0.235834 0.149649
0.245185 0.237257 0.144928
0.272533 0.237642 0.140429
0.299521 0.234872 0.136743
0.326804 0.231902 0.133345
0.359959 0.239341 0.133684
0.393460 0.246193 0.134742
0.428430 0.252189 0.138371
0.458910 0.258992 0.146276
0.483774 0.266811 0.159370
0.507915 0.274375 0.170812
0.531326 0.281768 0.181652
0.553967 0.288513 0.190762
0.576221 0.295024 0.199550
0.597843 0.300863 0.206849
0.618959 0.306423 0.213771
0.639105 0.311333 0.219798
0.658266 0.315826 0.225321
0.676285 0.319834 0.230256
0.691947 0.323122 0.234373
0.705979 0.325941 0.237960
0.716738 0.327905 0.240619
0.724947 0.329376 0.242657
0.729994 0.330133 0.243962
0.732732 0.330468 0.244724
0.735456 0.330699 0.245458
0.738187 0.330975 0.246208
0.158968 0.240750 0.180253
0.163382 0.242424 0.179004
0.168710 0.244256 0.177376
0.178998 0.247386 0.173129
0.189492 0.250548 0.168751
0.205441 0.257108 0.161642
0.222333 0.264451 0.153878
0.245906 0.266314 0.150812
0.270858 0.267107 0.148652
0.299198 0.264199 0.146421
0.328510 0.261689 0.144317
0.361056 0.264059 0.141682
0.394281 0.267082 0.140209
0.429309 0.272290 0.141549
0.461927 0.279232 0.146949
0.492798 0.287692 0.155923
0.517958 0.295046 0.165993
0.540657 0.301825 0.176415
0.562189 0.307714 0.186285
0.583301 0.313399 0.195909
0.604392 0.319020 0.203836
0.624941 0.324305 0.211232
0.644855 0.329122 0.217744
0.663609 0.333469 0.223595
0.681455 0.337471 0.228918
0.696746 0.340696 0.233279
0.710593 0.343498 0.237146
0.720905 0.345389 0.239900
0.728499 0.346689 0.241941
0.733315 0.347438 0.243315
0.736024 0.347716 0.244099
0.738739 0.348028 0.244905
0.741448 0.348300 0.245702
0.167430 0.263733 0.186772
0.171943 0.265594 0.185654
0.177721 0.267825 0.183998
0.187763 0.271649 0.179977
0.198029 0.275585 0.175854
0.211815 0.284730 0.166874
0.225830 0.294439 0.157348
0.246750 0.295909 0.156837
0.268641 0.296595 0.157085
0.299316 0.293689 0.156234
0.330347 0.291079 0.154841
0.362518 0.290172 0.150278
0.395580 0.291582 0.147488
0.429699 0.296001 0.147230
0.464343 0.302882 0.150368
0.499999 0.311218 0.155495
0.526042 0.317835 0.164225
0.549945 0.323877 0.173524
0.570416 0.328087 0.182974
0.590651 0.332424 0.192186
0.611358 0.338071 0.200797
0.631486 0.343272 0.208670
0.651170 0.348027 0.215633
0.669573 0.352250 0.221814
0.687175 0.356117 0.227535
0.701932 0.359131 0.232085
0.715593 0.361940 0.236255
0.725471 0.363714 0.239126
0.732457 0.364865 0.241191
0.737046 0.365578 0.242614
0.739714 0.365822 0.243452
0.742392 0.366109 0.244307
0.745061 0.366349 0.245147
0.174509 0.286177 0.193044
0.179040 0.288111 0.192109
0.185200 0.290514 0.190525
0.195129 0.294176 0.187164
0.205488 0.298125 0.183586
0.219353 0.305569 0.176581
0.233639 0.312827 0.169773
0.253819 0.316880 0.167337
0.274891 0.320818 0.164819
0.301987 0.319573 0.164773
0.330792 0.319709 0.164482
0.365277 0.325099 0.163258
0.398565 0.329176 0.162327
0.429190 0.330463 0.161416
0.463917 0.334488 0.161791
0.501627 0.339471 0.162390
0.531209 0.344308 0.168264
0.559267 0.348890 0.174608
0.578808 0.349881 0.180994
0.598342 0.352239 0.188225
0.618858 0.358284 0.197635
0.638725 0.363578 0.206007
0.658167 0.368216 0.213401
0.676141 0.372243 0.219885
0.693506 0.376016 0.226011
0.707778 0.378889 0.230796
0.721115 0.381489 0.235264
0.730546 0.383162 0.238266
0.736989 0.384226 0.240366
0.741353 0.384853 0.241843
0.743980 0.385092 0.242743
0.746613 0.385353 0.243657
0.749232 0.385544 0.244539
0.180989 0.308443 0.199204
0.185590 0.310389 0.198488
0.192275 0.312963 0.197134
0.202277 0.316445 0.194579
0.213013 0.320197 0.191720
0.227182 0.325691 0.187230
0.241998 0.331301 0.182574
0.260884 0.338691 0.177231
0.280622 0.344632 0.172828
0.303673 0.344069 0.173187
0.330540 0.346402 0.173596
0.366791 0.355750 0.174637
0.399560 0.360714 0.174675
0.427772 0.360739 0.173594
0.461917 0.363067 0.172313
0.498591 0.365926 0.170816
0.532029 0.370238 0.174395
0.564116 0.374178 0.178106
0.585522 0.374561 0.182094
0.606498 0.376529 0.187805
0.626814 0.381285 0.196518
0.646536 0.385742 0.204368
0.665832 0.389953 0.211585
0.683469 0.393610 0.218157
0.700547 0.397103 0.224542
0.714257 0.399716 0.229545
0.727085 0.402131 0.234244
0.736136 0.403582 0.237418
0.742043 0.404528 0.239566
0.746157 0.405011 0.241092
0.748732 0.405276 0.242062
0.751290 0.405467 0.243027
0.753839 0.405625 0.243976
0.186424 0.330126 0.204958
0.190905 0.331975 0.204426
0.197886 0.334498 0.203271
0.207761 0.337665 0.201286
0.218714 0.341178 0.198936
0.232569 0.345711 0.195479
0.247353 0.350436 0.191873
0.265042 0.356022 0.187570
0.283340 0.360245 0.183847
0.302851 0.360864 0.181551
0.328292 0.364805 0.180415
0.364636 0.374605 0.181827
0.396989 0.381203 0.182607
0.425540 0.385059 0.182873
0.457120 0.388529 0.182475
0.489534 0.391719 0.181860
0.528263 0.396243 0.182956
0.565034 0.400235 0.184028
0.591371 0.402232 0.185979
0.614997 0.404154 0.189957
0.635190 0.406181 0.196740
0.654750 0.409125 0.203384
0.673976 0.412715 0.209949
0.691276 0.415914 0.216503
0.707954 0.418992 0.223010
0.721212 0.421402 0.228298
0.733407 0.423533 0.233195
0.742145 0.424814 0.236601
0.747528 0.425587 0.238778
0.751415 0.426023 0.240370
0.753909 0.426229 0.241401
0.756373 0.426327 0.242412
0.758852 0.426480 0.243444
0.191465 0.351593 0.210576
0.195904 0.353416 0.210261
0.203256 0.355911 0.209394
0.213107 0.358857 0.208002
0.224221 0.361991 0.206212
0.237823 0.365657 0.203740
0.252424 0.369380 0.201015
0.269019 0.373286 0.197695
0.285864 0.376387 0.194058
0.303085 0.378164 0.189916
0.327471 0.382901 0.187925
0.360335 0.391053 0.188464
0.389590 0.397411 0.189024
0.416684 0.402757 0.189724
0.449070 0.408602 0.189994
0.483746 0.415030 0.190252
0.523794 0.421036 0.190498
0.561402 0.426336 0.190449
0.591858 0.429193 0.189486
0.618861 0.431223 0.191421
0.642101 0.432438 0.196695
0.662863 0.434639 0.202607
0.682463 0.437293 0.208846
0.699599 0.439867 0.215250
0.715981 0.442310 0.221622
0.728784 0.444341 0.227254
0.740322 0.446127 0.232355
0.748620 0.447145 0.235980
0.753479 0.447645 0.238181
0.757097 0.447952 0.239841
0.759451 0.447985 0.240918
0.761819 0.448069 0.241999
0.764193 0.448180 0.243088
0.195420 0.372334 0.215655
0.199723 0.374049 0.215460
0.207367 0.376522 0.214786
0.217153 0.379252 0.213736
0.228549 0.382276 0.212357
0.242067 0.385594 0.210515
0.256761 0.388956 0.208398
0.273116 0.392308 0.205818
0.290011 0.395077 0.202910
0.307583 0.397127 0.199556
0.328207 0.399767 0.196673
0.350831 0.402563 0.193936
0.374841 0.407109 0.193303
0.399918 0.412825 0.193908
0.438650 0.424102 0.195262
0.480531 0.436632 0.196813
0.518331 0.445306 0.197702
0.555175 0.452538 0.197085
0.589880 0.456043 0.192677
0.621085 0.458329 0.192489
0.648887 0.459605 0.196433
0.671168 0.461170 0.201872
0.691220 0.462673 0.207926
0.708246 0.464489 0.214129
0.724405 0.466272 0.220330
0.736544 0.467821 0.226230
0.747426 0.469149 0.231573
0.755192 0.469839 0.235402
0.759623 0.470080 0.237663
0.762983 0.470293 0.239386
0.765207 0.470240 0.240510
0.767446 0.470217 0.241660
0.769690 0.470232 0.242813
0.199136 0.392871 0.220593
0.203393 0.394570 0.220551
0.211306 0.396925 0.220075
0.221040 0.399522 0.219366
0.232626 0.402342 0.218354
0.246050 0.405375 0.217043
0.260819 0.408355 0.215389
0.277099 0.411406 0.213461
0.294278 0.414112 0.211149
0.312266 0.416429 0.208455
0.330541 0.417910 0.205104
0.349090 0.418808 0.201309
0.371233 0.422422 0.199943
0.394565 0.426798 0.199304
0.429277 0.436913 0.199760
0.465138 0.447496 0.200269
0.505187 0.459880 0.201470
0.544454 0.470434 0.200972
0.581227 0.476562 0.196919
0.616999 0.481958 0.195449
0.651918 0.486711 0.196112
0.677730 0.489855 0.200435
0.700457 0.492420 0.206022
0.717425 0.492841 0.212750
0.733192 0.493085 0.219465
0.744561 0.493339 0.225727
0.754564 0.493462 0.231297
0.761681 0.493583 0.235277
0.765753 0.493440 0.237630
0.768788 0.493324 0.239385
0.770864 0.493149 0.240547
0.772955 0.493004 0.241737
0.775035 0.492845 0.242929
0.201905 0.412517 0.224875
0.206055 0.414124 0.224895
0.214257 0.416483 0.224592
0.224017 0.419073 0.224160
0.235854 0.421814 0.223434
0.249277 0.424687 0.222485
0.264313 0.427705 0.221315
0.280702 0.430707 0.219922
0.298229 0.433482 0.218183
0.316613 0.436111 0.216208
0.335583 0.438094 0.213648
0.355126 0.439869 0.210858
0.375364 0.441425 0.208146
0.395656 0.442605 0.205197
0.418722 0.447423 0.203597
0.444367 0.453766 0.202367
0.489071 0.471150 0.204039
0.531959 0.485988 0.204202
0.570576 0.495714 0.201560
0.611455 0.505010 0.198678
0.654363 0.513999 0.195513
0.684098 0.519152 0.198678
0.709959 0.523196 0.203777
0.726649 0.521847 0.211250
0.741985 0.520380 0.218630
0.752523 0.519156 0.225270
0.761690 0.518080 0.231100
0.768119 0.517421 0.235227
0.771846 0.516915 0.237682
0.774561 0.516490 0.239463
0.776478 0.516174 0.240671
0.778399 0.515859 0.241903
0.780295 0.515488 0.243126
0.204561 0.432007 0.229043
0.208598 0.433492 0.229111
0.217009 0.435795 0.228944
0.226728 0.438236 0.228694
0.238785 0.440926 0.228216
0.252176 0.443684 0.227575
0.267430 0.446640 0.226730
0.283875 0.449636 0.225732
0.301707 0.452516 0.224415
0.320390 0.455352 0.222918
0.339933 0.457822 0.220945
0.360058 0.460215 0.218811
0.380374 0.461923 0.216146
0.400993 0.463550 0.213395
0.422783 0.467579 0.211568
0.446850 0.472644 0.209884
0.480700 0.482908 0.209075
0.514166 0.492741 0.207879
0.547695 0.502468 0.206261
0.592042 0.516461 0.204733
0.644844 0.533804 0.203274
0.683101 0.542823 0.203559
0.717491 0.549463 0.204283
0.737005 0.550215 0.209773
0.753975 0.549933 0.215876
0.761639 0.546253 0.224132
0.768478 0.543212 0.231111
0.773932 0.541518 0.235596
0.777129 0.540480 0.238270
0.779425 0.539643 0.240107
0.781183 0.539181 0.241376
0.782915 0.538635 0.242645
0.784635 0.538099 0.243908
0.206476 0.450486 0.232601
0.210452 0.451920 0.232715
0.219059 0.454194 0.232661
0.228797 0.456616 0.232569
0.241030 0.459281 0.232285
0.254508 0.462090 0.231930
0.269928 0.464998 0.231357
0.286475 0.468047 0.230723
0.304606 0.471130 0.229839
0.323538 0.474203 0.228842
0.343649 0.477142 0.227462
0.364329 0.480149 0.226019
0.385828 0.483060 0.224206
0.407713 0.486002 0.222350
0.430204 0.489759 0.220468
0.452503 0.492976 0.218172
0.472481 0.494084 0.214278
0.495739 0.498449 0.211616
0.524237 0.508325 0.211066
0.572295 0.527321 0.211042
0.634838 0.553167 0.211442
0.681594 0.565978 0.208802
0.723953 0.575146 0.205328
0.746582 0.577971 0.208671
0.765392 0.578964 0.213396
0.770443 0.573130 0.223085
0.775177 0.568311 0.231135
0.779626 0.565543 0.236038
0.782240 0.563901 0.238932
0.784158 0.562767 0.240831
0.785732 0.562093 0.242137
0.787268 0.561301 0.243423
0.788829 0.560624 0.244754
0.208335 0.468867 0.236097
0.212212 0.470182 0.236225
0.221004 0.472381 0.236250
0.230694 0.474664 0.236245
0.243052 0.477226 0.236096
0.256513 0.479939 0.235912
0.272022 0.482787 0.235522
0.288596 0.485778 0.235100
0.306883 0.488912 0.234478
0.325937 0.492070 0.233782
0.346329 0.495266 0.232766
0.367239 0.498493 0.231687
0.389236 0.501869 0.230299
0.411625 0.505280 0.228853
0.434736 0.509235 0.227200
0.457834 0.512903 0.225271
0.480044 0.515636 0.222293
0.504003 0.520076 0.219787
0.530510 0.527211 0.217982
0.575503 0.545702 0.217300
0.634259 0.572748 0.217494
0.678265 0.585675 0.215769
0.718114 0.594598 0.213522
0.744899 0.597832 0.214426
0.767519 0.599678 0.216837
0.775315 0.596605 0.224692
0.781373 0.593225 0.231675
0.784205 0.588992 0.237176
0.785874 0.586498 0.240396
0.787282 0.584956 0.242377
0.788648 0.584032 0.243700
0.789984 0.583006 0.245015
0.791340 0.582092 0.246372
0.209672 0.486111 0.239070
0.213478 0.487383 0.239230
0.222479 0.489584 0.239337
0.232141 0.491826 0.239429
0.244667 0.494409 0.239418
0.258138 0.497103 0.239394
0.273816 0.499984 0.239202
0.290411 0.503013 0.239008
0.308840 0.506200 0.238648
0.328014 0.509514 0.238267
0.348689 0.512967 0.237639
0.369877 0.516492 0.236973
0.392385 0.520329 0.236058
0.415297 0.524231 0.235102
0.439218 0.528607 0.233855
0.463283 0.532819 0.232358
0.487735 0.537135 0.230291
0.512421 0.541644 0.227937
0.537387 0.546384 0.225037
0.578980 0.563932 0.223818
0.632974 0.590929 0.223815
0.673980 0.603794 0.222966
0.711278 0.612505 0.221839
0.741849 0.616677 0.220630
0.768252 0.619774 0.220921
0.778846 0.619206 0.226941
0.786405 0.617132 0.232790
0.787972 0.611697 0.238642
0.788913 0.608429 0.242101
0.789985 0.606638 0.244089
0.791189 0.605485 0.245387
0.792391 0.604352 0.246715
0.793587 0.603238 0.248074
0.210934 0.503121 0.241949
0.214664 0.504313 0.242118
0.223801 0.506395 0.242266
0.233451 0.508513 0.242413
0.246085 0.510994 0.242483
0.259523 0.513561 0.242546
0.275287 0.516366 0.242478
0.291863 0.519307 0.242414
0.310411 0.522500 0.242217
0.329596 0.525782 0.242006
0.350428 0.529315 0.241610
0.371685 0.532875 0.241153
0.394423 0.536824 0.240478
0.417486 0.540885 0.239790
0.441781 0.545480 0.238844
0.466449 0.550118 0.237751
0.491965 0.555275 0.236287
0.518333 0.560975 0.234652
0.545831 0.567626 0.232746
0.583362 0.581949 0.231784
0.628364 0.601984 0.231523
0.665952 0.613816 0.230894
0.701143 0.623017 0.230117
0.733605 0.630979 0.228716
0.762273 0.637371 0.228446
0.775632 0.637447 0.232710
0.785374 0.635947 0.237124
0.787627 0.630725 0.242127
0.789019 0.627448 0.245191
0.790261 0.625776 0.246886
0.791487 0.624542 0.248045
0.792732 0.623373 0.249255
0.793963 0.622198 0.250482
0.211829 0.518831 0.244397
0.215487 0.519982 0.244581
0.224801 0.522067 0.244785
0.234447 0.524196 0.244999
0.247208 0.526671 0.245161
0.260633 0.529219 0.245324
0.276522 0.532095 0.245413
0.293114 0.535023 0.245482
0.311697 0.538252 0.245462
0.330951 0.541592 0.245447
0.351915 0.545241 0.245293
0.373294 0.548929 0.245103
0.396274 0.553117 0.244746
0.419624 0.557381 0.244371
0.444320 0.562181 0.243739
0.469492 0.567149 0.243015
0.495923 0.572936 0.242068
0.523590 0.579545 0.241076
0.553132 0.587605 0.240003
0.586748 0.598844 0.239262
0.623807 0.612695 0.238794
0.657975 0.623316 0.238340
0.691284 0.632830 0.237873
0.724529 0.643407 0.236534
0.754612 0.652251 0.235932
0.770654 0.653352 0.238664
0.782719 0.652842 0.241747
0.786156 0.648314 0.245827
0.788384 0.645371 0.248429
0.789891 0.643826 0.249808
0.791220 0.642626 0.250816
0.792556 0.641502 0.251880
0.793881 0.640320 0.252948
0.212641 0.534105 0.246716
0.216228 0.535131 0.246890
0.225648 0.537116 0.247124
0.235261 0.539088 0.247355
0.248125 0.541442 0.247560
0.261519 0.543851 0.247774
0.277469 0.546625 0.247942
0.294026 0.549433 0.248081
0.312683 0.552610 0.248165
0.331920 0.555857 0.248251
0.352922 0.559456 0.248229
0.374309 0.563088 0.248179
0.397348 0.567247 0.247990
0.420718 0.571491 0.247787
0.445547 0.576377 0.247417
0.470767 0.581433 0.246990
0.497319 0.587297 0.246394
0.524847 0.593802 0.245768
0.553972 0.601550 0.245118
0.585614 0.611231 0.244655
0.619334 0.622519 0.244353
0.651372 0.632104 0.244082
0.682946 0.641131 0.243849
0.713665 0.650622 0.243277
0.742274 0.659103 0.243131
0.760641 0.662470 0.245076
0.775252 0.664146 0.247250
0.781334 0.661577 0.250196
0.785441 0.659777 0.252144
0.787481 0.658646 0.253165
0.789058 0.657610 0.253985
0.790645 0.656624 0.254849
0.792219 0.655545 0.255695
0.213198 0.547865 0.248659
0.216860 0.548909 0.248849
0.226267 0.550842 0.249108
0.235865 0.552801 0.249378
0.248786 0.555161 0.249646
0.262198 0.557564 0.249926
0.278237 0.560352 0.250186
0.294770 0.563172 0.250436
0.313462 0.566359 0.250636
0.332691 0.569622 0.250848
0.353789 0.573307 0.250994
0.375271 0.577021 0.251131
0.398338 0.581232 0.251149
0.421803 0.585475 0.251133
0.446633 0.590295 0.250980
0.471941 0.595325 0.250791
0.498484 0.601102 0.250481
0.525796 0.607374 0.250157
0.554406 0.614642 0.249829
0.584220 0.622860 0.249583
0.615102 0.631941 0.249418
0.645316 0.640591 0.249331
0.675298 0.649041 0.249274
0.703817 0.657517 0.249277
0.730991 0.665466 0.249492
0.750947 0.670402 0.250814
0.767485 0.673747 0.252269
0.775863 0.672941 0.254279
0.781788 0.672346 0.255672
0.784321 0.671614 0.256396
0.786207 0.670840 0.257041
0.788098 0.670091 0.257719
0.789993 0.669272 0.258380
0.213688 0.560972 0.250473
0.217380 0.561881 0.250647
0.226743 0.563647 0.250899
0.236336 0.565444 0.251170
0.249312 0.567638 0.251461
0.262691 0.569899 0.251765
0.278755 0.572541 0.252062
0.295318 0.575238 0.252367
0.314009 0.578282 0.252619
0.333190 0.581416 0.252884
0.354274 0.584967 0.253106
0.375695 0.588551 0.253327
0.398819 0.592643 0.253447
0.422187 0.596791 0.253553
0.446998 0.601591 0.253576
0.472212 0.606538 0.253571
0.498561 0.612166 0.253481
0.525493 0.618173 0.253372
0.553454 0.624962 0.253259
0.582196 0.632394 0.253208
0.611640 0.640438 0.253212
0.640565 0.648339 0.253299
0.669298 0.656154 0.253417
0.696399 0.663861 0.253653
0.722426 0.671175 0.254003
