public/luts/grid.cube
# framediff hero grade: per-segment fit for grid (AE chain composed)
# generated by gradefit.py
LUT_3D_SIZE 9
DOMAIN_MIN 0 0 0
DOMAIN_MAX 1 1 1
0.037577 0.057123 0.101410
0.122577 0.083702 0.122520
0.237405 0.114398 0.143499
0.352996 0.149644 0.165524
0.462833 0.185892 0.191637
0.563298 0.215709 0.215043
0.648940 0.236471 0.232314
0.707946 0.248370 0.242795
0.727627 0.251883 0.246394
0.095118 0.124395 0.142528
0.152182 0.136523 0.127867
0.253627 0.154955 0.126935
0.371714 0.172785 0.150699
0.477881 0.212014 0.186657
0.577126 0.243148 0.214472
0.660080 0.263145 0.233294
0.714367 0.273637 0.243966
0.729962 0.275861 0.247244
0.149493 0.217749 0.173468
0.180259 0.225869 0.161138
0.272533 0.237642 0.140429
0.393460 0.246193 0.134742
0.507915 0.274375 0.170812
0.597843 0.300863 0.206849
0.676285 0.319834 0.230256
0.724947 0.329376 0.242657
0.738187 0.330975 0.246208
0.180989 0.308443 0.199204
0.213013 0.320197 0.191720
0.280622 0.344632 0.172828
0.399560 0.360714 0.174675
0.532029 0.370238 0.174395
0.626814 0.381285 0.196518
0.700547 0.397103 0.224542
0.742043 0.404528 0.239566
0.753839 0.405625 0.243976
0.199136 0.392871 0.220593
0.232626 0.402342 0.218354
0.294278 0.414112 0.211149
0.371233 0.422422 0.199943
0.505187 0.459880 0.201470
0.651918 0.486711 0.196112
0.733192 0.493085 0.219465
0.765753 0.493440 0.237630
0.775035 0.492845 0.242929
0.208335 0.468867 0.236097
0.243052 0.477226 0.236096
0.306883 0.488912 0.234478
0.389236 0.501869 0.230299
0.480044 0.515636 0.222293
0.634259 0.572748 0.217494
0.767519 0.599678 0.216837
0.785874 0.586498 0.240396
0.791340 0.582092 0.246372
0.212641 0.534105 0.246716
0.248125 0.541442 0.247560
0.312683 0.552610 0.248165
0.397348 0.567247 0.247990
0.497319 0.587297 0.246394
0.619334 0.622519 0.244353
0.742274 0.659103 0.243131
0.785441 0.659777 0.252144
0.792219 0.655545 0.255695
0.214259 0.582509 0.253245
0.249966 0.588330 0.254305
0.314664 0.598076 0.255757
0.399314 0.611556 0.257132
0.498244 0.629810 0.258090
0.606461 0.654161 0.258836
0.710131 0.680598 0.260456
0.767778 0.693120 0.263593
0.779896 0.693968 0.264821
0.214745 0.604405 0.256249
0.250558 0.608633 0.257308
0.315364 0.616820 0.258918
0.399675 0.628798 0.260641
0.497395 0.645198 0.262222
0.601949 0.666374 0.263733
0.700437 0.689250 0.265764
0.759667 0.702535 0.268053
0.773288 0.704844 0.268619
0.057097 0.072163 0.164375
0.123939 0.091704 0.168662
0.231664 0.109874 0.181569
0.342995 0.137325 0.197866
0.453156 0.177302 0.222638
0.554725 0.209996 0.245458
0.641275 0.231515 0.261948
0.701489 0.243720 0.272149
0.721879 0.247369 0.275704
0.088918 0.121312 0.185215
0.133330 0.128393 0.181285
0.228080 0.138813 0.180889
0.364727 0.139732 0.173733
0.463878 0.193768 0.216063
0.567151 0.235455 0.245991
0.651632 0.257684 0.264560
0.707693 0.269084 0.275466
0.724137 0.271508 0.278882
0.143777 0.212276 0.211589
0.168983 0.214388 0.203921
0.250853 0.225867 0.201131
0.368583 0.235293 0.195759
0.484163 0.242356 0.207887
0.585287 0.286517 0.235620
0.667872 0.311921 0.262005
0.719712 0.324020 0.276391
0.733444 0.326051 0.280435
0.176633 0.302029 0.233826
0.205604 0.309078 0.229326
0.253403 0.313825 0.215142
0.367880 0.344162 0.209048
0.513524 0.358707 0.205724
0.628032 0.361656 0.212299
0.698786 0.386767 0.251178
0.741691 0.398695 0.273508
0.753743 0.400636 0.279458
0.195129 0.386474 0.253624
0.227830 0.394765 0.253388
0.287108 0.405890 0.248373
0.371833 0.422166 0.237249
0.492621 0.459348 0.234014
0.645474 0.473622 0.235955
0.758318 0.483308 0.241668
0.780663 0.490322 0.269941
0.785667 0.490011 0.278328
0.204507 0.462869 0.268606
0.239362 0.471109 0.270450
0.302363 0.483100 0.270741
0.384869 0.497829 0.268112
0.481390 0.517700 0.261492
0.593219 0.555574 0.258178
0.766440 0.597168 0.259814
0.805840 0.587746 0.276403
0.808213 0.583744 0.283267
0.208683 0.528248 0.278927
0.244301 0.535513 0.281272
0.308224 0.546907 0.283414
0.392214 0.562217 0.284839
0.491450 0.583110 0.284241
0.612244 0.620712 0.280756
0.752034 0.671359 0.279088
0.814889 0.683299 0.288824
0.811872 0.668808 0.294002
0.210139 0.577016 0.285283
0.245955 0.582840 0.287702
0.310061 0.592684 0.290372
0.393867 0.606324 0.293049
0.492042 0.624729 0.295141
0.600659 0.650140 0.296295
0.715358 0.685612 0.297763
0.794051 0.714843 0.301555
0.797865 0.708253 0.303505
0.210539 0.599441 0.288370
0.246478 0.603830 0.290751
0.310736 0.612047 0.293501
0.394313 0.624000 0.296429
0.491454 0.640360 0.299176
0.596677 0.662327 0.301496
0.701445 0.690119 0.304001
0.770011 0.710399 0.306890
0.783537 0.712547 0.307671
0.109445 0.114392 0.237226
0.146055 0.120798 0.241030
0.232584 0.131839 0.247199
0.335459 0.147046 0.257344
0.440918 0.175808 0.274914
0.541859 0.205267 0.293966
0.629155 0.225304 0.308837
0.691205 0.237123 0.318713
0.712924 0.240782 0.322599
0.112340 0.140624 0.245787
0.124730 0.139888 0.253377
0.226683 0.154530 0.248514
0.344153 0.149425 0.252208
0.448894 0.190187 0.274174
0.552054 0.229506 0.297406
0.638528 0.250634 0.313746
0.697546 0.262286 0.324127
0.715382 0.264902 0.327787
0.147834 0.214894 0.267219
0.167590 0.211699 0.269531
0.248312 0.227497 0.270298
0.349733 0.234896 0.269082
0.461256 0.244955 0.269965
0.565271 0.273802 0.290814
0.649846 0.300486 0.313288
0.711532 0.316504 0.327867
0.726676 0.319087 0.331810
0.175041 0.297880 0.285902
0.204755 0.303284 0.288319
0.266274 0.315967 0.293101
0.365779 0.326183 0.289676
0.467817 0.331844 0.286261
0.585958 0.341044 0.279769
0.672863 0.368103 0.307188
0.737731 0.389556 0.330131
0.752821 0.392728 0.335682
0.191361 0.379151 0.302400
0.224559 0.386811 0.305217
0.285324 0.399116 0.307418
0.368722 0.414270 0.305520
0.460734 0.429891 0.298464
0.588296 0.441122 0.301715
0.732015 0.467186 0.311743
0.790884 0.484952 0.329595
0.796716 0.484624 0.337923
0.199901 0.454518 0.315632
0.235105 0.462759 0.319171
0.297301 0.474862 0.322363
0.378438 0.490276 0.323878
0.471584 0.509682 0.321567
0.586904 0.541549 0.319314
0.760861 0.584060 0.335086
0.834754 0.586896 0.335224
0.823406 0.579834 0.342791
0.203514 0.519824 0.325278
0.239356 0.527221 0.328803
0.302743 0.538973 0.332949
0.385432 0.554751 0.337115
0.481648 0.574445 0.339549
0.586815 0.598547 0.338238
0.703069 0.632533 0.337786
0.807977 0.670959 0.351545
0.814408 0.665010 0.355053
0.204545 0.569119 0.331447
0.240483 0.575112 0.334710
0.303888 0.585200 0.338771
0.386418 0.599012 0.343394
0.482701 0.616825 0.347794
0.587666 0.639516 0.350922
0.700505 0.673093 0.353990
0.813663 0.729686 0.362262
0.808066 0.714601 0.362798
0.204700 0.592355 0.334697
0.240747 0.597046 0.337834
0.304371 0.605588 0.341779
0.386847 0.617577 0.346387
0.482398 0.633365 0.351067
0.586026 0.654064 0.355359
0.692723 0.682788 0.359670
0.773343 0.711571 0.364411
0.787390 0.713917 0.365302
0.145245 0.142970 0.311609
0.173908 0.146259 0.314724
0.240330 0.153957 0.318664
0.329784 0.165126 0.325546
0.428889 0.182855 0.337436
0.527571 0.203515 0.351916
0.615407 0.219931 0.364585
0.679266 0.230407 0.373792
0.702495 0.233831 0.377895
0.146846 0.167939 0.317957
0.170064 0.168789 0.322770
0.239863 0.178533 0.323989
0.332373 0.187091 0.328176
0.434779 0.204628 0.340704
0.536359 0.228225 0.357745
0.624279 0.245185 0.371629
0.685941 0.255572 0.381080
0.705422 0.258109 0.384879
0.159610 0.224310 0.329467
0.179683 0.224028 0.333173
0.238421 0.234986 0.333515
0.327668 0.240506 0.331606
0.437272 0.254241 0.343559
0.546254 0.275783 0.361961
0.638491 0.296395 0.378972
0.703042 0.309654 0.389973
0.719524 0.312000 0.393312
0.175830 0.297007 0.343220
0.201341 0.301872 0.347914
0.259104 0.315363 0.360630
0.348750 0.326862 0.364121
0.458753 0.335734 0.365770
0.577152 0.352234 0.380574
0.687311 0.368135 0.398429
0.744322 0.381927 0.404621
0.756639 0.384053 0.405029
0.188185 0.373237 0.356909
0.221103 0.380944 0.362153
0.284882 0.396632 0.372696
0.368525 0.409337 0.383282
0.474929 0.428191 0.386942
0.580191 0.441747 0.389590
0.687395 0.450128 0.388295
0.801123 0.471348 0.410848
0.806169 0.471727 0.413682
0.195123 0.446271 0.368747
0.230644 0.454244 0.373780
0.293668 0.467021 0.381055
0.374210 0.483130 0.389210
0.465235 0.500344 0.392701
0.570035 0.521116 0.392196
0.688975 0.544413 0.408058
0.795387 0.562257 0.418746
0.801499 0.563381 0.421281
0.197867 0.510588 0.377699
0.234138 0.518199 0.382422
0.297419 0.530215 0.389052
0.378272 0.546015 0.396552
0.470344 0.564201 0.402774
0.563792 0.579037 0.403263
0.657928 0.595206 0.401760
0.779873 0.644776 0.424650
0.793507 0.644199 0.428733
0.198408 0.560036 0.383724
0.234642 0.566521 0.387961
0.297684 0.576947 0.393752
0.379117 0.591211 0.401032
0.473024 0.608666 0.408884
0.572683 0.627878 0.415049
0.676391 0.653459 0.420183
0.793233 0.707956 0.431905
0.789697 0.696255 0.432620
0.198343 0.584428 0.387215
0.234606 0.589505 0.391218
0.297779 0.598501 0.396606
0.379191 0.610890 0.403387
0.473016 0.626394 0.411086
0.573687 0.644987 0.418590
0.676129 0.669460 0.425705
0.759390 0.698322 0.432487
0.773345 0.700295 0.433595
0.164631 0.158478 0.380139
0.189953 0.161066 0.382914
0.247081 0.166979 0.386781
0.326484 0.175906 0.392752
0.418321 0.188211 0.401730
0.513358 0.202393 0.412720
0.600995 0.215142 0.423388
0.666234 0.223935 0.431629
0.691152 0.227014 0.435827
0.166020 0.182397 0.384383
0.192028 0.185449 0.387847
0.250074 0.191847 0.391891
0.330164 0.200440 0.397338
0.423348 0.212305 0.406636
0.520874 0.226991 0.419052
0.609284 0.240214 0.430792
0.672757 0.248881 0.439399
0.694081 0.251329 0.443509
0.170555 0.231771 0.391500
0.195903 0.235439 0.394861
0.251932 0.242550 0.399564
0.331785 0.251543 0.404323
0.425781 0.261807 0.412332
0.530366 0.278088 0.427103
0.624534 0.293789 0.441105
0.689829 0.303134 0.450402
0.708447 0.305281 0.454163
0.178080 0.296757 0.401637
0.204577 0.301410 0.405447
0.249667 0.303025 0.410936
0.340557 0.324054 0.420582
0.427719 0.329565 0.423091
0.550511 0.350403 0.443816
0.654074 0.366443 0.456390
0.733462 0.374987 0.467027
0.749082 0.376360 0.469036
0.185504 0.367978 0.412613
0.217565 0.375128 0.417700
0.280296 0.389800 0.428174
0.364978 0.410097 0.442057
0.460632 0.423959 0.456066
0.563790 0.438231 0.467993
0.678283 0.452556 0.472254
0.800256 0.455148 0.484898
0.804746 0.458437 0.484876
0.190195 0.438400 0.422970
0.225152 0.446160 0.428479
0.288997 0.459683 0.438353
0.374857 0.482256 0.457649
0.468546 0.501011 0.475377
0.579252 0.527339 0.482977
0.664282 0.530602 0.476637
0.764031 0.545073 0.488852
0.786183 0.551490 0.500455
0.192029 0.501604 0.431381
0.228096 0.509043 0.436742
0.291856 0.521545 0.445522
0.374247 0.539440 0.458589
0.467163 0.560784 0.473378
0.558293 0.575606 0.479592
0.623557 0.572139 0.468467
0.762012 0.616677 0.496791
0.779522 0.619322 0.504068
0.192254 0.550779 0.437280
0.228456 0.557474 0.442255
0.291636 0.568616 0.449808
0.373000 0.583912 0.460261
0.465013 0.602418 0.472088
0.559766 0.620438 0.481595
0.649839 0.635496 0.486839
0.747526 0.672179 0.503172
0.757995 0.669375 0.505624
0.192236 0.576014 0.441019
0.228317 0.581516 0.445714
0.291447 0.591314 0.452697
0.372417 0.604718 0.461957
0.465318 0.621225 0.473378
0.563783 0.639510 0.485385
0.659856 0.659011 0.495949
0.732775 0.677923 0.504126
0.748103 0.679855 0.506262
0.172426 0.164888 0.442633
0.195695 0.167093 0.445459
0.248751 0.172067 0.449627
0.322785 0.179502 0.455144
0.409413 0.189164 0.462586
0.500449 0.199927 0.471375
0.586187 0.210046 0.480149
0.652600 0.217559 0.487480
0.679355 0.220396 0.491573
0.173343 0.187332 0.446033
0.198131 0.190424 0.449413
0.252530 0.196087 0.454061
0.327263 0.203826 0.459811
0.414584 0.213426 0.467557
0.506842 0.224213 0.477081
0.593385 0.234398 0.486618
0.658033 0.241791 0.494390
0.681489 0.244267 0.498599
0.175341 0.233819 0.451086
0.200953 0.237942 0.454629
0.256035 0.244745 0.460031
0.331383 0.253566 0.466554
0.419391 0.263545 0.474545
0.514296 0.275194 0.485107
0.604246 0.286905 0.495818
0.670326 0.295290 0.504429
0.691548 0.298052 0.508912
0.178956 0.295036 0.458413
0.206787 0.300377 0.462160
0.262512 0.309066 0.468655
0.339407 0.320925 0.477323
0.428510 0.332614 0.487659
0.526760 0.345029 0.499554
0.621369 0.357507 0.509253
0.693864 0.367586 0.519210
0.713896 0.371008 0.524143
0.182806 0.363055 0.467055
0.214024 0.369737 0.471545
0.274074 0.381520 0.479766
0.354989 0.399136 0.492990
0.457291 0.423784 0.520029
0.542513 0.429221 0.527003
0.639544 0.440581 0.527904
0.725958 0.453052 0.539040
0.746864 0.459446 0.546641
0.185379 0.430985 0.475386
0.218892 0.438215 0.480460
0.281246 0.451001 0.490012
0.367408 0.473638 0.510145
0.464582 0.504970 0.539007
0.583059 0.532389 0.560770
0.658785 0.539641 0.554512
0.766779 0.546281 0.567309
0.806773 0.559061 0.584097
0.186448 0.493042 0.482766
0.221300 0.500240 0.488031
0.284325 0.512577 0.497251
0.368646 0.532555 0.513623
0.474750 0.569465 0.546468
0.588805 0.604256 0.580981
0.663967 0.606048 0.569774
0.714776 0.589567 0.553577
0.780576 0.609784 0.574443
0.186473 0.541962 0.488288
0.221773 0.548617 0.493399
0.284618 0.559967 0.501742
0.366696 0.576656 0.514608
0.461654 0.599224 0.532834
0.559567 0.623325 0.551755
0.649195 0.641576 0.561156
0.726275 0.662653 0.569775
0.736559 0.650544 0.567091
0.186706 0.567859 0.492042
0.221838 0.573520 0.497042
0.284768 0.583762 0.505010
0.366098 0.598420 0.516478
0.459469 0.617451 0.531806
0.556863 0.638495 0.548293
0.649609 0.658303 0.561896
0.714850 0.668306 0.568468
0.732335 0.669366 0.571676
0.174049 0.166209 0.497308
0.195767 0.168156 0.500035
0.246668 0.172578 0.504266
0.317889 0.179005 0.509618
0.401415 0.187117 0.516089
0.489376 0.196125 0.523390
0.572871 0.204718 0.530682
0.639691 0.211448 0.536942
0.668252 0.214202 0.540612
0.174552 0.187222 0.500154
0.198028 0.190184 0.503492
0.250570 0.195486 0.508107
0.322808 0.202609 0.513800
0.406846 0.211047 0.520558
0.495224 0.220042 0.528207
0.579072 0.228586 0.535901
0.644002 0.235039 0.542414
0.669554 0.237447 0.546242
0.175632 0.232140 0.504105
0.200240 0.236241 0.507664
0.254094 0.242745 0.512906
0.327174 0.251060 0.519464
0.411866 0.260401 0.526963
0.501284 0.270244 0.535208
0.586465 0.279517 0.543320
0.651910 0.286864 0.550417
0.675772 0.289992 0.554782
0.177584 0.291600 0.509626
0.204409 0.296865 0.513266
0.259235 0.304938 0.519261
0.333681 0.315347 0.527555
0.420160 0.326974 0.537620
0.510697 0.337929 0.546800
0.597223 0.347748 0.554373
0.665457 0.356540 0.562192
0.688530 0.360974 0.567441
0.179622 0.357839 0.516121
0.209298 0.364162 0.520194
0.266773 0.374149 0.527165
0.343622 0.388044 0.538041
0.434086 0.405029 0.553991
0.526629 0.418705 0.566189
0.611532 0.428015 0.570632
0.684186 0.437331 0.578360
0.708592 0.444832 0.586079
0.180996 0.424454 0.522717
0.212882 0.431334 0.527295
0.272856 0.442582 0.535332
0.353066 0.459603 0.548699
0.447310 0.482903 0.568017
0.545538 0.505030 0.586416
0.634217 0.521996 0.597549
0.707354 0.524098 0.600202
0.739544 0.533860 0.610930
0.181427 0.485348 0.528483
0.214530 0.492224 0.533286
0.275644 0.503611 0.541600
0.357220 0.521161 0.555500
0.457738 0.550318 0.580542
0.579489 0.598633 0.625606
0.662620 0.606791 0.631115
0.714508 0.607273 0.621879
0.762351 0.613295 0.631621
0.181306 0.534044 0.533156
0.215102 0.540547 0.537951
0.276717 0.551564 0.546090
0.357930 0.567848 0.558844
0.454028 0.591763 0.579007
0.562512 0.627380 0.611317
0.663749 0.660436 0.642634
0.718623 0.652896 0.623667
0.741747 0.657624 0.626578
0.181623 0.560488 0.536454
0.215504 0.566207 0.541310
0.277571 0.576533 0.549345
0.358571 0.591515 0.561348
0.452426 0.611817 0.578443
0.551778 0.636766 0.599992
0.644654 0.660239 0.619128
0.722635 0.680630 0.632365
0.737677 0.676481 0.629440
0.173225 0.165324 0.540056
0.193769 0.167120 0.542468
0.243250 0.171230 0.546462
0.313023 0.177142 0.551559
0.394783 0.184312 0.557456
0.480836 0.192273 0.563610
0.562707 0.200029 0.569646
0.628955 0.206315 0.574748
0.659590 0.209184 0.577667
0.173555 0.185179 0.542341
0.195884 0.188009 0.545253
0.247151 0.193067 0.549694
0.318086 0.199833 0.554978
0.400393 0.207655 0.560950
0.486574 0.215854 0.567300
0.568262 0.223569 0.573473
0.633125 0.229576 0.578650
0.660529 0.232002 0.581535
0.174301 0.229176 0.545565
0.197661 0.233143 0.548792
0.250383 0.239415 0.553563
0.322274 0.247354 0.559562
0.405226 0.256244 0.566299
0.491805 0.265236 0.573105
0.574017 0.273605 0.579562
0.638585 0.280167 0.584979
0.664635 0.283120 0.588133
0.175434 0.287732 0.549901
0.200861 0.292792 0.553230
0.254473 0.300368 0.558580
0.327422 0.309918 0.565794
0.411456 0.320456 0.574045
0.498711 0.330663 0.581843
0.581502 0.339867 0.588573
0.647153 0.347391 0.594378
0.672910 0.351451 0.598035
0.176603 0.353227 0.554799
0.204561 0.359213 0.558361
0.260158 0.368232 0.564506
0.334321 0.379795 0.573218
0.419798 0.393123 0.583932
0.508663 0.405990 0.594058
0.591697 0.416258 0.601352
0.659073 0.424504 0.607524
0.685927 0.430408 0.612239
0.177390 0.419231 0.559671
0.207588 0.425788 0.563667
0.265465 0.435899 0.570615
0.341883 0.449561 0.580826
0.429877 0.466648 0.594307
0.521408 0.484567 0.608631
0.605822 0.498409 0.619054
0.674043 0.506306 0.625338
0.703685 0.513077 0.630883
0.177595 0.479680 0.563975
0.209187 0.486303 0.568236
0.268619 0.496842 0.575716
0.347068 0.511750 0.587072
0.438855 0.532332 0.603702
0.537345 0.558404 0.625446
0.624387 0.578394 0.641565
0.691367 0.589472 0.650921
0.722497 0.592655 0.652833
0.177404 0.527931 0.567266
0.209654 0.534249 0.571635
0.269700 0.544692 0.579213
0.348855 0.559619 0.590733
0.441393 0.580383 0.607820
0.544647 0.610523 0.634117
0.656806 0.654903 0.675002
0.720918 0.662049 0.686523
0.739923 0.659911 0.672942
0.177791 0.554775 0.569651
0.210280 0.560445 0.574064
0.271120 0.570582 0.581776
0.350862 0.585128 0.593251
0.443127 0.604692 0.609469
0.542098 0.629537 0.631125
0.638402 0.656319 0.655557
0.718787 0.680658 0.678733
0.743479 0.683505 0.677365
0.172404 0.164475 0.562430
0.192255 0.166191 0.564131
0.240996 0.170171 0.567579
0.310256 0.175910 0.572193
0.391348 0.182791 0.577531
0.476538 0.190293 0.583162
0.557579 0.197606 0.588428
0.623493 0.203717 0.592493
0.655629 0.206779 0.594520
0.172691 0.183611 0.563712
0.194314 0.186383 0.565655
0.244960 0.191352 0.569356
0.315455 0.198005 0.574249
0.397218 0.205634 0.579822
0.482531 0.213558 0.585582
0.563261 0.220996 0.590746
0.628105 0.226930 0.594744
0.656769 0.229484 0.596546
0.173348 0.227161 0.566326
0.195902 0.231115 0.568502
0.248135 0.237330 0.572670
0.319571 0.245120 0.578142
0.401997 0.253833 0.584352
0.487667 0.262601 0.590538
0.568602 0.270707 0.595889
0.632909 0.277081 0.599953
0.660366 0.279951 0.601730
0.174168 0.285470 0.569841
0.198665 0.290471 0.572358
0.251754 0.297881 0.577123
0.324188 0.307079 0.583571
0.407543 0.317293 0.590977
0.493859 0.327263 0.598105
0.575258 0.336193 0.604024
0.639993 0.343364 0.608380
0.667323 0.347038 0.610305
0.175012 0.350762 0.573850
0.201877 0.356629 0.576780
0.256680 0.365306 0.582315
0.330056 0.376174 0.590028
0.414314 0.388463 0.599233
0.501807 0.400608 0.608328
0.583795 0.410889 0.615516
0.649613 0.418863 0.620555
0.678060 0.423787 0.622931
0.175601 0.416651 0.577874
0.204675 0.423050 0.581232
0.261486 0.432717 0.587556
0.336614 0.445324 0.596647
0.422320 0.460231 0.608069
0.511570 0.476024 0.620352
0.595170 0.489416 0.630651
0.661848 0.498380 0.637151
0.692167 0.504106 0.640068
0.175775 0.476947 0.581388
0.206376 0.483455 0.585055
0.264806 0.493630 0.591976
0.341798 0.507433 0.602249
0.430107 0.524980 0.616072
0.523073 0.545665 0.632819
0.610102 0.564986 0.648671
0.678235 0.577883 0.659371
0.708284 0.582067 0.661543
0.175687 0.525077 0.583682
0.207080 0.531361 0.587591
0.266343 0.541582 0.594784
0.344490 0.555847 0.605639
0.434672 0.574621 0.620832
0.531662 0.598619 0.641173
0.627178 0.625879 0.665485
0.704729 0.649824 0.688771
0.725093 0.648993 0.684518
0.176104 0.552067 0.584755
0.207753 0.557714 0.588705
0.267656 0.567673 0.596174
0.346486 0.581831 0.607236
0.437275 0.600499 0.622495
0.534100 0.623637 0.642423
0.629024 0.649043 0.665830
0.708038 0.672275 0.690666
0.784284 0.725834 0.741802
