public/luts/hf_talk.cube
# framediff hero grade: per-segment fit for hf_talk (AE chain composed)
# generated by gradefit.py
LUT_3D_SIZE 5
DOMAIN_MIN 0 0 0
DOMAIN_MAX 1 1 1
0.042605 0.042943 0.089312
0.295380 0.168142 0.178587
0.571597 0.260961 0.247210
0.782927 0.317734 0.288165
0.847551 0.338535 0.302851
0.199676 0.222387 0.183708
0.341873 0.259543 0.198178
0.599857 0.337929 0.250313
0.799611 0.393135 0.290111
0.849296 0.408376 0.301850
0.263072 0.398352 0.224886
0.391322 0.430065 0.237405
0.619651 0.481345 0.261748
0.810486 0.525037 0.286940
0.852563 0.536996 0.295680
0.278531 0.535476 0.232858
0.405847 0.563592 0.243764
0.621172 0.607063 0.262880
0.810249 0.646570 0.281052
0.853661 0.658541 0.287481
0.281364 0.602920 0.233428
0.408002 0.624490 0.243588
0.619149 0.661475 0.261863
0.807339 0.697962 0.279303
0.853605 0.710777 0.284657
0.168274 0.149691 0.255965
0.301670 0.194021 0.284825
0.551555 0.263377 0.338025
0.768697 0.317051 0.379634
0.842161 0.338172 0.395924
0.212725 0.244593 0.287767
0.317182 0.260050 0.293489
0.572267 0.327030 0.329224
0.788436 0.394057 0.389374
0.845369 0.410258 0.403170
0.254300 0.397607 0.320570
0.373730 0.422867 0.334350
0.595864 0.467364 0.353301
0.809461 0.526855 0.392426
0.854463 0.540976 0.404062
0.265727 0.532162 0.329935
0.391453 0.560060 0.344925
0.606665 0.605480 0.368327
0.808506 0.650015 0.390208
0.856977 0.662862 0.397941
0.267430 0.601771 0.331411
0.393456 0.624250 0.345340
0.604557 0.661856 0.367411
0.802254 0.699975 0.389098
0.855354 0.713396 0.395356
0.220558 0.208381 0.438497
0.319468 0.229576 0.452636
0.528044 0.272509 0.481859
0.744545 0.317057 0.515396
0.832248 0.338099 0.533307
0.229751 0.276951 0.444006
0.334130 0.300164 0.457455
0.541861 0.342618 0.482996
0.763838 0.392145 0.525099
0.837880 0.411300 0.543645
0.243148 0.402243 0.454936
0.360535 0.427697 0.469328
0.574221 0.473036 0.502791
0.812600 0.526300 0.530231
0.862388 0.549390 0.553541
0.248763 0.528748 0.462102
0.373376 0.555474 0.478389
0.582798 0.598499 0.504766
0.810779 0.649539 0.533982
0.879384 0.676226 0.556517
0.249608 0.600255 0.465000
0.375458 0.624316 0.480904
0.586206 0.664124 0.507213
0.800188 0.707863 0.539793
0.867786 0.723972 0.552677
0.221983 0.223994 0.588586
0.312015 0.241823 0.600692
0.506880 0.277419 0.622006
0.717488 0.316299 0.647072
0.820724 0.337690 0.663312
0.225100 0.288209 0.588127
0.323300 0.309550 0.601433
0.520419 0.346575 0.623297
0.731727 0.386529 0.650309
0.826281 0.408025 0.668394
0.230524 0.406336 0.586498
0.339473 0.431123 0.599214
0.540951 0.474191 0.623778
0.757700 0.519319 0.653530
0.852195 0.545937 0.676692
0.233398 0.526702 0.585626
0.351501 0.552282 0.599631
0.563187 0.597274 0.627497
0.824969 0.679513 0.698697
0.910278 0.690386 0.697898
0.234777 0.598521 0.586380
0.356704 0.623019 0.601628
0.568122 0.665474 0.629587
0.786600 0.716357 0.668321
0.881012 0.738202 0.682501
0.217330 0.227135 0.672461
0.302692 0.244272 0.681830
0.494143 0.278276 0.700040
0.702073 0.315388 0.720092
0.814199 0.337121 0.731649
0.219467 0.290415 0.668390
0.313438 0.311130 0.678596
0.508672 0.346849 0.697628
0.715623 0.384134 0.717899
0.819586 0.404617 0.728888
0.223041 0.407456 0.661053
0.326296 0.431531 0.672123
0.524219 0.470561 0.693373
0.733508 0.511621 0.717402
0.838971 0.534799 0.729516
0.225594 0.526315 0.653866
0.338619 0.551636 0.666188
0.542764 0.593701 0.690701
0.763811 0.647659 0.727597
0.872174 0.671346 0.741646
0.227176 0.597299 0.648528
0.344237 0.621569 0.661961
0.552126 0.663427 0.687696
0.771583 0.713955 0.723627
0.873709 0.737184 0.738387
