public/luts/hf_talk.cube
# framediff hero grade: per-segment fit for hf_talk (AE chain composed)
# generated by gradefit.py
LUT_3D_SIZE 9
DOMAIN_MIN 0 0 0
DOMAIN_MAX 1 1 1
0.042605 0.042943 0.089312
0.140258 0.092794 0.123361
0.295380 0.168142 0.178587
0.437564 0.220047 0.216695
0.571597 0.260961 0.247210
0.690204 0.293151 0.270886
0.782927 0.317734 0.288165
0.833986 0.333446 0.298939
0.847551 0.338535 0.302851
0.116694 0.115069 0.137460
0.182191 0.142449 0.148351
0.311675 0.193705 0.178469
0.452312 0.244574 0.215881
0.585856 0.286932 0.249006
0.702477 0.319163 0.273269
0.791510 0.342748 0.290153
0.837370 0.356704 0.300072
0.848034 0.360230 0.303386
0.199676 0.222387 0.183708
0.244719 0.235341 0.187351
0.341873 0.259543 0.198178
0.470021 0.297004 0.220919
0.599857 0.337929 0.250313
0.714145 0.370361 0.274120
0.799611 0.393135 0.290111
0.840206 0.405632 0.298956
0.849296 0.408376 0.301850
0.241172 0.314602 0.210572
0.284711 0.326620 0.214957
0.370963 0.346554 0.223441
0.487205 0.374268 0.237014
0.611904 0.406841 0.256279
0.723845 0.435723 0.275109
0.806685 0.456799 0.289030
0.842440 0.467624 0.296502
0.850999 0.470090 0.299157
0.263072 0.398352 0.224886
0.307663 0.410761 0.229388
0.391322 0.430065 0.237405
0.500351 0.454477 0.248319
0.619651 0.481345 0.261748
0.729405 0.505859 0.275459
0.810486 0.525037 0.286940
0.844331 0.534712 0.293275
0.852563 0.536996 0.295680
0.273593 0.472538 0.230895
0.318904 0.484503 0.235159
0.401681 0.503224 0.242808
0.507194 0.525860 0.252669
0.621867 0.549795 0.263543
0.730162 0.572334 0.274539
0.811434 0.590523 0.284055
0.845453 0.599809 0.289489
0.853457 0.601953 0.291561
0.278531 0.535476 0.232858
0.324194 0.546380 0.236755
0.405847 0.563592 0.243764
0.509109 0.584546 0.252895
0.621172 0.607063 0.262880
0.728089 0.628704 0.272696
0.810249 0.646570 0.281052
0.845807 0.656237 0.285836
0.853661 0.658541 0.287481
0.280593 0.581895 0.233079
0.326270 0.591219 0.236698
0.407263 0.606616 0.243326
0.509198 0.625684 0.252035
0.619820 0.646524 0.261727
0.725519 0.666970 0.271142
0.808512 0.684525 0.279132
0.845801 0.694642 0.283609
0.853590 0.697184 0.284789
0.281364 0.602920 0.233428
0.327105 0.610688 0.237037
0.408002 0.624490 0.243588
0.509326 0.642014 0.252189
0.619149 0.661475 0.261863
0.724163 0.680921 0.271340
0.807339 0.697962 0.279303
0.845794 0.708202 0.283795
0.853605 0.710777 0.284657
0.091333 0.080827 0.151258
0.162177 0.117269 0.174684
0.291836 0.173328 0.214328
0.429504 0.221077 0.250518
0.563076 0.260915 0.282104
0.682897 0.292934 0.306502
0.777663 0.317365 0.323981
0.831254 0.333141 0.334927
0.845620 0.338336 0.338900
0.128730 0.127181 0.178161
0.163129 0.134227 0.177845
0.287750 0.180897 0.188805
0.438306 0.237981 0.240997
0.575471 0.284709 0.282708
0.694884 0.319068 0.310430
0.786216 0.342902 0.328221
0.834665 0.357095 0.338633
0.846112 0.360706 0.342113
0.199671 0.226162 0.222082
0.236352 0.231436 0.218860
0.317760 0.242951 0.224615
0.450853 0.269172 0.230068
0.588316 0.328970 0.277687
0.706834 0.369235 0.312249
0.795389 0.393668 0.330784
0.838371 0.406535 0.340369
0.847750 0.409283 0.343523
0.238680 0.315243 0.248860
0.279789 0.324702 0.253090
0.359474 0.339991 0.259965
0.473728 0.363072 0.268508
0.600864 0.398139 0.288780
0.717835 0.433775 0.314515
0.804152 0.457806 0.331670
0.841498 0.468945 0.339842
0.850303 0.471457 0.342804
0.258874 0.397353 0.263536
0.302512 0.408667 0.269076
0.382518 0.426026 0.276893
0.488973 0.448920 0.287059
0.610297 0.476736 0.300614
0.725486 0.505223 0.317493
0.809604 0.526447 0.331059
0.844365 0.536246 0.337908
0.852821 0.538537 0.340639
0.268655 0.471251 0.270286
0.313948 0.483061 0.276139
0.395231 0.501334 0.284670
0.499733 0.523940 0.295267
0.615739 0.548963 0.306966
0.727122 0.573174 0.318915
0.810694 0.591964 0.328853
0.845911 0.601386 0.334661
0.854197 0.603593 0.337175
0.273084 0.534144 0.272653
0.318871 0.545043 0.278116
0.399745 0.562246 0.286234
0.502697 0.583614 0.296448
0.615516 0.606891 0.307468
0.724003 0.629316 0.317734
0.808812 0.647773 0.326204
0.846106 0.657689 0.331136
0.854271 0.660058 0.333165
0.274864 0.580886 0.272977
0.320739 0.590354 0.278161
0.401160 0.605805 0.285840
0.502664 0.625053 0.295515
0.613728 0.646275 0.306205
0.720784 0.667233 0.316337
0.806314 0.685246 0.324565
0.845825 0.695640 0.329088
0.853883 0.698225 0.330440
0.275527 0.602435 0.273462
0.321520 0.610523 0.278616
0.401928 0.624362 0.286218
0.502907 0.641926 0.295744
0.613092 0.661535 0.306391
0.719317 0.681213 0.316730
0.804897 0.698500 0.325153
0.845736 0.708927 0.329760
0.853789 0.711484 0.330661
0.168274 0.149691 0.255965
0.209533 0.164017 0.264894
0.301670 0.194021 0.284825
0.423288 0.229139 0.310685
0.551555 0.263377 0.338025
0.671504 0.293391 0.361861
0.768697 0.317051 0.379634
0.826245 0.332788 0.391269
0.842161 0.338172 0.395924
0.180752 0.178951 0.264858
0.211298 0.186848 0.265994
0.297098 0.213123 0.279718
0.429135 0.248652 0.306230
0.562185 0.286541 0.339410
0.683022 0.319207 0.367156
0.777705 0.342905 0.385802
0.830088 0.357208 0.396824
0.842826 0.361013 0.400863
0.212725 0.244593 0.287767
0.246818 0.248592 0.289315
0.317182 0.260050 0.293489
0.439329 0.289765 0.294099
0.572267 0.327030 0.329224
0.694840 0.367202 0.367123
0.788436 0.394057 0.389374
0.835442 0.407433 0.399809
0.845369 0.410258 0.403170
0.239031 0.321101 0.308100
0.279570 0.329229 0.313845
0.353026 0.340050 0.323383
0.454420 0.356592 0.326336
0.588859 0.381916 0.335513
0.708024 0.427423 0.367396
0.800139 0.458159 0.391694
0.840643 0.470605 0.401400
0.849678 0.473073 0.404561
0.254300 0.397607 0.320570
0.297319 0.407696 0.326521
0.373730 0.422867 0.334350
0.474633 0.442453 0.343176
0.595864 0.467364 0.353301
0.718398 0.499092 0.372317
0.809461 0.526855 0.392426
0.846000 0.538697 0.401168
0.854463 0.540976 0.404062
0.262178 0.469563 0.327154
0.307229 0.480936 0.333604
0.385901 0.497799 0.342120
0.487054 0.518966 0.352459
0.602876 0.543593 0.364461
0.720321 0.570192 0.378097
0.811442 0.593424 0.391773
0.848703 0.604198 0.398939
0.857163 0.606446 0.401686
0.265727 0.532162 0.329935
0.311569 0.543039 0.336103
0.391453 0.560060 0.344925
0.493234 0.581488 0.355975
0.606665 0.605480 0.368327
0.718687 0.629682 0.380331
0.808506 0.650015 0.390208
0.848397 0.660401 0.395510
0.856977 0.662862 0.397941
0.267027 0.579410 0.330610
0.313037 0.589028 0.336404
0.392710 0.604536 0.344750
0.493510 0.624001 0.355304
0.605305 0.645908 0.367362
0.714970 0.667933 0.379234
0.804397 0.686861 0.388527
0.847231 0.697781 0.393445
0.855750 0.700466 0.395094
0.267430 0.601771 0.331411
0.313608 0.610181 0.337137
0.393456 0.624250 0.345340
0.493942 0.641959 0.355676
0.604557 0.661856 0.367411
0.712994 0.682096 0.379337
0.802254 0.699975 0.389098
0.846756 0.710793 0.394269
0.855354 0.713396 0.395356
0.205745 0.188058 0.351068
0.239282 0.196819 0.357176
0.314602 0.215366 0.368902
0.419891 0.240356 0.386271
0.539710 0.268019 0.407268
0.657684 0.294614 0.428140
0.757432 0.317027 0.445368
0.819645 0.332555 0.457494
0.837606 0.338123 0.462825
0.211853 0.213165 0.355500
0.245956 0.221890 0.361214
0.320074 0.239345 0.371170
0.425534 0.263214 0.387002
0.548306 0.291530 0.409608
0.668406 0.319906 0.433510
0.766360 0.342700 0.452172
0.823862 0.357154 0.464002
0.838522 0.361314 0.468767
0.225112 0.264052 0.365021
0.260719 0.272347 0.369411
0.331732 0.288621 0.375957
0.426870 0.308616 0.383394
0.556942 0.336103 0.404170
0.680058 0.367655 0.433824
0.778244 0.393703 0.456591
0.830706 0.407853 0.468575
0.842165 0.411061 0.472650
0.239269 0.329276 0.376738
0.278870 0.338029 0.382124
0.352754 0.350902 0.390420
0.445730 0.368391 0.400025
0.578516 0.399023 0.401473
0.699155 0.425886 0.430296
0.793634 0.457174 0.458770
0.839962 0.472692 0.472021
0.849125 0.475141 0.475344
0.249188 0.399666 0.385992
0.291864 0.409533 0.392286
0.368629 0.424256 0.401349
0.466908 0.442503 0.412923
0.581658 0.463202 0.427710
0.725993 0.494446 0.435845
0.811405 0.524846 0.460745
0.850458 0.541869 0.474063
0.858300 0.544801 0.477704
0.254855 0.468728 0.391982
0.299747 0.479413 0.398639
0.377758 0.495416 0.407863
0.475971 0.515046 0.418820
0.588827 0.537918 0.431570
0.713396 0.564207 0.444866
0.813805 0.591276 0.460979
0.856591 0.607874 0.473229
0.864660 0.611742 0.477749
0.257448 0.530193 0.394936
0.303517 0.541065 0.401592
0.382687 0.557628 0.411078
0.481991 0.578027 0.422255
0.593580 0.601399 0.434980
0.708801 0.626633 0.448465
0.808341 0.650278 0.461242
0.855482 0.664795 0.470894
0.864345 0.668244 0.474876
0.258290 0.577606 0.396049
0.304601 0.587645 0.402376
0.383792 0.603186 0.411363
0.483798 0.622842 0.422781
0.595653 0.645383 0.436311
0.708135 0.668794 0.450464
0.803903 0.689762 0.462605
0.851960 0.702043 0.469341
0.860995 0.704907 0.471496
0.258478 0.601126 0.397248
0.304970 0.609914 0.403503
0.384410 0.624259 0.412263
0.484316 0.642289 0.423354
0.595371 0.662735 0.436520
0.706660 0.683987 0.450710
0.801029 0.703066 0.463177
0.850188 0.714565 0.469823
0.859751 0.717323 0.471312
0.220558 0.208381 0.438497
0.250626 0.215176 0.443667
0.319468 0.229576 0.452636
0.415851 0.249440 0.465598
0.528044 0.272509 0.481859
0.642797 0.295994 0.499337
0.744545 0.317057 0.515396
0.811722 0.332293 0.527431
0.832248 0.338099 0.533307
0.223649 0.231308 0.440733
0.255822 0.238953 0.446506
0.325880 0.253535 0.455569
0.422261 0.273070 0.467844
0.535423 0.296136 0.484600
0.651916 0.320256 0.503836
0.752658 0.341776 0.521251
0.816100 0.356499 0.533615
0.833357 0.361269 0.539274
0.229751 0.276951 0.444006
0.263805 0.285379 0.449163
0.334130 0.300164 0.457455
0.427980 0.319456 0.467570
0.541861 0.342618 0.482996
0.661667 0.368202 0.504341
0.763838 0.392145 0.525099
0.823800 0.407199 0.538357
0.837880 0.411300 0.543645
0.237275 0.336502 0.449546
0.275052 0.345691 0.454499
0.347343 0.360757 0.462056
0.439369 0.381410 0.471403
0.549915 0.406659 0.481905
0.676616 0.430556 0.503072
0.780543 0.456010 0.527552
0.836553 0.473040 0.543310
0.847220 0.476657 0.548145
0.243148 0.402243 0.454936
0.284270 0.412034 0.460595
0.360535 0.427697 0.469328
0.460276 0.448362 0.481855
0.574221 0.473036 0.502791
0.700746 0.503281 0.506304
0.812600 0.526300 0.530231
0.854452 0.543585 0.546841
0.862388 0.549390 0.553541
0.246909 0.468505 0.459352
0.290762 0.478862 0.465664
0.368827 0.494731 0.475081
0.468919 0.514904 0.488006
0.582386 0.538320 0.505159
0.710596 0.564440 0.528592
0.832024 0.593358 0.536155
0.870614 0.610871 0.548625
0.877649 0.619305 0.557724
0.248763 0.528748 0.462102
0.294347 0.539251 0.468689
0.373376 0.555474 0.478389
0.472588 0.575537 0.490615
0.582798 0.598499 0.504766
0.699152 0.624008 0.519977
0.810779 0.649539 0.533982
0.869736 0.667978 0.546747
0.879384 0.676226 0.556517
0.249339 0.575879 0.463425
0.295613 0.586025 0.469990
0.374766 0.601854 0.479482
0.474355 0.621605 0.491696
0.584506 0.644096 0.505617
0.697315 0.668229 0.520764
0.799950 0.691455 0.535584
0.859690 0.706936 0.545587
0.871103 0.712064 0.552605
0.249608 0.600255 0.465000
0.296041 0.609410 0.471524
0.375458 0.624316 0.480904
0.475021 0.642900 0.492732
0.586206 0.664124 0.507213
0.699836 0.686782 0.523896
0.800188 0.707863 0.539793
0.856470 0.720808 0.549362
0.867786 0.723972 0.552677
0.223689 0.218791 0.518450
0.251673 0.224867 0.523294
0.317449 0.237680 0.531375
0.409568 0.255183 0.542114
0.517068 0.275690 0.555449
0.628616 0.297013 0.570162
0.730440 0.316772 0.584369
0.802869 0.331859 0.595936
0.826427 0.337978 0.602009
0.225429 0.240716 0.519748
0.255723 0.247726 0.525191
0.323406 0.261034 0.533659
0.416181 0.278660 0.544417
0.524076 0.299124 0.557938
0.636322 0.320541 0.573483
0.738034 0.340427 0.588743
0.807074 0.355185 0.600852
0.827589 0.360592 0.606967
0.228677 0.284405 0.520109
0.260861 0.292401 0.525360
0.330015 0.306482 0.533840
0.422922 0.324724 0.544491
0.530609 0.345593 0.557436
0.643958 0.367734 0.573643
0.746942 0.389164 0.590789
0.814406 0.404865 0.604174
0.832294 0.410251 0.610544
0.233002 0.341400 0.521526
0.268611 0.350375 0.526387
0.339246 0.365345 0.534395
0.432650 0.384988 0.545190
0.539749 0.407771 0.557834
0.654609 0.430159 0.573458
0.760302 0.452477 0.592429
0.827149 0.470162 0.608248
0.842438 0.475962 0.615146
0.236699 0.404760 0.523700
0.275974 0.414427 0.528819
0.350207 0.430164 0.536948
0.446944 0.451179 0.548245
0.555748 0.478683 0.563936
0.671094 0.505912 0.576977
0.784374 0.525260 0.596241
0.848204 0.542505 0.613249
0.860920 0.550610 0.622153
0.239159 0.468630 0.525575
0.281117 0.478646 0.531190
0.357619 0.494458 0.539934
0.457312 0.515328 0.552296
0.573744 0.542337 0.570762
0.699317 0.580565 0.601245
0.828914 0.605983 0.607259
0.886168 0.618004 0.622022
0.887906 0.624683 0.630331
0.240550 0.527602 0.527138
0.284570 0.537832 0.533214
0.362488 0.553672 0.542355
0.462348 0.574000 0.554846
0.575656 0.598420 0.571546
0.695967 0.627056 0.593485
0.824237 0.657827 0.614945
0.909855 0.678405 0.628884
0.901975 0.684756 0.633892
0.241087 0.574389 0.528096
0.286218 0.584421 0.534393
0.364800 0.600156 0.543725
0.464502 0.620198 0.556205
0.575444 0.643336 0.571578
0.688723 0.668707 0.589313
0.796835 0.694893 0.608277
0.871256 0.713067 0.618616
0.885191 0.719221 0.625918
0.241780 0.599403 0.529677
0.287031 0.608649 0.536136
0.366166 0.623784 0.545683
0.465979 0.643030 0.558147
0.577400 0.665503 0.573762
0.690607 0.689503 0.591357
0.793631 0.712505 0.608809
0.860305 0.727728 0.619999
0.876568 0.731933 0.625484
0.221983 0.223994 0.588586
0.248311 0.229704 0.593090
0.312015 0.241823 0.600692
0.401858 0.258270 0.610465
0.506880 0.277419 0.622006
0.616229 0.297470 0.634641
0.717488 0.316299 0.647072
0.793684 0.331245 0.657567
0.820724 0.337690 0.663312
0.223034 0.245313 0.589223
0.251726 0.252048 0.594430
0.317664 0.264765 0.602350
0.408701 0.281510 0.612310
0.514064 0.300675 0.623971
0.623475 0.320587 0.636947
0.724607 0.339354 0.649953
0.797690 0.353807 0.660779
0.821880 0.359587 0.666639
0.225100 0.288209 0.588127
0.255527 0.295987 0.593323
0.323300 0.309550 0.601433
0.415027 0.326961 0.611624
0.520419 0.346575 0.623297
0.630126 0.367069 0.636530
0.731727 0.386529 0.650309
0.803909 0.401790 0.662015
0.826281 0.408025 0.668394
0.227941 0.344189 0.587120
0.261450 0.352980 0.591982
0.330399 0.367344 0.599939
0.423008 0.385785 0.610491
0.528945 0.406737 0.622780
0.638975 0.428036 0.636114
0.741654 0.448267 0.650633
0.814508 0.465001 0.663769
0.835473 0.472235 0.670998
0.230524 0.406336 0.586498
0.267688 0.415947 0.591413
0.339473 0.431123 0.599214
0.433670 0.450825 0.609984
0.540951 0.474191 0.623778
0.652688 0.498573 0.638681
0.757700 0.519319 0.653530
0.832014 0.536420 0.667558
0.852195 0.545937 0.676692
0.232370 0.469050 0.586111
0.272450 0.479065 0.591350
0.347018 0.494616 0.599470
0.444226 0.514953 0.610746
0.555622 0.540378 0.626269
0.673155 0.572036 0.647741
0.785031 0.599520 0.665093
0.863711 0.613357 0.677255
0.878752 0.621458 0.685993
0.233398 0.526702 0.585626
0.275361 0.536770 0.591172
0.351501 0.552282 0.599631
0.449885 0.572254 0.611235
0.563187 0.597274 0.627497
0.688144 0.630017 0.652669
0.824969 0.679513 0.698697
0.924969 0.698670 0.702220
0.910278 0.690386 0.697898
0.233915 0.573085 0.585460
0.277217 0.582983 0.591230
0.354508 0.598518 0.600073
0.453531 0.618340 0.611988
0.565392 0.642074 0.627685
0.683196 0.670185 0.649065
0.798745 0.703312 0.679062
0.888884 0.728153 0.695802
0.897535 0.725891 0.689473
0.234777 0.598521 0.586380
0.278492 0.607811 0.592451
0.356704 0.623019 0.601628
0.456294 0.642473 0.613862
0.568122 0.665474 0.629587
0.682352 0.690959 0.648538
0.786600 0.716357 0.668321
0.859214 0.733703 0.679793
0.881012 0.738202 0.682501
0.219101 0.226356 0.643596
0.244073 0.231897 0.647604
0.306143 0.243684 0.654679
0.394788 0.259660 0.663831
0.498477 0.278104 0.674384
0.606583 0.297480 0.685408
0.707379 0.315772 0.696195
0.785126 0.330485 0.705259
0.816206 0.337334 0.710175
0.219838 0.247321 0.643555
0.247137 0.253906 0.648146
0.311690 0.266350 0.655672
0.401787 0.282695 0.664870
0.505978 0.301242 0.675322
0.613953 0.320429 0.686502
0.714175 0.338453 0.697478
0.789801 0.352663 0.706649
0.817431 0.358681 0.711433
0.221411 0.289944 0.641550
0.250221 0.297550 0.646321
0.316827 0.310852 0.653841
0.407924 0.327844 0.663326
0.512450 0.346914 0.674082
0.620370 0.366466 0.685441
0.720675 0.384927 0.696752
0.795231 0.399486 0.706241
0.821474 0.405795 0.711241
0.223464 0.345490 0.639045
0.255161 0.354116 0.643646
0.322919 0.368177 0.651170
0.414883 0.386005 0.661048
0.519952 0.405939 0.672375
0.628099 0.426225 0.684247
0.728711 0.445359 0.696036
0.803689 0.460767 0.706122
0.829430 0.467950 0.711542
0.225489 0.407192 0.636384
0.260611 0.416649 0.640931
0.330730 0.431515 0.648563
0.423514 0.450149 0.658767
0.529265 0.471484 0.671099
0.638912 0.493785 0.684593
0.740453 0.513992 0.697372
0.816737 0.530038 0.708053
0.842865 0.538663 0.714229
0.227091 0.469339 0.633764
0.265275 0.479296 0.638582
0.338107 0.494645 0.646460
0.432955 0.513993 0.657035
0.540606 0.536953 0.670600
0.652828 0.562647 0.687134
0.758583 0.587267 0.703764
0.836936 0.603404 0.714740
0.862558 0.611406 0.720364
0.228088 0.526402 0.631345
0.268345 0.536416 0.636413
0.343134 0.551844 0.644618
0.439886 0.571409 0.655669
0.550134 0.595150 0.670311
0.667612 0.624331 0.690480
0.785640 0.660972 0.719182
0.870708 0.682286 0.733353
0.885090 0.679146 0.729537
0.228581 0.572101 0.629371
0.270038 0.581891 0.634656
0.345836 0.597206 0.643074
0.443508 0.616675 0.654424
0.554140 0.639947 0.669254
0.671656 0.668037 0.689443
0.793069 0.704591 0.720322
0.898063 0.741277 0.755922
0.889535 0.724000 0.730453
0.229528 0.597744 0.629035
0.271540 0.606985 0.634511
0.348560 0.622156 0.643272
0.447215 0.641538 0.654967
0.558170 0.664421 0.669860
0.672849 0.690139 0.688270
0.779880 0.716621 0.708983
0.854417 0.734762 0.722648
0.878435 0.738791 0.722302
0.217330 0.227135 0.672461
0.241461 0.232596 0.675526
0.302692 0.244272 0.681830
0.390936 0.260085 0.690280
0.494143 0.278276 0.700040
0.601644 0.297339 0.710337
0.702073 0.315388 0.720092
0.780447 0.329976 0.727815
0.814199 0.337121 0.731649
0.218007 0.247859 0.671160
0.244453 0.254355 0.674486
0.308347 0.266693 0.681021
0.398150 0.282923 0.689667
0.502044 0.301292 0.699560
0.609447 0.320210 0.709931
0.709169 0.337902 0.719552
0.785871 0.352002 0.727196
0.815628 0.358177 0.730648
0.219467 0.290415 0.668390
0.247304 0.297901 0.671820
0.313438 0.311130 0.678596
0.404295 0.327962 0.687469
0.508672 0.346849 0.697628
0.616093 0.366121 0.708173
0.715623 0.384134 0.717899
0.791146 0.398382 0.725572
0.819586 0.404617 0.728888
0.221237 0.345879 0.664845
0.251807 0.354376 0.668463
0.319103 0.368335 0.675411
0.410908 0.385915 0.684645
0.515900 0.405602 0.695343
0.623636 0.425550 0.706428
0.723362 0.444107 0.716698
0.798862 0.458925 0.724656
0.827005 0.465736 0.727980
0.223041 0.407456 0.661053
0.256865 0.416797 0.664913
0.326296 0.431531 0.672123
0.418807 0.449865 0.681806
0.524219 0.470561 0.693373
0.632996 0.491969 0.705866
0.733508 0.511621 0.717402
0.810024 0.527049 0.726029
0.838971 0.534799 0.729516
0.224562 0.469485 0.657328
0.261439 0.479326 0.661485
0.333324 0.494559 0.669038
0.427464 0.513604 0.679273
0.533766 0.535418 0.691931
0.644143 0.559164 0.706664
0.747463 0.581803 0.721354
0.825427 0.597976 0.731224
0.855402 0.605822 0.734568
0.225594 0.526315 0.653866
0.264683 0.536253 0.658295
0.338619 0.551636 0.666188
0.434537 0.570987 0.676973
0.542764 0.593701 0.690701
0.655960 0.619920 0.707951
0.763811 0.647659 0.727597
0.844049 0.666446 0.740153
0.872174 0.671346 0.741646
0.226211 0.571737 0.650581
0.266614 0.581499 0.655330
0.341759 0.596789 0.663460
0.438857 0.616175 0.674596
0.548322 0.638998 0.688863
0.662995 0.665457 0.706970
0.772805 0.694305 0.728342
0.852833 0.715336 0.743265
0.877830 0.718294 0.742842
0.227176 0.597299 0.648528
0.268134 0.606482 0.653426
0.344237 0.621569 0.661961
0.442167 0.640837 0.673388
0.552126 0.663427 0.687696
0.665655 0.688590 0.705013
0.771583 0.713955 0.723627
0.847127 0.731673 0.735972
0.873709 0.737184 0.738387
