public/luts/hf_talk.cube
# framediff hero grade: per-segment fit for hf_talk (AE chain composed)
# generated by gradefit.py
LUT_3D_SIZE 33
DOMAIN_MIN 0 0 0
DOMAIN_MAX 1 1 1
0.042605 0.042943 0.089312
0.054449 0.047956 0.092336
0.071185 0.055116 0.096679
0.098343 0.068773 0.105919
0.140258 0.092794 0.123361
0.181789 0.115722 0.140050
0.220564 0.134845 0.154235
0.258818 0.152868 0.167539
0.295380 0.168142 0.178587
0.331681 0.182650 0.189125
0.367323 0.195822 0.198768
0.402641 0.208307 0.207970
0.437564 0.220047 0.216695
0.471850 0.231048 0.224904
0.505925 0.241654 0.232840
0.538879 0.251418 0.240113
0.571597 0.260961 0.247210
0.602633 0.269581 0.253618
0.633319 0.278044 0.259905
0.662101 0.285705 0.265490
0.690204 0.293151 0.270886
0.716212 0.299941 0.275724
0.740740 0.306379 0.280273
0.763286 0.312339 0.284437
0.782927 0.317734 0.288165
0.800776 0.322774 0.291625
0.814307 0.326949 0.294477
0.826278 0.330745 0.297072
0.833986 0.333446 0.298939
0.840688 0.335829 0.300602
0.843952 0.337077 0.301574
0.845751 0.337808 0.302216
0.847551 0.338535 0.302851
0.049452 0.049533 0.096369
0.060138 0.054627 0.099223
0.074238 0.061282 0.102871
0.100837 0.074862 0.110701
0.141999 0.096782 0.123704
0.183234 0.118369 0.137846
0.223479 0.138799 0.153637
0.262421 0.157262 0.167630
0.299035 0.172507 0.178687
0.335296 0.186829 0.189141
0.371052 0.200052 0.198889
0.406362 0.212455 0.208116
0.441410 0.224291 0.216992
0.475755 0.235278 0.225268
0.509860 0.245951 0.233329
0.542722 0.255652 0.240649
0.575415 0.265210 0.247976
0.606370 0.273781 0.254440
0.636803 0.282120 0.260687
0.665517 0.289733 0.266282
0.693221 0.297015 0.271598
0.719276 0.303772 0.276449
0.743344 0.310055 0.280916
0.765840 0.315951 0.285065
0.784959 0.321188 0.288712
0.802805 0.326180 0.292163
0.815643 0.330152 0.294902
0.827460 0.333850 0.297456
0.834721 0.336388 0.299243
0.841188 0.338641 0.300847
0.844008 0.339689 0.301713
0.845807 0.340372 0.302340
0.847606 0.341057 0.302966
0.057199 0.057213 0.104649
0.065550 0.061682 0.106750
0.076222 0.067369 0.109313
0.102365 0.080446 0.114826
0.142766 0.100131 0.122920
0.183954 0.120825 0.135088
0.225791 0.142770 0.152674
0.265352 0.161711 0.167323
0.302063 0.177003 0.178386
0.338412 0.191257 0.188822
0.374325 0.204595 0.198692
0.409716 0.217017 0.207997
0.444968 0.229030 0.217066
0.479295 0.240042 0.225421
0.513555 0.250878 0.233785
0.546440 0.260628 0.241331
0.579016 0.270178 0.248712
0.610108 0.278843 0.255309
0.640317 0.287133 0.261551
0.669067 0.294764 0.267205
0.696466 0.301955 0.272475
0.722505 0.308706 0.277356
0.746115 0.314849 0.281747
0.768655 0.320738 0.285922
0.787232 0.325849 0.289499
0.804824 0.330751 0.292921
0.817152 0.334573 0.295587
0.828395 0.338096 0.298054
0.835595 0.340575 0.299849
0.841655 0.342651 0.301380
0.844079 0.343516 0.302170
0.845877 0.344160 0.302806
0.847674 0.344796 0.303446
0.083173 0.082630 0.119633
0.091475 0.087063 0.121624
0.101797 0.092297 0.123918
0.126422 0.103853 0.128367
0.160931 0.119671 0.134236
0.197181 0.136736 0.143945
0.235113 0.155175 0.157606
0.271714 0.171280 0.169099
0.306883 0.185170 0.178548
0.342376 0.198665 0.188148
0.378197 0.211979 0.197915
0.413482 0.224452 0.207245
0.448664 0.236664 0.216478
0.482950 0.247842 0.225095
0.517183 0.258870 0.233701
0.550033 0.268798 0.241409
0.582514 0.278467 0.248900
0.613711 0.287313 0.255658
0.643744 0.295602 0.261946
0.672481 0.303298 0.267674
0.699523 0.310415 0.272899
0.725600 0.317187 0.277832
0.748828 0.323242 0.282167
0.771356 0.329139 0.286354
0.789402 0.334125 0.289854
0.806403 0.338888 0.293195
0.818681 0.342671 0.295852
0.829359 0.346011 0.298214
0.836502 0.348446 0.299990
0.842115 0.350329 0.301430
0.844252 0.351066 0.302161
0.846049 0.351659 0.302798
0.847846 0.352242 0.303442
0.116694 0.115069 0.137460
0.124794 0.118719 0.139238
0.134589 0.122766 0.141168
0.155473 0.131446 0.144455
0.182191 0.142449 0.148351
0.212274 0.154951 0.154728
0.245162 0.168684 0.163101
0.278311 0.181516 0.170963
0.311675 0.193705 0.178469
0.346447 0.206502 0.187331
0.382101 0.219702 0.196974
0.417163 0.232179 0.206352
0.452312 0.244574 0.215881
0.486533 0.255851 0.224717
0.520555 0.266955 0.233471
0.553535 0.277152 0.241411
0.585856 0.286932 0.249006
0.617095 0.295982 0.255931
0.646956 0.304336 0.262262
0.675733 0.312117 0.268084
0.702477 0.319163 0.273269
0.728524 0.325972 0.278235
0.751410 0.331971 0.282521
0.773540 0.337764 0.286661
0.791510 0.342748 0.290153
0.807905 0.347368 0.293409
0.820120 0.351138 0.296054
0.830298 0.354321 0.298333
0.837370 0.356704 0.300072
0.842527 0.358407 0.301421
0.844440 0.359024 0.302091
0.846237 0.359631 0.302740
0.848034 0.360230 0.303386
0.143150 0.144270 0.151661
0.150437 0.147128 0.152886
0.159352 0.150356 0.154245
0.177633 0.157172 0.156509
0.199783 0.165348 0.159072
0.226122 0.175009 0.163461
0.255345 0.185681 0.169098
0.286464 0.196208 0.175040
0.318705 0.206634 0.181138
0.352635 0.218384 0.188856
0.387435 0.230717 0.197219
0.421930 0.242982 0.206306
0.456561 0.255348 0.215728
0.490555 0.266758 0.224583
0.524352 0.277986 0.233363
0.557220 0.288318 0.241432
0.589406 0.298183 0.249097
0.620612 0.307358 0.256146
0.650326 0.315742 0.262503
0.679065 0.323613 0.268397
0.705525 0.330600 0.273529
0.731479 0.337398 0.278495
0.753942 0.343306 0.282687
0.775605 0.349028 0.286752
0.793560 0.353993 0.290229
0.809390 0.358514 0.293391
0.821568 0.362262 0.296036
0.831268 0.365353 0.298237
0.838294 0.367714 0.299958
0.842882 0.369214 0.301180
0.844710 0.369807 0.301828
0.846505 0.370379 0.302478
0.848302 0.370927 0.303092
0.165546 0.171627 0.163780
0.172581 0.174196 0.164718
0.181104 0.177062 0.165718
0.197595 0.182432 0.167222
0.216462 0.188464 0.168821
0.239675 0.195714 0.171706
0.265458 0.203576 0.175253
0.294762 0.211834 0.179559
0.326007 0.220298 0.184250
0.359053 0.230837 0.190593
0.392808 0.241912 0.197296
0.426689 0.253907 0.206107
0.460702 0.266232 0.215399
0.494460 0.277789 0.224374
0.527985 0.289147 0.233209
0.560797 0.299743 0.241448
0.592798 0.309728 0.249170
0.624028 0.319101 0.256352
0.653582 0.327556 0.262714
0.682297 0.335513 0.268677
0.708449 0.342453 0.273739
0.733995 0.349183 0.278636
0.756455 0.355068 0.282825
0.777629 0.360682 0.286810
0.795583 0.365657 0.290278
0.810872 0.370048 0.293353
0.822948 0.373736 0.295945
0.832202 0.376709 0.298076
0.839093 0.379010 0.299773
0.843200 0.380315 0.300872
0.844994 0.380887 0.301524
0.846788 0.381456 0.302170
0.848583 0.381949 0.302787
0.183942 0.197503 0.174292
0.190560 0.199809 0.174979
0.198522 0.202326 0.175680
0.213874 0.206812 0.176772
0.230865 0.211749 0.177970
0.252528 0.217886 0.180274
0.276357 0.224512 0.183029
0.304347 0.231886 0.186708
0.333929 0.239381 0.190709
0.365995 0.248955 0.196268
0.398820 0.258931 0.202106
0.432012 0.270164 0.210031
0.465408 0.281473 0.218114
0.498857 0.292493 0.226190
0.532065 0.303288 0.234229
0.564612 0.313711 0.242187
0.596390 0.323549 0.249680
0.627490 0.332932 0.256791
0.656799 0.341298 0.263033
0.685495 0.349312 0.268980
0.711376 0.356169 0.273948
0.736562 0.362803 0.278740
0.758942 0.368679 0.282894
0.779682 0.374192 0.286785
0.797654 0.379153 0.290232
0.812385 0.383443 0.293207
0.824381 0.387089 0.295760
0.833172 0.389897 0.297776
0.839651 0.392097 0.299390
0.843551 0.393322 0.300438
0.845344 0.393898 0.301087
0.847138 0.394421 0.301703
0.848932 0.394971 0.302343
0.199676 0.222387 0.183708
0.206238 0.224658 0.184408
0.214026 0.227063 0.185088
0.228985 0.231142 0.186203
0.244719 0.235341 0.187351
0.265305 0.240634 0.189378
0.287517 0.246293 0.191672
0.314009 0.252781 0.194776
0.341873 0.259543 0.198178
0.372989 0.268041 0.202882
0.404849 0.276765 0.207845
0.437279 0.286811 0.214288
0.470021 0.297004 0.220919
0.503176 0.307453 0.228039
0.536003 0.317805 0.235372
0.568388 0.328181 0.243068
0.599857 0.337929 0.250313
0.630817 0.347304 0.257308
0.659840 0.355564 0.263377
0.688220 0.363478 0.269175
0.714145 0.370361 0.274120
0.738976 0.376920 0.278799
0.761363 0.382779 0.282919
0.781672 0.388206 0.286708
0.799611 0.393135 0.290111
0.813825 0.397292 0.292987
0.825778 0.400930 0.295511
0.834136 0.403597 0.297435
0.840206 0.405632 0.298956
0.843920 0.406771 0.299956
0.845712 0.407355 0.300605
0.847503 0.407845 0.301217
0.849296 0.408376 0.301850
0.212631 0.246321 0.191773
0.218960 0.248463 0.192396
0.226586 0.250833 0.193049
0.241250 0.254676 0.194179
0.256182 0.258486 0.195296
0.276178 0.263370 0.197195
0.297250 0.268473 0.199216
0.322744 0.274605 0.202053
0.349401 0.280920 0.205076
0.379622 0.288788 0.209208
0.410398 0.296877 0.213605
0.442365 0.306087 0.219166
0.474647 0.315385 0.224929
0.507425 0.324960 0.231138
0.539904 0.334704 0.237742
0.571992 0.344622 0.244770
0.603233 0.354014 0.251529
0.633973 0.363126 0.258138
0.662859 0.371249 0.263961
0.690970 0.378998 0.269527
0.716805 0.385806 0.274339
0.741267 0.392191 0.278836
0.763649 0.397990 0.282880
0.783547 0.403284 0.286537
0.801471 0.408202 0.289889
0.815260 0.412288 0.292689
0.827152 0.415898 0.295179
0.835104 0.418474 0.297012
0.840772 0.420308 0.298404
0.844331 0.421425 0.299391
0.846122 0.421957 0.300003
0.847913 0.422521 0.300641
0.849704 0.423048 0.301269
0.223889 0.269708 0.199030
0.230243 0.271849 0.199726
0.238369 0.274343 0.200505
0.252569 0.277986 0.201735
0.267064 0.281648 0.202982
0.286783 0.286343 0.204917
0.307071 0.291114 0.206877
0.331739 0.296875 0.209517
0.357163 0.302773 0.212224
0.386280 0.309971 0.215778
0.416007 0.317334 0.219558
0.447374 0.325635 0.224146
0.479134 0.334117 0.229014
0.511506 0.342942 0.234350
0.543650 0.352165 0.240276
0.575433 0.361646 0.246627
0.606332 0.370694 0.252870
0.636924 0.379583 0.259063
0.665699 0.387564 0.264640
0.693607 0.395131 0.269936
0.719382 0.401838 0.274596
0.743519 0.408053 0.278903
0.765878 0.413813 0.282848
0.785433 0.419007 0.286378
0.803324 0.423827 0.289661
0.816597 0.427721 0.292316
0.828456 0.431348 0.294775
0.836051 0.433818 0.296532
0.841335 0.435493 0.297827
0.844757 0.436573 0.298774
0.846546 0.437087 0.299382
0.848336 0.437638 0.300013
0.850125 0.438146 0.300623
0.233012 0.292307 0.205086
0.239284 0.294452 0.205774
0.247816 0.297020 0.206583
0.261611 0.300511 0.207792
0.275980 0.304137 0.209063
0.295312 0.308681 0.210921
0.315046 0.313270 0.212800
0.339204 0.318881 0.215295
0.364118 0.324662 0.217899
0.392246 0.331406 0.221128
0.421269 0.338390 0.224597
0.451932 0.346088 0.228664
0.483210 0.354063 0.233059
0.515142 0.362421 0.237888
0.546948 0.371162 0.243263
0.578588 0.380035 0.248937
0.609283 0.388590 0.254609
0.639621 0.396991 0.260231
0.668310 0.404706 0.265459
0.695970 0.412013 0.270405
0.721748 0.418570 0.274868
0.745652 0.424614 0.278970
0.767981 0.430275 0.282790
0.787160 0.435323 0.286168
0.805057 0.440111 0.289368
0.817903 0.443906 0.291910
0.829687 0.447386 0.294287
0.836947 0.449783 0.295977
0.841896 0.451364 0.297189
0.845199 0.452372 0.298089
0.846986 0.452892 0.298697
0.848775 0.453432 0.299323
0.850563 0.453907 0.299905
0.241172 0.314602 0.210572
0.247448 0.316754 0.211317
0.256556 0.319504 0.212268
0.270170 0.323006 0.213569
0.284711 0.326620 0.214957
0.303623 0.331091 0.216813
0.323214 0.335606 0.218672
0.346649 0.341011 0.221009
0.370963 0.346554 0.223441
0.398226 0.352932 0.226362
0.426506 0.359577 0.229508
0.456409 0.366723 0.233068
0.487205 0.374268 0.237014
0.518616 0.382150 0.241325
0.550042 0.390382 0.246122
0.581378 0.398677 0.251120
0.611904 0.406841 0.256279
0.642101 0.414857 0.261406
0.670694 0.422332 0.266275
0.698171 0.429356 0.270884
0.723845 0.435723 0.275109
0.747570 0.441628 0.279006
0.769881 0.447178 0.282685
0.788803 0.452090 0.285927
0.806685 0.456799 0.289030
0.819129 0.460456 0.291455
0.830664 0.463854 0.293735
0.837792 0.466131 0.295349
0.842440 0.467624 0.296502
0.845636 0.468539 0.297349
0.847424 0.469106 0.297966
0.849211 0.469613 0.298572
0.850999 0.470090 0.299157
0.247871 0.336212 0.215000
0.253930 0.338297 0.215695
0.263365 0.341097 0.216649
0.276715 0.344544 0.217916
0.291473 0.348238 0.219319
0.310040 0.352621 0.221111
0.329697 0.357205 0.223030
0.352715 0.362505 0.225326
0.376854 0.368041 0.227751
0.403407 0.374083 0.230480
0.431167 0.380501 0.233464
0.460591 0.387435 0.236816
0.490903 0.394714 0.240493
0.521883 0.402205 0.244436
0.552877 0.409934 0.248758
0.583996 0.417771 0.253259
0.614404 0.425545 0.257954
0.644292 0.433131 0.262587
0.672827 0.440281 0.267077
0.700031 0.446941 0.271310
0.725701 0.453164 0.275308
0.749244 0.458865 0.278998
0.771561 0.464333 0.282525
0.790271 0.469125 0.285628
0.807988 0.473714 0.288609
0.820273 0.477326 0.290951
0.831490 0.480591 0.293121
0.838599 0.482825 0.294694
0.842973 0.484197 0.295769
0.846073 0.485103 0.296582
0.847859 0.485652 0.297188
0.849645 0.486111 0.297763
0.851432 0.486614 0.298364
0.253994 0.357561 0.219036
0.259946 0.359672 0.219760
0.269812 0.362593 0.220804
0.283037 0.366081 0.222114
0.297968 0.369793 0.223532
0.316248 0.374106 0.225268
0.335954 0.378681 0.227164
0.358532 0.383844 0.229368
0.382348 0.389206 0.231674
0.408397 0.395123 0.234283
0.435777 0.401410 0.237119
0.464601 0.408037 0.240211
0.494388 0.414990 0.243598
0.524780 0.422060 0.247158
0.555458 0.429439 0.251091
0.586348 0.436898 0.255167
0.616514 0.444309 0.259416
0.646149 0.451513 0.263626
0.674503 0.458299 0.267732
0.701515 0.464676 0.271651
0.727197 0.470697 0.275409
0.750595 0.476264 0.278899
0.772972 0.481621 0.282275
0.791461 0.486316 0.285231
0.808928 0.490774 0.288077
0.821249 0.494345 0.290382
0.832225 0.497548 0.292457
0.839309 0.499765 0.293983
0.843466 0.501000 0.294973
0.846477 0.501881 0.295769
0.848262 0.502350 0.296350
0.850050 0.502857 0.296932
0.851838 0.503383 0.297519
0.258700 0.378075 0.222082
0.264443 0.380113 0.222753
0.274658 0.383134 0.223810
0.287745 0.386565 0.225090
0.303002 0.390412 0.226575
0.321128 0.394726 0.228320
0.340961 0.399373 0.230241
0.363226 0.404425 0.232401
0.387039 0.409833 0.234746
0.412792 0.415711 0.237316
0.439866 0.421845 0.240073
0.468194 0.428298 0.243025
0.497492 0.434966 0.246195
0.527463 0.441780 0.249531
0.557872 0.448919 0.253180
0.588399 0.455998 0.256898
0.618272 0.462995 0.260735
0.647668 0.469813 0.264555
0.675915 0.476363 0.268335
0.702833 0.482498 0.271967
0.728504 0.488340 0.275492
0.751809 0.493797 0.278790
0.774210 0.499009 0.282008
0.792546 0.503580 0.284826
0.809824 0.507958 0.287544
0.822073 0.511431 0.289730
0.832884 0.514539 0.291739
0.839906 0.516713 0.293213
0.843935 0.517849 0.294140
0.846868 0.518738 0.294911
0.848653 0.519200 0.295463
0.850441 0.519687 0.296046
0.852230 0.520200 0.296628
0.263072 0.398352 0.224886
0.268719 0.400415 0.225568
0.279248 0.403449 0.226639
0.292206 0.406888 0.227898
0.307663 0.410761 0.229388
0.325598 0.415058 0.231097
0.345473 0.419634 0.232961
0.367523 0.424657 0.235090
0.391322 0.430065 0.237405
0.416703 0.435757 0.239875
0.443518 0.441781 0.242533
0.471331 0.447970 0.245299
0.500351 0.454477 0.248319
0.529923 0.461091 0.251447
0.559946 0.467925 0.254823
0.590074 0.474681 0.258240
0.619651 0.481345 0.261748
0.648844 0.487910 0.265268
0.676920 0.494148 0.268750
0.703728 0.500120 0.272136
0.729405 0.505859 0.275459
0.752646 0.511154 0.278585
0.775090 0.516294 0.281654
0.793371 0.520783 0.284350
0.810486 0.525037 0.286940
0.822743 0.528450 0.289047
0.833386 0.531418 0.290940
0.840321 0.533599 0.292375
0.844331 0.534712 0.293275
0.847194 0.535523 0.294010
0.848982 0.536003 0.294546
0.850772 0.536505 0.295115
0.852563 0.536996 0.295680
0.266273 0.417614 0.226823
0.271758 0.419599 0.227458
0.282619 0.422722 0.228570
0.295542 0.426230 0.229854
0.311242 0.430144 0.231378
0.329055 0.434382 0.233057
0.349112 0.439121 0.234993
0.371043 0.444138 0.237113
0.394843 0.449539 0.239434
0.419982 0.455202 0.241879
0.446561 0.461098 0.244468
0.474124 0.467198 0.247170
0.502846 0.473566 0.250083
0.532083 0.480025 0.253064
0.561714 0.486589 0.256209
0.591406 0.493021 0.259366
0.620728 0.499469 0.262617
0.649659 0.505727 0.265860
0.677640 0.511779 0.269086
0.704318 0.517581 0.272249
0.730056 0.523208 0.275382
0.753267 0.528391 0.278334
0.775784 0.533474 0.281250
0.794008 0.537865 0.283818
0.811024 0.542026 0.286287
0.823286 0.545377 0.288313
0.833816 0.548298 0.290115
0.840701 0.550383 0.291490
0.844708 0.551511 0.292362
0.847503 0.552268 0.293058
0.849294 0.552755 0.293585
0.851085 0.553242 0.294141
0.852876 0.553688 0.294679
0.269315 0.436697 0.228619
0.274632 0.438572 0.229207
0.285720 0.441710 0.230308
0.298528 0.445122 0.231553
0.314428 0.449073 0.233080
0.332082 0.453252 0.234724
0.352241 0.457971 0.236645
0.373989 0.462940 0.238712
0.397742 0.468268 0.240993
0.422681 0.473798 0.243371
0.449104 0.479592 0.245900
0.476365 0.485535 0.248508
0.504801 0.491765 0.251304
0.533662 0.498016 0.254134
0.562929 0.504334 0.257094
0.592325 0.510586 0.260063
0.621357 0.516761 0.263102
0.650047 0.522856 0.266145
0.677943 0.528775 0.269194
0.704615 0.534482 0.272194
0.730354 0.540012 0.275168
0.753541 0.545137 0.277970
0.776100 0.550105 0.280757
0.794324 0.554465 0.283208
0.811305 0.558556 0.285573
0.823620 0.561870 0.287525
0.834071 0.564728 0.289253
0.840981 0.566777 0.290559
0.844995 0.567926 0.291419
0.847722 0.568621 0.292061
0.849517 0.569145 0.292598
0.851312 0.569611 0.293134
0.853108 0.570085 0.293654
0.271490 0.454672 0.229788
0.276706 0.456500 0.230354
0.287997 0.459646 0.231457
0.300766 0.463063 0.232688
0.316794 0.467019 0.234211
0.334437 0.471266 0.235872
0.354625 0.475919 0.237772
0.376264 0.480876 0.239824
0.400005 0.486230 0.242099
0.424767 0.491721 0.244457
0.451118 0.497463 0.246958
0.478132 0.503345 0.249515
0.506321 0.509452 0.252229
0.534852 0.515521 0.254950
0.563791 0.521692 0.257767
0.592888 0.527771 0.260589
0.621748 0.533836 0.263474
0.650289 0.539762 0.266364
0.678073 0.545584 0.269254
0.704684 0.551180 0.272094
0.730395 0.556611 0.274912
0.753645 0.561674 0.277582
0.776179 0.566586 0.280223
0.794481 0.570859 0.282571
0.811469 0.574934 0.284830
0.823824 0.578212 0.286707
0.834275 0.581039 0.288366
0.841243 0.583080 0.289631
0.845271 0.584221 0.290458
0.847931 0.584924 0.291062
0.849729 0.585440 0.291581
0.851529 0.585876 0.292077
0.853330 0.586394 0.292611
0.273593 0.472538 0.230895
0.278663 0.474245 0.231416
0.290149 0.477351 0.232498
0.302802 0.480636 0.233671
0.318904 0.484503 0.235159
0.336423 0.488640 0.236774
0.356559 0.493181 0.238609
0.378045 0.497995 0.240593
0.401681 0.503224 0.242808
0.426261 0.508578 0.245109
0.452448 0.514203 0.247549
0.479228 0.519905 0.250034
0.507194 0.525860 0.252669
0.535541 0.531820 0.255309
0.564296 0.537862 0.258029
0.593185 0.543833 0.260760
0.621867 0.549795 0.263543
0.650246 0.555674 0.266328
0.677932 0.561430 0.269111
0.704483 0.566964 0.271840
0.730162 0.572334 0.274539
0.753432 0.577341 0.277100
0.776027 0.582213 0.279633
0.794395 0.586489 0.281888
0.811434 0.590523 0.284055
0.823837 0.593782 0.285865
0.834311 0.596618 0.287465
0.841381 0.598676 0.288695
0.845453 0.599809 0.289489
0.848047 0.600496 0.290065
0.849850 0.600999 0.290558
0.851653 0.601437 0.291043
0.853457 0.601953 0.291561
0.275111 0.489214 0.231584
0.280074 0.490875 0.232087
0.291784 0.494002 0.233170
0.304347 0.497241 0.234314
0.320579 0.501128 0.235793
0.338011 0.505224 0.237380
0.358213 0.509752 0.239197
0.379550 0.514522 0.241138
0.403097 0.519657 0.243313
0.427522 0.524979 0.245570
0.453595 0.530549 0.247981
0.480213 0.536196 0.250420
0.508002 0.542072 0.253001
0.536138 0.547956 0.255584
0.564719 0.553926 0.258247
0.593365 0.559748 0.260882
0.621865 0.565582 0.263564
0.650081 0.571374 0.266247
0.677706 0.577011 0.268927
0.704186 0.582492 0.271553
0.729815 0.587790 0.274144
0.753096 0.592774 0.276599
0.775734 0.597584 0.279024
0.794134 0.601823 0.281186
0.811295 0.605804 0.283274
0.823755 0.609091 0.285015
0.834289 0.611933 0.286563
0.841433 0.614005 0.287753
0.845618 0.615148 0.288511
0.848152 0.615853 0.289063
0.849959 0.616339 0.289520
0.851768 0.616843 0.289999
0.853577 0.617367 0.290501
0.276543 0.505651 0.232203
0.281397 0.507224 0.232678
0.293245 0.510247 0.233735
0.305752 0.513359 0.234842
0.322051 0.517134 0.236287
0.339365 0.521075 0.237819
0.359553 0.525476 0.239597
0.380738 0.530086 0.241481
0.404240 0.535110 0.243601
0.428482 0.540263 0.245796
0.454458 0.545715 0.248172
0.480878 0.551193 0.250544
0.508529 0.556910 0.253063
0.536432 0.562683 0.255589
0.564848 0.568540 0.258199
0.593376 0.574314 0.260781
0.621689 0.580106 0.263397
0.649828 0.585832 0.266015
0.677271 0.591441 0.268614
0.703729 0.596889 0.271166
0.729303 0.602152 0.273679
0.752653 0.607119 0.276061
0.775237 0.611881 0.278393
0.793744 0.616090 0.280474
0.811018 0.620101 0.282499
0.823525 0.623381 0.284177
0.834155 0.626246 0.285684
0.841330 0.628325 0.286833
0.845708 0.629516 0.287574
0.848189 0.630247 0.288094
0.850001 0.630722 0.288517
0.851814 0.631241 0.288989
0.853627 0.631764 0.289472
0.277583 0.520781 0.232567
0.282333 0.522305 0.233022
0.294372 0.525338 0.234071
0.306835 0.528449 0.235153
0.323227 0.532206 0.236580
0.340451 0.536098 0.238076
0.360684 0.540525 0.239848
0.381769 0.545060 0.241681
0.405133 0.550010 0.243752
0.429271 0.555104 0.245903
0.455127 0.560491 0.248236
0.481408 0.565906 0.250574
0.508908 0.571584 0.253052
0.536695 0.577277 0.255541
0.564951 0.582997 0.258098
0.593325 0.588678 0.260633
0.621472 0.594342 0.263180
0.649463 0.599959 0.265736
0.676842 0.605489 0.268272
0.703168 0.610845 0.270749
0.728730 0.616081 0.273195
0.752029 0.620979 0.275497
0.774647 0.625717 0.277763
0.793268 0.629925 0.279788
0.810670 0.633933 0.281751
0.823237 0.637207 0.283367
0.833969 0.640089 0.284832
0.841178 0.642211 0.285934
0.845779 0.643506 0.286665
0.848213 0.644206 0.287147
0.850029 0.644708 0.287546
0.851847 0.645268 0.287991
0.853665 0.645791 0.288444
0.278531 0.535476 0.232858
0.283183 0.536870 0.233287
0.295330 0.539808 0.234318
0.307723 0.542754 0.235359
0.324194 0.546380 0.236755
0.341327 0.550110 0.238212
0.361553 0.554399 0.239953
0.382512 0.558765 0.241733
0.405847 0.563592 0.243764
0.429849 0.568518 0.245866
0.455590 0.573750 0.248154
0.481732 0.579013 0.250455
0.509109 0.584546 0.252895
0.536745 0.590113 0.255344
0.564914 0.595790 0.257868
0.593108 0.601430 0.260371
0.621172 0.607063 0.262880
0.649022 0.612629 0.265383
0.676284 0.618148 0.267872
0.702607 0.623497 0.270307
0.728089 0.628704 0.272696
0.751373 0.633549 0.274936
0.773982 0.638305 0.277152
0.792705 0.642525 0.279133
0.810249 0.646570 0.281052
0.822859 0.649848 0.282619
0.833712 0.652733 0.284032
0.840960 0.654884 0.285104
0.845807 0.656237 0.285836
0.848197 0.656943 0.286261
0.850018 0.657473 0.286644
0.851839 0.658038 0.287066
0.853661 0.658541 0.287481
0.279212 0.548687 0.232992
0.283954 0.550102 0.233422
0.296060 0.552978 0.234419
0.308407 0.555898 0.235435
0.324902 0.559514 0.236807
0.342009 0.563215 0.238234
0.362268 0.567485 0.239954
0.383117 0.571817 0.241710
0.406381 0.576588 0.243702
0.430255 0.581456 0.245758
0.455951 0.586678 0.248013
0.482048 0.591925 0.250295
0.509245 0.597381 0.252694
0.536797 0.602835 0.255109
0.564771 0.608344 0.257595
0.592894 0.613877 0.260073
0.620830 0.619378 0.262544
0.648555 0.624830 0.265007
0.675705 0.630239 0.267454
0.701965 0.635502 0.269848
0.727376 0.640636 0.272196
0.750729 0.645477 0.274408
0.773302 0.650183 0.276573
0.792106 0.654383 0.278513
0.809789 0.658423 0.280392
0.822440 0.661700 0.281918
0.833418 0.664595 0.283291
0.840699 0.666765 0.284334
0.845818 0.668243 0.285068
0.848175 0.668945 0.285444
0.850000 0.669510 0.285805
0.851825 0.670092 0.286199
0.853651 0.670619 0.286589
0.279820 0.561263 0.233088
0.284598 0.562549 0.233506
0.296630 0.565249 0.234459
0.308956 0.568004 0.235447
0.325485 0.571447 0.236799
0.342517 0.574991 0.238192
0.362754 0.579091 0.239880
0.383591 0.583280 0.241623
0.406784 0.587870 0.243578
0.430536 0.592570 0.245589
0.456138 0.597615 0.247814
0.482094 0.602691 0.250070
0.509298 0.608005 0.252452
0.536676 0.613332 0.254835
0.564599 0.618819 0.257299
0.592625 0.624292 0.259761
0.620477 0.629757 0.262220
0.648093 0.635171 0.264652
0.675120 0.640525 0.267061
0.701316 0.645751 0.269429
0.726658 0.650855 0.271744
0.750036 0.655689 0.273937
0.772599 0.660390 0.276078
0.791511 0.664602 0.277987
0.809317 0.668624 0.279833
