public/luts/keynote_b.cube
# framediff hero grade: per-segment fit for keynote_b
# generated by gradefit.py
LUT_3D_SIZE 33
DOMAIN_MIN 0 0 0
DOMAIN_MAX 1 1 1
0.008405 0.017819 0.073999
0.031324 0.017927 0.073639
0.054242 0.018035 0.073279
0.087835 0.029886 0.082956
0.121428 0.041738 0.092634
0.157226 0.055008 0.107309
0.193024 0.068278 0.121984
0.226120 0.077004 0.132487
0.259216 0.085731 0.142990
0.291038 0.092987 0.150263
0.322859 0.100242 0.157536
0.353468 0.107593 0.163486
0.384076 0.114944 0.169437
0.414775 0.122077 0.174613
0.445473 0.129211 0.179790
0.474486 0.135870 0.184869
0.503498 0.142529 0.189948
0.531207 0.150293 0.196100
0.558915 0.158057 0.202252
0.584318 0.169167 0.211994
0.609721 0.180277 0.221737
0.632266 0.195329 0.236146
0.654812 0.210382 0.250554
0.675501 0.221979 0.261763
0.696190 0.233576 0.272971
0.714438 0.241780 0.280957
0.732687 0.249985 0.288942
0.747726 0.255597 0.294449
0.762765 0.261209 0.299955
0.773744 0.264775 0.303480
0.784722 0.268341 0.307005
0.790631 0.270113 0.308766
0.796540 0.271884 0.310527
0.029510 0.037378 0.090394
0.048202 0.037036 0.087539
0.066894 0.036695 0.084684
0.097988 0.047072 0.090720
0.129083 0.057448 0.096756
0.162534 0.066785 0.107387
0.195986 0.076121 0.118018
0.228437 0.084399 0.130171
0.260889 0.092676 0.142323
0.292214 0.099675 0.149624
0.323540 0.106675 0.156925
0.354136 0.114156 0.163363
0.384732 0.121637 0.169800
0.415193 0.128730 0.175419
0.445654 0.135823 0.181039
0.474510 0.142726 0.186658
0.503366 0.149629 0.192277
0.530835 0.157996 0.199126
0.558304 0.166364 0.205974
0.583787 0.177847 0.216033
0.609270 0.189330 0.226091
0.632203 0.203539 0.239555
0.655135 0.217748 0.253018
0.676008 0.228763 0.263630
0.696881 0.239778 0.274242
0.715191 0.247675 0.281936
0.733500 0.255572 0.289631
0.748544 0.261032 0.295005
0.763588 0.266492 0.300380
0.774551 0.269985 0.303848
0.785514 0.273478 0.307316
0.791408 0.275220 0.309055
0.797303 0.276962 0.310795
0.050615 0.056936 0.106789
0.065080 0.056146 0.101439
0.079546 0.055356 0.096089
0.108142 0.064257 0.098483
0.136738 0.073158 0.100878
0.167843 0.078561 0.107465
0.198948 0.083964 0.114053
0.230755 0.091793 0.127855
0.262562 0.099622 0.141656
0.293391 0.106364 0.148985
0.324220 0.113107 0.156314
0.354803 0.120718 0.163239
0.385387 0.128330 0.170163
0.415611 0.135383 0.176226
0.445835 0.142436 0.182288
0.474534 0.149582 0.188447
0.503233 0.156729 0.194607
0.530463 0.165700 0.202152
0.557694 0.174671 0.209697
0.583257 0.186527 0.220071
0.608819 0.198384 0.230444
0.632139 0.211749 0.242963
0.655459 0.225115 0.255483
0.676516 0.235548 0.265498
0.697572 0.245981 0.275514
0.715943 0.253570 0.282916
0.734314 0.261160 0.290319
0.749362 0.266467 0.295561
0.764411 0.271775 0.300804
0.775358 0.275195 0.304215
0.786306 0.278615 0.307626
0.792186 0.280328 0.309344
0.798065 0.282041 0.311063
0.073157 0.084267 0.125695
0.085908 0.084534 0.122356
0.098658 0.084802 0.119018
0.123229 0.091262 0.120157
0.147799 0.097721 0.121295
0.176425 0.102671 0.125418
0.205051 0.107621 0.129540
0.235289 0.113108 0.136684
0.265527 0.118595 0.143828
0.295310 0.124576 0.150414
0.325094 0.130558 0.157001
0.355859 0.138228 0.166064
0.386625 0.145899 0.175128
0.416491 0.153087 0.182123
0.446357 0.160275 0.189119
0.475008 0.167716 0.195851
0.503658 0.175157 0.202583
0.530986 0.183955 0.210202
0.558313 0.192753 0.217821
0.584019 0.203582 0.227434
0.609724 0.214411 0.237046
0.633279 0.226147 0.248080
0.656833 0.237883 0.259113
0.678031 0.247374 0.268277
0.699230 0.256865 0.277442
0.717640 0.263974 0.284430
0.736049 0.271083 0.291419
0.751070 0.276150 0.296471
0.766092 0.281217 0.301523
0.776990 0.284519 0.304850
0.787889 0.287822 0.308178
0.793733 0.289486 0.309866
0.799576 0.291150 0.311553
0.095700 0.111597 0.144600
0.106735 0.112923 0.143274
0.117771 0.114249 0.141948
0.138316 0.118266 0.141830
0.158860 0.122284 0.141713
0.185007 0.126781 0.143370
0.211154 0.131278 0.145026
0.239823 0.134423 0.145513
0.268491 0.137568 0.146000
0.297230 0.142788 0.151844
0.325968 0.148009 0.157687
0.356916 0.155738 0.168889
0.387863 0.163468 0.180092
0.417371 0.170791 0.188021
0.446880 0.178114 0.195950
0.475481 0.185850 0.203255
0.504083 0.193586 0.210559
0.531508 0.202210 0.218252
0.558933 0.210835 0.225945
0.584781 0.220637 0.234797
0.610629 0.230439 0.243648
0.634418 0.240545 0.253196
0.658207 0.250652 0.262743
0.679547 0.259200 0.271056
0.700887 0.267749 0.279370
0.719336 0.274377 0.285944
0.737785 0.281006 0.292519
0.752779 0.285833 0.297380
0.767773 0.290659 0.302242
0.778622 0.293844 0.305486
0.789472 0.297028 0.308730
0.795280 0.298644 0.310387
0.801087 0.300259 0.312044
0.114312 0.139144 0.159943
0.124406 0.140494 0.159107
0.134500 0.141844 0.158271
0.153122 0.145232 0.158187
0.171743 0.148620 0.158103
0.195845 0.152610 0.159290
0.219947 0.156601 0.160476
0.247217 0.159918 0.161253
0.274488 0.163236 0.162030
0.302552 0.167984 0.166669
0.330617 0.172731 0.171309
0.360570 0.179383 0.180029
0.390524 0.186034 0.188749
0.419647 0.192833 0.196236
0.448769 0.199632 0.203723
0.477252 0.206929 0.210726
0.505734 0.214226 0.217729
0.533279 0.222207 0.224920
0.560824 0.230187 0.232112
0.586839 0.239040 0.240202
0.612854 0.247893 0.248291
0.636836 0.256945 0.256982
0.660818 0.265997 0.265672
0.682244 0.273827 0.273421
0.703670 0.281656 0.281170
0.722102 0.287868 0.287432
0.740534 0.294080 0.293695
0.755434 0.298675 0.298401
0.770334 0.303271 0.303107
0.781075 0.306332 0.306281
0.791815 0.309393 0.309454
0.797552 0.310955 0.311083
0.803289 0.312516 0.312713
0.132924 0.166691 0.175285
0.142077 0.168065 0.174939
0.151230 0.169440 0.174594
0.167928 0.172198 0.174544
0.184626 0.174957 0.174493
0.206683 0.178440 0.175210
0.228741 0.181923 0.175927
0.254612 0.185414 0.176993
0.280484 0.188905 0.178060
0.307875 0.193179 0.181495
0.335265 0.197453 0.184931
0.364225 0.203027 0.191168
0.393185 0.208601 0.197406
0.421922 0.214875 0.204451
0.450659 0.221150 0.211495
0.479022 0.228008 0.218197
0.507385 0.234867 0.224898
0.535050 0.242203 0.231588
0.562714 0.249540 0.238279
0.588897 0.257443 0.245607
0.615079 0.265347 0.252934
0.639254 0.273345 0.260768
0.663429 0.281343 0.268602
0.684941 0.288453 0.275786
0.706453 0.295564 0.282970
0.724868 0.301358 0.288921
0.743283 0.307153 0.294871
0.758090 0.311518 0.299422
0.772896 0.315882 0.303973
0.783527 0.318820 0.307075
0.794159 0.321758 0.310178
0.799825 0.323266 0.311780
0.805491 0.324773 0.313382
0.147483 0.193204 0.187207
0.156096 0.194495 0.187071
0.164710 0.195787 0.186936
0.180377 0.198286 0.187071
0.196044 0.200785 0.187207
0.216893 0.204000 0.187974
0.237741 0.207215 0.188742
0.262373 0.210625 0.189976
0.287004 0.214036 0.191209
0.313567 0.218057 0.194193
0.340130 0.222078 0.197178
0.368315 0.227087 0.202255
0.396500 0.232096 0.207333
0.424867 0.237803 0.213284
0.453233 0.243510 0.219235
0.481507 0.249725 0.225103
0.509780 0.255941 0.230970
0.537658 0.262502 0.236798
0.565537 0.269064 0.242626
0.591931 0.276213 0.249234
0.618325 0.283362 0.255842
0.642764 0.290740 0.263242
0.667203 0.298118 0.270641
0.688764 0.304785 0.277551
0.710326 0.311452 0.284460
0.728671 0.316968 0.290236
0.747015 0.322484 0.296011
0.761634 0.326672 0.300469
0.776254 0.330860 0.304928
0.786692 0.333691 0.307986
0.797130 0.336523 0.311045
0.802678 0.337980 0.312630
0.808226 0.339437 0.314216
0.162041 0.219717 0.199129
0.170116 0.220925 0.199203
0.178190 0.222134 0.199277
0.192826 0.224374 0.199599
0.207463 0.226614 0.199920
0.227102 0.229560 0.200739
0.246742 0.232507 0.201557
0.270133 0.235837 0.202958
0.293524 0.239167 0.204359
0.319259 0.242936 0.206892
0.344995 0.246704 0.209425
0.372405 0.251148 0.213342
0.399815 0.255591 0.217259
0.427811 0.260731 0.222117
0.455808 0.265871 0.226975
0.483991 0.271442 0.232009
0.512175 0.277014 0.237042
0.540267 0.282801 0.242008
0.568359 0.288588 0.246974
0.594964 0.294982 0.252862
0.621570 0.301376 0.258751
0.646273 0.308135 0.265716
0.670976 0.314893 0.272681
0.692588 0.321117 0.279316
0.714200 0.327341 0.285951
0.732473 0.332578 0.291551
0.750746 0.337815 0.297151
0.765179 0.341826 0.301517
0.779612 0.345837 0.305883
0.789856 0.348563 0.308898
0.800101 0.351288 0.311913
0.805531 0.352695 0.313481
0.810962 0.354101 0.315049
0.173269 0.245087 0.208370
0.181019 0.246222 0.208563
0.188769 0.247357 0.208757
0.202801 0.249446 0.209235
0.216834 0.251535 0.209713
0.235716 0.254306 0.210651
0.254597 0.257077 0.211589
0.277149 0.260267 0.213072
0.299701 0.263458 0.214555
0.324718 0.267053 0.216928
0.349734 0.270648 0.219300
0.376519 0.274788 0.222724
0.403303 0.278927 0.226147
0.430928 0.283637 0.230331
0.458554 0.288346 0.234515
0.486557 0.293433 0.238931
0.514560 0.298521 0.243347
0.542578 0.303877 0.247882
0.570596 0.309234 0.252416
0.597580 0.315031 0.257668
0.624564 0.320828 0.262920
0.649885 0.326863 0.268911
0.675207 0.332899 0.274902
0.696911 0.338791 0.281233
0.718614 0.344683 0.287565
0.736843 0.349742 0.292995
0.755073 0.354800 0.298424
0.769240 0.358679 0.302714
0.783408 0.362558 0.307003
0.793380 0.365192 0.309984
0.803353 0.367826 0.312964
0.808624 0.369186 0.314517
0.813896 0.370546 0.316071
0.184496 0.270457 0.217612
0.191922 0.271519 0.217924
0.199348 0.272581 0.218236
0.212776 0.274519 0.218871
0.226205 0.276457 0.219506
0.244329 0.279052 0.220564
0.262452 0.281647 0.221621
0.284165 0.284697 0.223186
0.305878 0.287748 0.224751
0.330176 0.291170 0.226964
0.354474 0.294593 0.229176
0.380633 0.298428 0.232105
0.406792 0.302263 0.235035
0.434046 0.306542 0.238544
0.461299 0.310822 0.242054
0.489122 0.315425 0.245853
0.516945 0.320028 0.249653
0.544890 0.324954 0.253755
0.572834 0.329880 0.257858
0.600196 0.335079 0.262474
0.627557 0.340279 0.267090
0.653498 0.345592 0.272106
0.679439 0.350905 0.277123
0.701234 0.356465 0.283151
0.723028 0.362025 0.289179
0.741214 0.366905 0.294439
0.759399 0.371786 0.299698
0.773302 0.375532 0.303911
0.787204 0.379279 0.308124
0.796904 0.381821 0.311070
0.806605 0.384363 0.314015
0.811718 0.385677 0.315554
0.816831 0.386990 0.317092
0.193113 0.294756 0.224807
0.200336 0.295764 0.225192
0.207558 0.296772 0.225576
0.220608 0.298609 0.226320
0.233659 0.300446 0.227064
0.251290 0.302916 0.228221
0.268921 0.305385 0.229378
0.290077 0.308310 0.231000
0.311234 0.311235 0.232623
0.334992 0.314523 0.234789
0.358751 0.317811 0.236956
0.384413 0.321463 0.239696
0.410076 0.325115 0.242436
0.436952 0.329140 0.245647
0.463829 0.333165 0.248859
0.491395 0.337472 0.252352
0.518960 0.341779 0.255845
0.546756 0.346358 0.259638
0.574553 0.350937 0.263430
0.601943 0.355718 0.267642
0.629333 0.360499 0.271855
0.655440 0.365376 0.276414
0.681547 0.370253 0.280974
0.703909 0.375423 0.286325
0.726271 0.380593 0.291677
0.744704 0.385296 0.296570
0.763137 0.389999 0.301463
0.776843 0.393613 0.305526
0.790549 0.397227 0.309588
0.800007 0.399679 0.312462
0.809466 0.402131 0.315336
0.814436 0.403398 0.316843
0.819406 0.404665 0.318350
0.201731 0.319055 0.232002
0.208749 0.320009 0.232460
0.215768 0.320964 0.232917
0.228440 0.322699 0.233770
0.241112 0.324435 0.234622
0.258250 0.326779 0.235878
0.275389 0.329124 0.237134
0.295989 0.331923 0.238814
0.316589 0.334723 0.240494
0.339808 0.337876 0.242615
0.363027 0.341030 0.244735
0.388194 0.344499 0.247286
0.413360 0.347968 0.249837
0.439859 0.351738 0.252751
0.466358 0.355507 0.255664
0.493667 0.359519 0.258851
0.520975 0.363531 0.262038
0.548623 0.367762 0.265520
0.576271 0.371994 0.269001
0.603690 0.376357 0.272811
0.631108 0.380720 0.276620
0.657382 0.385160 0.280722
0.683655 0.389600 0.284824
0.706584 0.394381 0.289499
0.729513 0.399162 0.294174
0.748194 0.403687 0.298701
0.766874 0.408212 0.303228
0.780383 0.411694 0.307140
0.793893 0.415176 0.311053
0.803110 0.417537 0.313855
0.812328 0.419899 0.316657
0.817155 0.421120 0.318132
0.821982 0.422341 0.319607
0.208329 0.342339 0.237633
0.215215 0.343256 0.238135
0.222101 0.344173 0.238638
0.234527 0.345839 0.239562
0.246952 0.347505 0.240487
0.263761 0.349760 0.241814
0.280569 0.352015 0.243141
0.300791 0.354717 0.244869
0.321012 0.357420 0.246596
0.343837 0.360470 0.248718
0.366662 0.363521 0.250839
0.391439 0.366869 0.253330
0.416216 0.370216 0.255820
0.442361 0.373833 0.258621
0.468506 0.377450 0.261422
0.495506 0.381282 0.264470
0.522506 0.385115 0.267518
0.549880 0.389134 0.270826
0.577254 0.393152 0.274134
0.604421 0.397287 0.277719
0.631588 0.401421 0.281303
0.657641 0.405633 0.285137
0.683693 0.409846 0.288970
0.706759 0.414296 0.293208
0.729825 0.418746 0.297446
0.748822 0.422954 0.301577
0.767819 0.427162 0.305707
0.781589 0.430500 0.309352
0.795360 0.433838 0.312998
0.804633 0.436112 0.315649
0.813907 0.438387 0.318301
0.818725 0.439564 0.319709
0.823543 0.440742 0.321117
0.214928 0.365623 0.243264
0.221682 0.366503 0.243811
0.228435 0.367382 0.244359
0.240613 0.368979 0.245355
0.252791 0.370575 0.246352
0.269271 0.372740 0.247750
0.285750 0.374906 0.249149
0.305592 0.377511 0.250924
0.325435 0.380116 0.252699
0.347866 0.383064 0.254821
0.370297 0.386012 0.256943
0.394684 0.389238 0.259373
0.419072 0.392465 0.261803
0.444863 0.395929 0.264491
0.470654 0.399393 0.267180
0.497345 0.403046 0.270089
0.524036 0.406699 0.272998
0.551136 0.410505 0.276132
0.578236 0.414311 0.279267
0.605153 0.418217 0.282626
0.632069 0.422122 0.285986
0.657900 0.426107 0.289551
0.683731 0.430092 0.293116
0.706933 0.434211 0.296917
0.730136 0.438330 0.300719
0.749450 0.442221 0.304452
0.768764 0.446112 0.308186
0.782795 0.449306 0.311564
0.796827 0.452499 0.314943
0.806156 0.454687 0.317444
0.815486 0.456875 0.319945
0.820295 0.458009 0.321286
0.825104 0.459143 0.322628
0.219972 0.387894 0.247690
0.226636 0.388748 0.248266
0.233301 0.389601 0.248842
0.245312 0.391150 0.249885
0.257324 0.392698 0.250928
0.273576 0.394800 0.252377
0.289829 0.396902 0.253825
0.309404 0.399436 0.255639
0.328978 0.401970 0.257452
0.351116 0.404840 0.259591
0.373255 0.407711 0.261730
0.397333 0.410853 0.264150
0.421411 0.413994 0.266570
0.446886 0.417359 0.269223
0.472360 0.420724 0.271876
0.498730 0.424264 0.274728
0.525099 0.427805 0.277579
0.551862 0.431482 0.280625
0.578624 0.435160 0.283671
0.605177 0.438926 0.286903
0.631730 0.442692 0.290136
0.657201 0.446518 0.293529
0.682672 0.450344 0.296922
0.705700 0.454231 0.300466
0.728728 0.458117 0.304010
0.748075 0.461764 0.307467
0.767422 0.465411 0.310923
0.781804 0.468427 0.314037
0.796187 0.471444 0.317151
0.805806 0.473535 0.319474
0.815424 0.475627 0.321797
0.820370 0.476719 0.323054
0.825316 0.477811 0.324310
0.225015 0.410165 0.252116
0.231591 0.410992 0.252720
0.238167 0.411820 0.253325
0.250011 0.413320 0.254414
0.261856 0.414821 0.255504
0.277882 0.416860 0.257003
0.293908 0.418898 0.258501
0.313215 0.421360 0.260354
0.332522 0.423823 0.262206
0.354367 0.426617 0.264362
0.376213 0.429411 0.266518
0.399982 0.432467 0.268928
0.423751 0.435524 0.271338
0.448909 0.438789 0.273955
0.474067 0.442055 0.276573
0.500114 0.445483 0.279366
0.526162 0.448911 0.282160
0.552587 0.452460 0.285117
0.579013 0.456009 0.288075
0.605202 0.459635 0.291180
0.631392 0.463262 0.294286
0.656503 0.466930 0.297507
0.681614 0.470597 0.300729
0.704467 0.474250 0.304015
0.727319 0.477904 0.307302
0.746699 0.481307 0.310482
0.766079 0.484709 0.313661
0.780813 0.487549 0.316510
0.795547 0.490388 0.319360
0.805455 0.492384 0.321505
0.815363 0.494379 0.323649
0.820446 0.495429 0.324821
0.825528 0.496478 0.325993
0.228860 0.431357 0.255607
0.235375 0.432167 0.256229
0.241890 0.432976 0.256851
0.253619 0.434444 0.257971
0.265347 0.435911 0.259092
0.281212 0.437905 0.260624
0.297077 0.439899 0.262157
0.316189 0.442309 0.264039
0.335300 0.444720 0.265921
0.356922 0.447457 0.268097
0.378544 0.450194 0.270273
0.402065 0.453188 0.272690
0.425585 0.456182 0.275107
0.450468 0.459379 0.277718
0.475351 0.462575 0.280329
0.501096 0.465925 0.283100
0.526841 0.469276 0.285871
0.552929 0.472737 0.288782
0.579017 0.476198 0.291694
0.604836 0.479724 0.294723
0.630654 0.483250 0.297753
0.655396 0.486793 0.300861
0.680138 0.490337 0.303970
0.702725 0.493825 0.307096
0.725312 0.497313 0.310222
0.744608 0.500539 0.313213
0.763905 0.503764 0.316205
0.778830 0.506456 0.318858
0.793754 0.509148 0.321510
0.803940 0.511058 0.323509
0.814125 0.512968 0.325508
0.819375 0.513981 0.326605
0.824625 0.514994 0.327703
0.232705 0.452549 0.259097
0.239159 0.453341 0.259737
0.245613 0.454133 0.260378
0.257226 0.455567 0.261528
0.268839 0.457001 0.262679
0.284543 0.458950 0.264246
0.300247 0.460900 0.265813
0.319163 0.463258 0.267725
0.338078 0.465616 0.269637
0.359477 0.468296 0.271833
0.380876 0.470977 0.274028
0.404147 0.473909 0.276452
0.427419 0.476841 0.278876
0.452027 0.479968 0.281481
0.476636 0.483095 0.284085
0.502078 0.486368 0.286833
0.527520 0.489641 0.289581
0.553270 0.493014 0.292447
0.579021 0.496387 0.295313
0.604469 0.499812 0.298266
0.629917 0.503237 0.301220
0.654289 0.506657 0.304216
0.678661 0.510077 0.307212
0.700983 0.513400 0.310177
0.723304 0.516723 0.313143
0.742518 0.519771 0.315945
0.761731 0.522818 0.318748
0.776846 0.525363 0.321205
0.791961 0.527908 0.323661
0.802424 0.529733 0.325514
0.812887 0.531558 0.327367
0.818305 0.532534 0.328390
0.823723 0.533509 0.329413
0.235626 0.472528 0.261853
0.242037 0.473308 0.262505
0.248448 0.474088 0.263156
0.259978 0.475499 0.264327
0.271507 0.476910 0.265497
0.287094 0.478828 0.267088
0.302681 0.480745 0.268678
0.321450 0.483066 0.270612
0.340219 0.485386 0.272546
0.361444 0.488024 0.274759
0.382669 0.490662 0.276972
0.405739 0.493547 0.279406
0.428809 0.496433 0.281841
0.453186 0.499508 0.284447
0.477562 0.502584 0.287054
0.502738 0.505798 0.289793
0.527914 0.509012 0.292532
0.553363 0.512318 0.295372
0.578812 0.515624 0.298211
0.603930 0.518969 0.301116
0.629049 0.522314 0.304021
0.653095 0.525636 0.306942
0.677141 0.528958 0.309862
0.699206 0.532160 0.312722
0.721271 0.535362 0.315582
0.740367 0.538282 0.318259
0.759463 0.541203 0.320936
0.774649 0.543640 0.323261
0.789835 0.546077 0.325587
0.800470 0.547835 0.327337
0.811106 0.549593 0.329088
0.816645 0.550539 0.330056
0.822185 0.551484 0.331024
0.238547 0.492507 0.264609
0.244915 0.493275 0.265272
0.251282 0.494043 0.265935
0.262729 0.495431 0.267125
0.274176 0.496819 0.268315
0.289646 0.498705 0.269929
0.305116 0.500591 0.271543
0.323738 0.502874 0.273499
0.342359 0.505156 0.275455
0.363411 0.507752 0.277685
0.384462 0.510347 0.279915
0.407331 0.513186 0.282360
0.430199 0.516025 0.284805
0.454344 0.519048 0.287414
0.478489 0.522072 0.290023
0.503399 0.525228 0.292753
0.528309 0.528384 0.295483
0.553456 0.531622 0.298296
0.578603 0.534861 0.301110
0.603392 0.538126 0.303967
0.628180 0.541392 0.306823
0.651900 0.544615 0.309668
0.675620 0.547838 0.312512
0.697429 0.550919 0.315267
0.719237 0.554001 0.318022
0.738216 0.556794 0.320573
0.757195 0.559588 0.323124
0.772452 0.561917 0.325318
0.787709 0.564246 0.327512
0.798517 0.565937 0.329160
0.809325 0.567628 0.330808
0.814986 0.568543 0.331722
0.820647 0.569459 0.332636
0.240752 0.511068 0.266779
0.247088 0.511827 0.267449
0.253425 0.512586 0.268120
0.264812 0.513958 0.269323
0.276198 0.515330 0.270526
0.291581 0.517193 0.272155
0.306963 0.519057 0.273785
0.325473 0.521312 0.275756
0.343983 0.523567 0.277727
0.364898 0.526131 0.279971
0.385814 0.528695 0.282214
0.408520 0.531498 0.284668
0.431227 0.534301 0.287122
0.455181 0.537284 0.289734
0.479135 0.540267 0.292347
0.503823 0.543377 0.295072
0.528510 0.546487 0.297798
0.553405 0.549671 0.300595
0.578299 0.552855 0.303392
0.602815 0.556056 0.306216
0.627330 0.559257 0.309040
0.650782 0.562402 0.311833
0.674235 0.565548 0.314626
0.695825 0.568540 0.317311
0.717416 0.571532 0.319996
0.736275 0.574235 0.322464
0.755134 0.576937 0.324932
0.770394 0.579189 0.327042
0.785653 0.581441 0.329152
0.796542 0.583082 0.330733
0.807430 0.584723 0.332314
0.813157 0.585615 0.333192
0.818885 0.586507 0.334069
0.242957 0.529628 0.268950
0.249262 0.530379 0.269627
0.255568 0.531130 0.270304
0.266894 0.532485 0.271520
0.278220 0.533841 0.272736
0.293515 0.535682 0.274381
0.308810 0.537523 0.276026
0.327209 0.539750 0.278013
0.345607 0.541978 0.280000
0.366386 0.544510 0.282256
0.387165 0.547042 0.284512
0.409710 0.549809 0.286976
0.432255 0.552577 0.289439
0.456018 0.555520 0.292055
0.479781 0.558463 0.294671
0.504246 0.561526 0.297392
0.528712 0.564590 0.300113
0.553353 0.567720 0.302894
0.577995 0.570850 0.305674
0.602238 0.573986 0.308465
0.626480 0.577122 0.311256
0.649664 0.580190 0.313998
0.672849 0.583258 0.316741
0.694222 0.586161 0.319355
0.715595 0.589063 0.321970
0.734334 0.591675 0.324356
0.753072 0.594286 0.326741
0.768335 0.596462 0.328766
0.783597 0.598637 0.330792
0.794566 0.600227 0.332307
0.805535 0.601818 0.333821
0.811329 0.602687 0.334662
0.817122 0.603555 0.335503
0.244603 0.546481 0.270643
0.250885 0.547226 0.271325
0.257168 0.547972 0.272007
0.268450 0.549316 0.273231
0.279732 0.550660 0.274455
0.294962 0.552485 0.276111
0.310192 0.554309 0.277766
0.328505 0.556517 0.279764
0.346818 0.558724 0.281761
0.367491 0.561232 0.284026
0.388165 0.563741 0.286292
0.410581 0.566481 0.288762
0.432998 0.569221 0.291231
0.456609 0.572132 0.293850
0.480219 0.575043 0.296469
0.504507 0.578070 0.299187
0.528794 0.581097 0.301905
0.553234 0.584184 0.304673
0.577674 0.587270 0.307442
0.601700 0.590355 0.310211
0.625726 0.593439 0.312979
0.648700 0.596447 0.315686
0.671674 0.599454 0.318393
0.692872 0.602291 0.320962
0.714069 0.605127 0.323531
0.732698 0.607673 0.325862
0.751326 0.610220 0.328193
0.766557 0.612340 0.330166
0.781788 0.614460 0.332139
0.792779 0.616014 0.333611
0.803771 0.617568 0.335083
0.809591 0.618418 0.335900
0.815411 0.619268 0.336718
0.246248 0.563335 0.272337
0.252509 0.564074 0.273024
0.258769 0.564813 0.273710
0.270006 0.566146 0.274942
0.281244 0.567479 0.276175
0.296408 0.569287 0.277840
0.311573 0.571096 0.279506
0.329801 0.573283 0.281514
0.348028 0.575471 0.283522
0.368596 0.577955 0.285796
0.389164 0.580439 0.288071
0.411453 0.583152 0.290547
0.433741 0.585865 0.293024
0.457200 0.588744 0.295645
0.480658 0.591624 0.298267
0.504767 0.594614 0.300982
0.528876 0.597604 0.303696
0.553114 0.600647 0.306453
0.577352 0.603690 0.309210
0.601162 0.606723 0.311956
0.624972 0.609756 0.314702
0.647736 0.612703 0.317374
0.670499 0.615651 0.320046
0.691521 0.618421 0.322569
0.712543 0.621191 0.325091
0.731061 0.623672 0.327368
0.749580 0.626153 0.329646
0.764779 0.628218 0.331566
0.779978 0.630284 0.333485
0.790992 0.631800 0.334915
0.802006 0.633317 0.336345
0.807853 0.634150 0.337139
0.813699 0.634982 0.337934
0.247452 0.578101 0.273632
0.253696 0.578836 0.274321
0.259939 0.579571 0.275010
0.271144 0.580896 0.276248
0.282349 0.582221 0.277486
0.297466 0.584018 0.279158
0.312582 0.585815 0.280830
0.330746 0.587988 0.282845
0.348910 0.590160 0.284859
0.369398 0.592627 0.287140
0.389885 0.595094 0.289420
0.412076 0.597786 0.291901
0.434267 0.600478 0.294382
0.457608 0.603333 0.297005
0.480949 0.606189 0.299628
0.504921 0.609150 0.302340
0.528893 0.612112 0.305052
0.552977 0.615121 0.307800
0.577061 0.618130 0.310549
0.600708 0.621122 0.313279
0.624354 0.624115 0.316009
0.646958 0.627017 0.318658
0.669561 0.629920 0.321306
0.690448 0.632641 0.323798
0.711334 0.635363 0.326290
0.729758 0.637797 0.328534
0.748183 0.640232 0.330777
0.763338 0.642258 0.332663
0.778493 0.644285 0.334550
0.789500 0.645775 0.335953
0.800507 0.647265 0.337357
0.806357 0.648084 0.338137
0.812207 0.648903 0.338917
0.248655 0.592867 0.274926
0.254882 0.593598 0.275619
0.261110 0.594329 0.276311
0.272282 0.595646 0.277554
0.283455 0.596963 0.278796
0.298523 0.598749 0.280475
0.313592 0.600534 0.282154
0.331692 0.602692 0.284175
0.349792 0.604850 0.286197
0.370199 0.607299 0.288483
0.390607 0.609749 0.290770
0.412699 0.612420 0.293255
0.434792 0.615091 0.295740
0.458016 0.617922 0.298364
0.481240 0.620753 0.300989
0.505075 0.623686 0.303698
0.528910 0.626619 0.306407
0.552840 0.629594 0.309147
0.576770 0.632569 0.311887
0.600253 0.635522 0.314602
0.623735 0.638475 0.317316
0.646180 0.641332 0.319941
0.668624 0.644189 0.322567
0.689374 0.646862 0.325028
0.710125 0.649535 0.327489
0.728455 0.651923 0.329699
