public/luts/keynote_b.cube
# framediff hero grade: per-segment fit for keynote_b
# generated by gradefit.py
LUT_3D_SIZE 9
DOMAIN_MIN 0 0 0
DOMAIN_MAX 1 1 1
0.008405 0.017819 0.073999
0.121428 0.041738 0.092634
0.259216 0.085731 0.142990
0.384076 0.114944 0.169437
0.503498 0.142529 0.189948
0.609721 0.180277 0.221737
0.696190 0.233576 0.272971
0.762765 0.261209 0.299955
0.796540 0.271884 0.310527
0.095700 0.111597 0.144600
0.158860 0.122284 0.141713
0.268491 0.137568 0.146000
0.387863 0.163468 0.180092
0.504083 0.193586 0.210559
0.610629 0.230439 0.243648
0.700887 0.267749 0.279370
0.767773 0.290659 0.302242
0.801087 0.300259 0.312044
0.162041 0.219717 0.199129
0.207463 0.226614 0.199920
0.293524 0.239167 0.204359
0.399815 0.255591 0.217259
0.512175 0.277014 0.237042
0.621570 0.301376 0.258751
0.714200 0.327341 0.285951
0.779612 0.345837 0.305883
0.810962 0.354101 0.315049
0.201731 0.319055 0.232002
0.241112 0.324435 0.234622
0.316589 0.334723 0.240494
0.413360 0.347968 0.249837
0.520975 0.363531 0.262038
0.631108 0.380720 0.276620
0.729513 0.399162 0.294174
0.793893 0.415176 0.311053
0.821982 0.422341 0.319607
0.225015 0.410165 0.252116
0.261856 0.414821 0.255504
0.332522 0.423823 0.262206
0.423751 0.435524 0.271338
0.526162 0.448911 0.282160
0.631392 0.463262 0.294286
0.727319 0.477904 0.307302
0.795547 0.490388 0.319360
0.825528 0.496478 0.325993
0.238547 0.492507 0.264609
0.274176 0.496819 0.268315
0.342359 0.505156 0.275455
0.430199 0.516025 0.284805
0.528309 0.528384 0.295483
0.628180 0.541392 0.306823
0.719237 0.554001 0.318022
0.787709 0.564246 0.327512
0.820647 0.569459 0.332636
0.246248 0.563335 0.272337
0.281244 0.567479 0.276175
0.348028 0.575471 0.283522
0.433741 0.585865 0.293024
0.528876 0.597604 0.303696
0.624972 0.609756 0.314702
0.712543 0.621191 0.325091
0.779978 0.630284 0.333485
0.813699 0.634982 0.337934
0.250342 0.617241 0.276820
0.285005 0.621304 0.280710
0.351023 0.629119 0.288143
0.435509 0.639250 0.297711
0.528892 0.650622 0.308371
0.622804 0.662263 0.319214
0.708339 0.673058 0.329249
0.774759 0.681573 0.337208
0.808368 0.685998 0.341396
0.251953 0.645179 0.278714
0.286486 0.649212 0.282621
0.352199 0.656959 0.290082
0.436186 0.666984 0.299669
0.528856 0.678204 0.310319
0.621892 0.689633 0.321100
0.706598 0.700178 0.331014
0.772517 0.708472 0.338835
0.805955 0.712790 0.342943
0.017201 0.028703 0.154875
0.117936 0.060845 0.171067
0.257157 0.089234 0.186708
0.384018 0.120322 0.201159
0.501517 0.152679 0.225095
0.608363 0.193479 0.259310
0.696046 0.240065 0.303585
0.763059 0.264313 0.327104
0.796818 0.273981 0.336649
0.082655 0.109254 0.189439
0.144868 0.134983 0.181851
0.262242 0.138376 0.195321
0.392891 0.147148 0.200425
0.501007 0.194488 0.237580
0.610289 0.238283 0.275524
0.701575 0.272601 0.308071
0.768643 0.293423 0.328881
0.801761 0.302287 0.337991
0.158691 0.220800 0.231851
0.203147 0.228438 0.230014
0.286558 0.243574 0.232719
0.397856 0.252346 0.232015
0.509943 0.276550 0.250733
0.625071 0.304133 0.282394
0.720874 0.330035 0.310527
0.784129 0.348367 0.331284
0.813419 0.356186 0.340611
0.201600 0.320411 0.260106
0.240837 0.325995 0.262158
0.315482 0.336529 0.267273
0.411871 0.349051 0.274732
0.522707 0.362630 0.282594
0.642715 0.377098 0.293909
0.778400 0.391669 0.305248
0.816244 0.418787 0.333432
0.829276 0.424917 0.344666
0.225821 0.411320 0.278265
0.262601 0.416021 0.281539
0.333021 0.425055 0.288083
0.424093 0.436676 0.296933
0.527926 0.449802 0.306852
0.638271 0.463848 0.317928
0.745353 0.479147 0.330251
0.818941 0.494014 0.343562
0.835930 0.499511 0.351170
0.239569 0.493423 0.289862
0.275180 0.497755 0.293565
0.343323 0.506126 0.300722
0.431248 0.517041 0.310100
0.530149 0.529505 0.320696
0.632413 0.542805 0.331907
0.727515 0.556101 0.343120
0.797994 0.567099 0.352842
0.828875 0.572320 0.358106
0.247288 0.564072 0.297161
0.282289 0.568236 0.301021
0.349108 0.576275 0.308427
0.434974 0.586758 0.318025
0.530622 0.598665 0.328801
0.627914 0.611124 0.339911
0.717253 0.623023 0.350428
0.785865 0.632540 0.358946
0.819505 0.637374 0.363444
0.251362 0.617873 0.301443
0.286044 0.621958 0.305361
0.352123 0.629828 0.312861
0.436768 0.640059 0.322538
0.530516 0.651600 0.333339
0.625106 0.663494 0.344338
0.711545 0.674608 0.354524
0.778674 0.683402 0.362598
0.812431 0.687952 0.366837
0.252962 0.645768 0.303266
0.287518 0.649824 0.307200
0.353298 0.657628 0.314729
0.437441 0.667756 0.324427
0.530417 0.679138 0.335224
0.623952 0.690794 0.346169
0.709277 0.701598 0.356241
0.775702 0.710115 0.364177
0.809265 0.714541 0.368338
0.029458 0.038549 0.262141
0.126445 0.090726 0.264158
0.261737 0.132129 0.275469
0.385758 0.162111 0.289741
0.499878 0.193363 0.311232
0.605375 0.225611 0.337558
0.695523 0.252537 0.361852
0.763199 0.270183 0.378624
0.796995 0.278048 0.386306
0.062899 0.108209 0.277660
0.130211 0.137450 0.268346
0.266141 0.173328 0.276831
0.390668 0.185506 0.286078
0.500602 0.220164 0.310183
0.609121 0.257278 0.340720
0.700882 0.282286 0.363716
0.768698 0.298764 0.379896
0.802044 0.306238 0.387496
0.155331 0.223720 0.295243
0.201821 0.233596 0.291159
0.285801 0.261710 0.287112
0.387610 0.269745 0.302690
0.508586 0.290337 0.319834
0.620279 0.316474 0.343426
0.716583 0.338142 0.365412
0.783795 0.353356 0.381917
0.814510 0.360198 0.389927
0.202731 0.323731 0.314042
0.242234 0.329613 0.315350
0.316774 0.339395 0.318744
0.401662 0.353141 0.330849
0.520279 0.365406 0.332593
0.640994 0.387087 0.340363
0.749531 0.408910 0.365369
0.814942 0.424284 0.384392
0.833956 0.429718 0.393835
0.227990 0.414004 0.328158
0.264738 0.418795 0.331305
0.334824 0.427847 0.337772
0.424335 0.439513 0.347391
0.528657 0.452935 0.356578
0.646913 0.467638 0.366098
0.776630 0.484458 0.378902
0.859997 0.505664 0.391664
0.849630 0.506098 0.400224
0.241813 0.495448 0.337886
0.277398 0.499832 0.341616
0.345453 0.508287 0.348915
0.433254 0.519328 0.358669
0.532949 0.532149 0.369515
0.639614 0.546363 0.380770
0.744560 0.561752 0.392330
0.821272 0.575029 0.402459
0.846285 0.579512 0.407498
0.249419 0.565641 0.344287
0.284431 0.569854 0.348208
0.351301 0.578009 0.355785
0.437383 0.588703 0.365694
0.533871 0.601022 0.376860
0.633595 0.614261 0.388359
0.727351 0.627437 0.399285
0.799655 0.638215 0.408149
0.833141 0.643326 0.412689
0.253397 0.619184 0.348148
0.288115 0.623321 0.352133
0.354312 0.631322 0.359805
0.439263 0.641796 0.369774
0.533733 0.653746 0.380974
0.629781 0.666274 0.392424
0.718391 0.678209 0.403040
0.787440 0.687748 0.411431
0.821749 0.692621 0.415793
0.254955 0.646978 0.349819
0.289557 0.651087 0.353822
0.355479 0.659028 0.361520
0.439943 0.669405 0.371502
0.533565 0.681184 0.382691
0.628201 0.693401 0.394092
0.714978 0.704864 0.404598
0.782672 0.713949 0.412854
0.816691 0.718650 0.417155
0.051309 0.057621 0.347883
0.152835 0.119009 0.356603
0.276363 0.165274 0.366398
0.393132 0.195107 0.378579
0.503643 0.220381 0.394909
0.606425 0.243721 0.413459
0.695703 0.262929 0.430378
0.763188 0.276377 0.442935
0.796853 0.282757 0.449074
0.069660 0.115170 0.362629
0.143471 0.147555 0.363920
0.278892 0.199199 0.369071
0.395169 0.226279 0.379510
0.505577 0.249943 0.395932
0.609609 0.273014 0.414895
0.700019 0.291583 0.431642
0.767888 0.304625 0.444129
0.801447 0.310841 0.450282
0.159414 0.230916 0.371887
0.204011 0.240848 0.372942
0.295840 0.269289 0.372681
0.398013 0.292446 0.382441
0.509500 0.309699 0.399848
0.617478 0.329167 0.417475
0.711445 0.346403 0.433867
0.780148 0.358898 0.446573
0.812948 0.364810 0.452926
0.207585 0.329818 0.382033
0.246809 0.336307 0.383979
0.322530 0.348516 0.385579
0.407878 0.374642 0.392317
0.509855 0.381379 0.406259
0.630421 0.399813 0.420295
0.733778 0.417394 0.436701
0.803459 0.429916 0.450464
0.832478 0.435040 0.457285
0.232188 0.418345 0.391522
0.268872 0.423358 0.394759
0.339207 0.432729 0.401165
0.429409 0.443092 0.413169
0.522106 0.457550 0.424684
0.648151 0.476086 0.434046
0.776010 0.501429 0.443673
0.846513 0.514524 0.457374
0.858247 0.514565 0.464102
0.245266 0.498475 0.398961
0.280811 0.502963 0.402784
0.348809 0.511606 0.410349
0.436327 0.522740 0.420995
0.534667 0.535908 0.433250
0.644659 0.551456 0.445117
0.764299 0.570224 0.457078
0.893369 0.595348 0.470981
0.875034 0.592736 0.472534
0.252390 0.567873 0.404231
0.287407 0.572170 0.408261
0.354317 0.580525 0.416134
0.440525 0.591560 0.426652
0.537507 0.604505 0.438763
0.639795 0.619012 0.451243
0.740675 0.634521 0.463006
0.823188 0.648418 0.472801
0.855839 0.653811 0.477209
0.256120 0.620998 0.407554
0.290881 0.625218 0.411651
0.357221 0.633436 0.419615
0.442528 0.644311 0.430116
0.537842 0.656944 0.442120
0.635783 0.670553 0.454538
0.727753 0.683953 0.466057
0.800453 0.694904 0.475097
0.835925 0.700336 0.479676
0.257587 0.648634 0.409029
0.292249 0.652829 0.413145
0.358356 0.660991 0.421128
0.443245 0.671779 0.431615
0.537735 0.684232 0.443556
0.633925 0.697428 0.455885
0.722917 0.710066 0.467303
0.792730 0.720180 0.476224
0.827624 0.725364 0.480806
0.132903 0.132481 0.437427
0.196743 0.158825 0.442225
0.297788 0.191166 0.450362
0.404283 0.216467 0.461091
0.509457 0.237352 0.474346
0.608985 0.255583 0.488666
0.696548 0.270735 0.501900
0.763283 0.281725 0.512060
0.796595 0.287129 0.517201
0.095531 0.139628 0.443363
0.186593 0.181545 0.447018
0.299311 0.220905 0.452938
0.406427 0.246384 0.462534
0.511405 0.266464 0.475609
0.611528 0.284120 0.489940
0.699909 0.298935 0.503164
0.767119 0.309767 0.513348
0.800513 0.315110 0.518514
0.178891 0.247680 0.448968
0.221061 0.256501 0.452915
0.311216 0.282252 0.457153
0.412231 0.305307 0.465216
0.515331 0.322988 0.478342
0.617355 0.338923 0.492668
0.708417 0.353074 0.505882
0.777010 0.363719 0.516214
0.810509 0.368965 0.521483
0.218428 0.339565 0.454253
0.256729 0.346196 0.457369
0.330869 0.360579 0.462342
0.422448 0.381753 0.467799
0.517936 0.396927 0.481800
0.625662 0.409456 0.496998
0.724275 0.423266 0.510139
0.796190 0.434316 0.520943
0.828929 0.439395 0.526422
0.238706 0.424181 0.460298
0.275037 0.429391 0.463854
0.344735 0.439694 0.470506
0.435248 0.452587 0.478595
0.522042 0.473654 0.493498
0.631594 0.486388 0.505345
0.751538 0.502379 0.516702
0.835074 0.516914 0.528654
0.859937 0.520697 0.534116
0.249751 0.502218 0.465732
0.285170 0.506838 0.469710
0.352947 0.515870 0.477562
0.440271 0.527612 0.488622
0.536280 0.540611 0.503906
0.636268 0.556742 0.518736
0.770338 0.581301 0.528124
0.907763 0.614027 0.541082
0.902269 0.607489 0.544650
0.255926 0.570518 0.469929
0.290925 0.574927 0.474107
0.357836 0.583586 0.482367
0.444124 0.595183 0.493705
0.541132 0.609030 0.507552
0.644095 0.625245 0.522535
0.751959 0.644029 0.535605
0.853082 0.663217 0.546748
0.885052 0.668266 0.550682
0.259234 0.623103 0.472721
0.294037 0.627436 0.476969
0.360525 0.635954 0.485335
0.446212 0.647414 0.496634
0.542381 0.661072 0.510033
0.642205 0.676343 0.524395
0.737978 0.692000 0.537728
0.815809 0.705083 0.547892
0.853006 0.711201 0.552760
0.260558 0.650542 0.473999
0.295287 0.654850 0.478266
0.361601 0.663317 0.486648
0.446977 0.674694 0.497894
0.542480 0.688162 0.511086
0.640535 0.702912 0.525144
0.732338 0.717495 0.538398
0.805020 0.729308 0.548676
0.841128 0.735236 0.553794
0.193380 0.181116 0.513933
0.238571 0.192913 0.517991
0.320060 0.211975 0.525599
0.416074 0.230914 0.535653
0.515756 0.248090 0.547418
0.612105 0.263380 0.559727
0.697830 0.276299 0.571103
0.763601 0.285881 0.579963
0.796425 0.290697 0.584529
0.194800 0.209735 0.516279
0.239582 0.220992 0.520282
0.322097 0.240653 0.527348
0.418033 0.259546 0.536995
0.517542 0.276412 0.548675
0.614185 0.291445 0.561027
0.700460 0.304229 0.572460
0.766657 0.313762 0.581369
0.799618 0.318564 0.585960
0.213738 0.273678 0.519891
0.252235 0.280698 0.523978
0.329156 0.296876 0.530645
0.422884 0.314701 0.539684
0.521434 0.330825 0.551343
0.618887 0.345308 0.563907
0.706883 0.357862 0.575532
0.774379 0.367368 0.584584
0.807744 0.372167 0.589244
0.233335 0.351316 0.523740
0.270169 0.357215 0.527486
0.340966 0.369387 0.534359
0.430132 0.385093 0.543475
0.526617 0.401173 0.555219
0.625582 0.415158 0.568544
0.717965 0.427574 0.580665
0.788709 0.437296 0.589969
0.822758 0.442134 0.594733
0.246510 0.430498 0.528001
0.282256 0.435592 0.531905
0.350590 0.445826 0.539415
0.438001 0.460010 0.549315
0.533253 0.479790 0.560565
0.631176 0.495000 0.575537
0.734681 0.507029 0.589007
0.814162 0.517543 0.598410
0.848287 0.522322 0.603203
0.254684 0.506096 0.532091
0.289888 0.510779 0.536263
0.357217 0.520106 0.544553
0.444111 0.532886 0.556249
0.542828 0.548354 0.572075
0.630556 0.569282 0.591808
0.752151 0.592315 0.603459
0.857247 0.603050 0.610776
0.886821 0.607034 0.615255
0.259629 0.573213 0.535470
0.294583 0.577730 0.539814
0.361451 0.586719 0.548522
0.447919 0.599088 0.560856
0.545948 0.614511 0.577231
0.650275 0.633688 0.598359
0.758133 0.656747 0.615983
0.862843 0.675128 0.623839
0.900509 0.679703 0.627018
0.262419 0.625239 0.537829
0.297257 0.629693 0.542246
0.363885 0.638559 0.551078
0.449997 0.650759 0.563375
0.547225 0.665861 0.578819
0.649186 0.683714 0.596833
0.748679 0.703088 0.614295
0.831275 0.719185 0.626630
0.869250 0.725475 0.631335
0.263571 0.652476 0.538943
0.298364 0.656911 0.543380
0.364888 0.665735 0.552229
0.450790 0.677851 0.564434
0.547461 0.692717 0.579419
0.647795 0.709865 0.596419
0.743279 0.727850 0.613436
0.819782 0.742823 0.626837
0.857135 0.749905 0.633017
0.226459 0.206484 0.578543
0.264715 0.213358 0.582490
0.336532 0.225913 0.590022
0.425678 0.240433 0.599830
0.521232 0.254923 0.610945
0.615067 0.268406 0.622333
0.699244 0.280060 0.632806
0.764109 0.288850 0.641001
0.796432 0.293331 0.645262
0.229124 0.235045 0.579900
0.266978 0.241630 0.583831
0.338431 0.253952 0.591285
0.427309 0.268316 0.601040
0.522781 0.282702 0.612194
0.616814 0.296139 0.623676
0.701358 0.307792 0.634242
0.766547 0.316600 0.642503
0.798989 0.321093 0.646793
0.236570 0.290551 0.582401
0.273220 0.296343 0.586340
0.343111 0.307707 0.593777
0.431011 0.321568 0.603562
0.526213 0.335802 0.614921
0.620788 0.349257 0.626715
0.706402 0.360998 0.637554
0.772540 0.369899 0.645986
0.805369 0.374436 0.650346
0.245760 0.360665 0.585472
0.281507 0.365869 0.589448
0.349652 0.376161 0.597088
0.436240 0.389464 0.607246
0.531154 0.403983 0.619225
0.626803 0.417990 0.631811
0.714748 0.430133 0.643217
0.783028 0.439292 0.651914
0.816694 0.443915 0.656359
0.253533 0.435823 0.588854
0.288761 0.440667 0.592984
0.355964 0.450320 0.601088
0.442004 0.463448 0.612161
0.537298 0.479414 0.625864
0.634392 0.495956 0.640431
0.726674 0.509165 0.652710
0.799493 0.518616 0.661431
0.834646 0.523204 0.665792
0.259197 0.509432 0.592173
0.294186 0.514092 0.596507
0.361056 0.523432 0.605195
0.447310 0.536463 0.617631
0.544538 0.553495 0.635236
0.639071 0.579352 0.657977
0.740227 0.596014 0.670322
0.822888 0.603611 0.676443
0.859708 0.607053 0.679792
0.263009 0.575566 0.595025
0.297905 0.580151 0.599513
0.364684 0.589371 0.608601
0.451177 0.602344 0.621740
0.549842 0.619375 0.640170
0.658523 0.643446 0.670686
0.748747 0.668529 0.703575
0.853492 0.689311 0.698779
0.883415 0.687291 0.697934
0.265315 0.627123 0.597089
0.300173 0.631684 0.601656
0.366905 0.640865 0.610904
0.453366 0.653784 0.624115
0.551607 0.670484 0.641631
0.656267 0.691926 0.664685
0.762179 0.718563 0.691438
0.858346 0.745269 0.713480
0.886912 0.747040 0.714123
0.266305 0.654192 0.598087
0.301149 0.658747 0.602680
0.367853 0.667914 0.611965
0.454239 0.680794 0.625120
0.552114 0.697279 0.642107
0.655273 0.717769 0.663200
0.756637 0.741942 0.687492
0.840809 0.764481 0.709333
0.879281 0.773653 0.717844
0.242521 0.218568 0.627579
0.278355 0.223783 0.631518
0.346231 0.233705 0.639042
0.431933 0.245980 0.648754
0.525084 0.258928 0.659599
0.617332 0.271385 0.670590
0.700469 0.282357 0.680654
0.764676 0.290730 0.688539
0.796582 0.295036 0.692655
0.244323 0.246307 0.628623
0.280014 0.251431 0.632571
0.347693 0.261237 0.640120
0.433269 0.273449 0.649889
0.526436 0.286400 0.660836
0.618859 0.298911 0.671955
0.702268 0.309955 0.682138
0.766715 0.318388 0.690104
0.798709 0.322722 0.694256
0.248323 0.299173 0.630661
0.283697 0.304102 0.634650
0.350906 0.313644 0.642304
0.436193 0.325742 0.652275
0.529434 0.338789 0.663542
0.622346 0.351538 0.675045
0.706508 0.362842 0.685567
0.771636 0.371468 0.693756
0.803924 0.375887 0.698000
0.253453 0.366281 0.633307
0.288521 0.371029 0.637388
0.355244 0.380318 0.645296
0.440288 0.392417 0.655742
0.533842 0.405904 0.667750
0.627760 0.419398 0.680141
0.713461 0.431414 0.691407
0.780009 0.440498 0.700027
0.812936 0.445093 0.704431
0.258421 0.439344 0.636251
0.293310 0.443987 0.640488
0.359803 0.453179 0.648826
0.444965 0.465545 0.660132
0.539379 0.480109 0.673652
0.635132 0.495528 0.688056
0.723623 0.509328 0.700925
0.792856 0.519343 0.710266
0.826916 0.524193 0.714853
0.262531 0.511752 0.639173
0.297365 0.516362 0.643594
0.363892 0.525591 0.652451
0.449579 0.538390 0.664891
0.545655 0.554491 0.680847
0.644796 0.573972 0.699846
0.737899 0.592449 0.716807
0.812127 0.604300 0.727276
0.847403 0.609084 0.731688
0.265575 0.577253 0.641737
0.300419 0.581869 0.646311
0.367087 0.591186 0.655590
0.453373 0.604368 0.668924
0.551292 0.621664 0.686910
0.655885 0.644980 0.712078
0.757214 0.675045 0.741268
0.845087 0.695654 0.758285
0.876044 0.696557 0.758888
0.267537 0.628503 0.643632
0.302403 0.633134 0.648300
0.369179 0.642524 0.657811
0.455794 0.655920 0.671539
0.554449 0.673678 0.690052
0.660485 0.697775 0.715535
0.774518 0.734615 0.754407
0.908194 0.808469 0.840338
0.909517 0.778163 0.797133
0.268412 0.655460 0.644564
0.303289 0.660101 0.649266
0.370106 0.669522 0.658857
0.456818 0.682989 0.672684
0.555591 0.700833 0.691192
0.661353 0.724690 0.716106
0.770441 0.757697 0.750753
0.871246 0.798536 0.794293
0.912587 0.813196 0.808853
0.248473 0.222962 0.653007
0.283588 0.227693 0.656947
0.350204 0.236776 0.664470
0.434675 0.248249 0.674149
0.526884 0.260598 0.684905
0.618470 0.272646 0.695762
0.701154 0.283351 0.705687
0.765055 0.291564 0.713463
0.796720 0.295802 0.717527
0.249874 0.250364 0.653960
0.284925 0.255058 0.657919
0.351447 0.264093 0.665490
0.435874 0.275555 0.675254
0.528142 0.287948 0.686133
0.619899 0.300086 0.697132
0.702820 0.310889 0.707187
0.766925 0.319180 0.715054
0.798662 0.323455 0.719159
0.252839 0.302425 0.655847
0.287763 0.307050 0.659859
0.354104 0.316005 0.667569
0.438472 0.327487 0.677577
0.530934 0.340060 0.688808
0.623170 0.352501 0.700219
0.706736 0.363627 0.710649
0.771412 0.372160 0.718774
0.803393 0.376542 0.722989
0.256696 0.368573 0.658330
0.291500 0.373141 0.662446
0.357692 0.382060 0.670426
0.442122 0.393706 0.680926
0.535069 0.406770 0.692902
0.628286 0.419979 0.705221
0.713159 0.431911 0.716489
0.779000 0.441021 0.725173
0.811514 0.445646 0.729616
0.260657 0.440877 0.661109
0.295405 0.445431 0.665380
0.361602 0.454421 0.673777
0.446373 0.466465 0.685087
0.540305 0.480522 0.698421
0.635339 0.495392 0.712595
0.722652 0.509179 0.725706
0.790704 0.519621 0.735624
0.824196 0.524749 0.740522
0.264146 0.512807 0.663882
0.298910 0.517387 0.668332
0.365277 0.526542 0.677227
0.450688 0.539164 0.689581
0.546223 0.554704 0.704931
0.644360 0.572551 0.722516
0.736226 0.590462 0.739814
0.808678 0.604253 0.752937
0.843647 0.610345 0.758748
0.266862 0.578042 0.666335
0.301679 0.582667 0.670942
0.368281 0.592006 0.680277
0.454414 0.605199 0.693588
0.551805 0.622271 0.711022
0.654256 0.643942 0.733224
0.754766 0.670125 0.759425
0.838216 0.694254 0.783177
0.874051 0.701480 0.790281
0.268672 0.629161 0.668166
0.303538 0.633823 0.672875
0.370323 0.643299 0.682488
0.456964 0.656878 0.696385
0.555650 0.674982 0.715112
0.661586 0.699632 0.740770
0.773164 0.736090 0.778660
0.888891 0.793020 0.837538
0.920200 0.798854 0.844085
0.269495 0.656071 0.669071
0.304384 0.660750 0.673822
0.371247 0.670286 0.683544
0.458089 0.684021 0.697656
0.557231 0.702496 0.716811
0.664100 0.727991 0.743455
0.776675 0.765783 0.783307
0.890323 0.823047 0.844393
0.963196 0.879955 0.906110
