public/luts/keynote_b.cube
# framediff hero grade: per-segment fit for keynote_b
# generated by gradefit.py
LUT_3D_SIZE 5
DOMAIN_MIN 0 0 0
DOMAIN_MAX 1 1 1
0.008405 0.017819 0.073999
0.259216 0.085731 0.142990
0.503498 0.142529 0.189948
0.696190 0.233576 0.272971
0.796540 0.271884 0.310527
0.162041 0.219717 0.199129
0.293524 0.239167 0.204359
0.512175 0.277014 0.237042
0.714200 0.327341 0.285951
0.810962 0.354101 0.315049
0.225015 0.410165 0.252116
0.332522 0.423823 0.262206
0.526162 0.448911 0.282160
0.727319 0.477904 0.307302
0.825528 0.496478 0.325993
0.246248 0.563335 0.272337
0.348028 0.575471 0.283522
0.528876 0.597604 0.303696
0.712543 0.621191 0.325091
0.813699 0.634982 0.337934
0.251953 0.645179 0.278714
0.352199 0.656959 0.290082
0.528856 0.678204 0.310319
0.706598 0.700178 0.331014
0.805955 0.712790 0.342943
0.029458 0.038549 0.262141
0.261737 0.132129 0.275469
0.499878 0.193363 0.311232
0.695523 0.252537 0.361852
0.796995 0.278048 0.386306
0.155331 0.223720 0.295243
0.285801 0.261710 0.287112
0.508586 0.290337 0.319834
0.716583 0.338142 0.365412
0.814510 0.360198 0.389927
0.227990 0.414004 0.328158
0.334824 0.427847 0.337772
0.528657 0.452935 0.356578
0.776630 0.484458 0.378902
0.849630 0.506098 0.400224
0.249419 0.565641 0.344287
0.351301 0.578009 0.355785
0.533871 0.601022 0.376860
0.727351 0.627437 0.399285
0.833141 0.643326 0.412689
0.254955 0.646978 0.349819
0.355479 0.659028 0.361520
0.533565 0.681184 0.382691
0.714978 0.704864 0.404598
0.816691 0.718650 0.417155
0.132903 0.132481 0.437427
0.297788 0.191166 0.450362
0.509457 0.237352 0.474346
0.696548 0.270735 0.501900
0.796595 0.287129 0.517201
0.178891 0.247680 0.448968
0.311216 0.282252 0.457153
0.515331 0.322988 0.478342
0.708417 0.353074 0.505882
0.810509 0.368965 0.521483
0.238706 0.424181 0.460298
0.344735 0.439694 0.470506
0.522042 0.473654 0.493498
0.751538 0.502379 0.516702
0.859937 0.520697 0.534116
0.255926 0.570518 0.469929
0.357836 0.583586 0.482367
0.541132 0.609030 0.507552
0.751959 0.644029 0.535605
0.885052 0.668266 0.550682
0.260558 0.650542 0.473999
0.361601 0.663317 0.486648
0.542480 0.688162 0.511086
0.732338 0.717495 0.538398
0.841128 0.735236 0.553794
0.226459 0.206484 0.578543
0.336532 0.225913 0.590022
0.521232 0.254923 0.610945
0.699244 0.280060 0.632806
0.796432 0.293331 0.645262
0.236570 0.290551 0.582401
0.343111 0.307707 0.593777
0.526213 0.335802 0.614921
0.706402 0.360998 0.637554
0.805369 0.374436 0.650346
0.253533 0.435823 0.588854
0.355964 0.450320 0.601088
0.537298 0.479414 0.625864
0.726674 0.509165 0.652710
0.834646 0.523204 0.665792
0.263009 0.575566 0.595025
0.364684 0.589371 0.608601
0.549842 0.619375 0.640170
0.748747 0.668529 0.703575
0.883415 0.687291 0.697934
0.266305 0.654192 0.598087
0.367853 0.667914 0.611965
0.552114 0.697279 0.642107
0.756637 0.741942 0.687492
0.879281 0.773653 0.717844
0.248473 0.222962 0.653007
0.350204 0.236776 0.664470
0.526884 0.260598 0.684905
0.701154 0.283351 0.705687
0.796720 0.295802 0.717527
0.252839 0.302425 0.655847
0.354104 0.316005 0.667569
0.530934 0.340060 0.688808
0.706736 0.363627 0.710649
0.803393 0.376542 0.722989
0.260657 0.440877 0.661109
0.361602 0.454421 0.673777
0.540305 0.480522 0.698421
0.722652 0.509179 0.725706
0.824196 0.524749 0.740522
0.266862 0.578042 0.666335
0.368281 0.592006 0.680277
0.551805 0.622271 0.711022
0.754766 0.670125 0.759425
0.874051 0.701480 0.790281
0.269495 0.656071 0.669071
0.371247 0.670286 0.683544
0.557231 0.702496 0.716811
0.776675 0.765783 0.783307
0.963196 0.879955 0.906110
