public/luts/open.cube
# framediff hero grade: FX3 fit with measured output gain for open
# generated by gradefit.py
LUT_3D_SIZE 65
DOMAIN_MIN 0 0 0
DOMAIN_MAX 1 1 1
0.041967 0.035838 0.077582
0.041967 0.035838 0.077582
0.041967 0.035838 0.077582
0.041967 0.035838 0.077582
0.041967 0.035838 0.077582
0.041967 0.035838 0.077582
0.056791 0.035525 0.078020
0.105170 0.035343 0.077946
0.130093 0.036057 0.077085
0.149219 0.036936 0.076218
0.166171 0.038164 0.075615
0.182568 0.039855 0.075346
0.201540 0.042639 0.075593
0.222055 0.047196 0.077058
0.243183 0.053188 0.079606
0.265627 0.060740 0.083314
0.289279 0.069869 0.088260
0.314152 0.080632 0.094511
0.340347 0.093064 0.102116
0.367662 0.107011 0.110980
0.396058 0.122222 0.120868
0.425343 0.138215 0.131360
0.455458 0.154302 0.141753
0.486195 0.169378 0.151096
0.518026 0.182879 0.158938
0.550623 0.193248 0.163823
0.584534 0.201316 0.166452
0.619448 0.209049 0.168571
0.654455 0.216617 0.170395
0.689302 0.224043 0.171981
0.723709 0.231340 0.173366
0.756720 0.238368 0.174529
0.786923 0.244935 0.175476
0.811997 0.250676 0.176227
0.830213 0.255248 0.176812
0.841076 0.258365 0.177312
0.844902 0.259782 0.177753
0.845876 0.260146 0.177867
0.845876 0.260146 0.177867
0.845876 0.260146 0.177867
0.845876 0.260146 0.177867
0.845876 0.260146 0.177867
0.845876 0.260146 0.177867
0.845876 0.260146 0.177867
0.845876 0.260146 0.177867
0.845876 0.260146 0.177867
0.845876 0.260146 0.177867
0.845876 0.260146 0.177867
0.845876 0.260146 0.177867
0.845876 0.260146 0.177867
0.845876 0.260146 0.177867
0.845876 0.260146 0.177867
0.845876 0.260146 0.177867
0.845876 0.260146 0.177867
0.845876 0.260146 0.177867
0.845876 0.260146 0.177867
0.845876 0.260146 0.177867
0.845876 0.260146 0.177867
0.845876 0.260146 0.177867
0.845876 0.260146 0.177867
0.845876 0.260146 0.177867
0.845876 0.260146 0.177867
0.845876 0.260146 0.177867
0.845876 0.260146 0.177867
0.845876 0.260146 0.177867
0.041967 0.035838 0.077582
0.041967 0.035838 0.077582
0.041967 0.035838 0.077582
0.041967 0.035838 0.077582
0.041967 0.035838 0.077582
0.041967 0.035838 0.077582
0.056791 0.035525 0.078020
0.105170 0.035343 0.077946
0.130093 0.036057 0.077085
0.149219 0.036936 0.076218
0.166171 0.038164 0.075615
0.182568 0.039855 0.075346
0.201540 0.042639 0.075593
0.222055 0.047196 0.077058
0.243183 0.053188 0.079606
0.265627 0.060740 0.083314
0.289279 0.069869 0.088260
0.314152 0.080632 0.094511
0.340347 0.093064 0.102116
0.367662 0.107011 0.110980
0.396058 0.122222 0.120868
0.425343 0.138215 0.131360
0.455458 0.154302 0.141753
0.486195 0.169378 0.151096
0.518026 0.182879 0.158938
0.550623 0.193248 0.163823
0.584534 0.201316 0.166452
0.619448 0.209049 0.168571
0.654455 0.216617 0.170395
0.689302 0.224043 0.171981
0.723709 0.231340 0.173366
0.756720 0.238368 0.174529
0.786923 0.244935 0.175476
0.811997 0.250676 0.176227
0.830213 0.255248 0.176812
0.841076 0.258365 0.177312
0.844902 0.259782 0.177753
0.845876 0.260146 0.177867
0.845876 0.260146 0.177867
0.845876 0.260146 0.177867
0.845876 0.260146 0.177867
0.845876 0.260146 0.177867
0.845876 0.260146 0.177867
0.845876 0.260146 0.177867
0.845876 0.260146 0.177867
0.845876 0.260146 0.177867
0.845876 0.260146 0.177867
0.845876 0.260146 0.177867
0.845876 0.260146 0.177867
0.845876 0.260146 0.177867
0.845876 0.260146 0.177867
0.845876 0.260146 0.177867
0.845876 0.260146 0.177867
0.845876 0.260146 0.177867
0.845876 0.260146 0.177867
0.845876 0.260146 0.177867
0.845876 0.260146 0.177867
0.845876 0.260146 0.177867
0.845876 0.260146 0.177867
0.845876 0.260146 0.177867
0.845876 0.260146 0.177867
0.845876 0.260146 0.177867
0.845876 0.260146 0.177867
0.845876 0.260146 0.177867
0.845876 0.260146 0.177867
0.041967 0.035838 0.077582
0.041967 0.035838 0.077582
0.041967 0.035838 0.077582
0.041967 0.035838 0.077582
0.041967 0.035838 0.077582
0.041967 0.035838 0.077582
0.056791 0.035525 0.078020
0.105170 0.035343 0.077946
0.130093 0.036057 0.077085
0.149219 0.036936 0.076218
0.166171 0.038164 0.075615
0.182568 0.039855 0.075346
0.201540 0.042639 0.075593
0.222055 0.047196 0.077058
0.243183 0.053188 0.079606
0.265627 0.060740 0.083314
0.289279 0.069869 0.088260
0.314152 0.080632 0.094511
0.340347 0.093064 0.102116
0.367662 0.107011 0.110980
0.396058 0.122222 0.120868
0.425343 0.138215 0.131360
0.455458 0.154302 0.141753
0.486195 0.169378 0.151096
0.518026 0.182879 0.158938
0.550623 0.193248 0.163823
0.584534 0.201316 0.166452
0.619448 0.209049 0.168571
0.654455 0.216617 0.170395
0.689302 0.224043 0.171981
0.723709 0.231340 0.173366
0.756720 0.238368 0.174529
0.786923 0.244935 0.175476
0.811997 0.250676 0.176227
0.830213 0.255248 0.176812
0.841076 0.258365 0.177312
0.844902 0.259782 0.177753
0.845876 0.260146 0.177867
0.845876 0.260146 0.177867
0.845876 0.260146 0.177867
0.845876 0.260146 0.177867
0.845876 0.260146 0.177867
0.845876 0.260146 0.177867
0.845876 0.260146 0.177867
0.845876 0.260146 0.177867
0.845876 0.260146 0.177867
0.845876 0.260146 0.177867
0.845876 0.260146 0.177867
0.845876 0.260146 0.177867
0.845876 0.260146 0.177867
0.845876 0.260146 0.177867
0.845876 0.260146 0.177867
0.845876 0.260146 0.177867
0.845876 0.260146 0.177867
0.845876 0.260146 0.177867
0.845876 0.260146 0.177867
0.845876 0.260146 0.177867
0.845876 0.260146 0.177867
0.845876 0.260146 0.177867
0.845876 0.260146 0.177867
0.845876 0.260146 0.177867
0.845876 0.260146 0.177867
0.845876 0.260146 0.177867
0.845876 0.260146 0.177867
0.845876 0.260146 0.177867
0.041967 0.035838 0.077582
0.041967 0.035838 0.077582
0.041967 0.035838 0.077582
0.041967 0.035838 0.077582
0.041967 0.035838 0.077582
0.041967 0.035838 0.077582
0.056791 0.035525 0.078020
0.105170 0.035343 0.077946
0.130093 0.036057 0.077085
0.149219 0.036936 0.076218
0.166171 0.038164 0.075615
0.182568 0.039855 0.075346
0.201540 0.042639 0.075593
0.222055 0.047196 0.077058
0.243183 0.053188 0.079606
0.265627 0.060740 0.083314
0.289279 0.069869 0.088260
0.314152 0.080632 0.094511
0.340347 0.093064 0.102116
0.367662 0.107011 0.110980
0.396058 0.122222 0.120868
0.425343 0.138215 0.131360
0.455458 0.154302 0.141753
0.486195 0.169378 0.151096
0.518026 0.182879 0.158938
0.550623 0.193248 0.163823
0.584534 0.201316 0.166452
0.619448 0.209049 0.168571
0.654455 0.216617 0.170395
0.689302 0.224043 0.171981
0.723709 0.231340 0.173366
0.756720 0.238368 0.174529
0.786923 0.244935 0.175476
0.811997 0.250676 0.176227
0.830213 0.255248 0.176812
0.841076 0.258365 0.177312
0.844902 0.259782 0.177753
0.845876 0.260146 0.177867
0.845876 0.260146 0.177867
0.845876 0.260146 0.177867
0.845876 0.260146 0.177867
0.845876 0.260146 0.177867
0.845876 0.260146 0.177867
0.845876 0.260146 0.177867
0.845876 0.260146 0.177867
0.845876 0.260146 0.177867
0.845876 0.260146 0.177867
0.845876 0.260146 0.177867
0.845876 0.260146 0.177867
0.845876 0.260146 0.177867
0.845876 0.260146 0.177867
0.845876 0.260146 0.177867
0.845876 0.260146 0.177867
0.845876 0.260146 0.177867
0.845876 0.260146 0.177867
0.845876 0.260146 0.177867
0.845876 0.260146 0.177867
0.845876 0.260146 0.177867
0.845876 0.260146 0.177867
0.845876 0.260146 0.177867
0.845876 0.260146 0.177867
0.845876 0.260146 0.177867
0.845876 0.260146 0.177867
0.845876 0.260146 0.177867
0.845876 0.260146 0.177867
0.041967 0.035838 0.077582
0.041967 0.035838 0.077582
0.041967 0.035838 0.077582
0.041967 0.035838 0.077582
0.041967 0.035838 0.077582
0.041967 0.035838 0.077582
0.056791 0.035525 0.078020
0.105170 0.035343 0.077946
0.130093 0.036057 0.077085
0.149219 0.036936 0.076218
0.166171 0.038164 0.075615
0.182568 0.039855 0.075346
0.201540 0.042639 0.075593
0.222055 0.047196 0.077058
0.243183 0.053188 0.079606
0.265627 0.060740 0.083314
0.289279 0.069869 0.088260
0.314152 0.080632 0.094511
0.340347 0.093064 0.102116
0.367662 0.107011 0.110980
0.396058 0.122222 0.120868
0.425343 0.138215 0.131360
0.455458 0.154302 0.141753
0.486195 0.169378 0.151096
0.518026 0.182879 0.158938
0.550623 0.193248 0.163823
0.584534 0.201316 0.166452
0.619448 0.209049 0.168571
0.654455 0.216617 0.170395
0.689302 0.224043 0.171981
0.723709 0.231340 0.173366
0.756720 0.238368 0.174529
0.786923 0.244935 0.175476
0.811997 0.250676 0.176227
0.830213 0.255248 0.176812
0.841076 0.258365 0.177312
0.844902 0.259782 0.177753
0.845876 0.260146 0.177867
0.845876 0.260146 0.177867
0.845876 0.260146 0.177867
0.845876 0.260146 0.177867
0.845876 0.260146 0.177867
0.845876 0.260146 0.177867
0.845876 0.260146 0.177867
0.845876 0.260146 0.177867
0.845876 0.260146 0.177867
0.845876 0.260146 0.177867
0.845876 0.260146 0.177867
0.845876 0.260146 0.177867
0.845876 0.260146 0.177867
0.845876 0.260146 0.177867
0.845876 0.260146 0.177867
0.845876 0.260146 0.177867
0.845876 0.260146 0.177867
0.845876 0.260146 0.177867
0.845876 0.260146 0.177867
0.845876 0.260146 0.177867
0.845876 0.260146 0.177867
0.845876 0.260146 0.177867
0.845876 0.260146 0.177867
0.845876 0.260146 0.177867
0.845876 0.260146 0.177867
0.845876 0.260146 0.177867
0.845876 0.260146 0.177867
0.845876 0.260146 0.177867
0.041967 0.035838 0.077582
0.041967 0.035838 0.077582
0.041967 0.035838 0.077582
0.041967 0.035838 0.077582
0.041967 0.035838 0.077582
0.041967 0.035838 0.077582
0.056791 0.035525 0.078020
0.105170 0.035343 0.077946
0.130093 0.036057 0.077085
0.149219 0.036936 0.076218
0.166171 0.038164 0.075615
0.182568 0.039855 0.075346
0.201540 0.042639 0.075593
0.222055 0.047196 0.077058
0.243183 0.053188 0.079606
0.265627 0.060740 0.083314
0.289279 0.069869 0.088260
0.314152 0.080632 0.094511
0.340347 0.093064 0.102116
0.367662 0.107011 0.110980
0.396058 0.122222 0.120868
0.425343 0.138215 0.131360
0.455458 0.154302 0.141753
0.486195 0.169378 0.151096
0.518026 0.182879 0.158938
0.550623 0.193248 0.163823
0.584534 0.201316 0.166452
0.619448 0.209049 0.168571
0.654455 0.216617 0.170395
0.689302 0.224043 0.171981
0.723709 0.231340 0.173366
0.756720 0.238368 0.174529
0.786923 0.244935 0.175476
0.811997 0.250676 0.176227
0.830213 0.255248 0.176812
0.841076 0.258365 0.177312
0.844902 0.259782 0.177753
0.845876 0.260146 0.177867
0.845876 0.260146 0.177867
0.845876 0.260146 0.177867
0.845876 0.260146 0.177867
0.845876 0.260146 0.177867
0.845876 0.260146 0.177867
0.845876 0.260146 0.177867
0.845876 0.260146 0.177867
0.845876 0.260146 0.177867
0.845876 0.260146 0.177867
0.845876 0.260146 0.177867
0.845876 0.260146 0.177867
0.845876 0.260146 0.177867
0.845876 0.260146 0.177867
0.845876 0.260146 0.177867
0.845876 0.260146 0.177867
0.845876 0.260146 0.177867
0.845876 0.260146 0.177867
0.845876 0.260146 0.177867
0.845876 0.260146 0.177867
0.845876 0.260146 0.177867
0.845876 0.260146 0.177867
0.845876 0.260146 0.177867
0.845876 0.260146 0.177867
0.845876 0.260146 0.177867
0.845876 0.260146 0.177867
0.845876 0.260146 0.177867
0.845876 0.260146 0.177867
0.043351 0.055142 0.079313
0.043351 0.055142 0.079313
0.043351 0.055142 0.079313
0.043351 0.055142 0.079313
0.043351 0.055142 0.079313
0.043351 0.055142 0.079313
0.056348 0.054224 0.078296
0.104929 0.035343 0.077955
0.129913 0.036050 0.077092
0.149075 0.036929 0.076225
0.166036 0.038153 0.075619
0.182449 0.039839 0.075345
0.201427 0.042614 0.075585
0.221956 0.047174 0.077051
0.243094 0.053162 0.079595
0.265544 0.060711 0.083299
0.289204 0.069838 0.088242
0.314082 0.080600 0.094492
0.340283 0.093032 0.102096
0.367604 0.106981 0.110960
0.396006 0.122194 0.120849
0.425297 0.138189 0.131344
0.455417 0.154281 0.141739
0.486159 0.169360 0.151086
0.517994 0.182868 0.158932
0.550594 0.193240 0.163820
0.584508 0.201311 0.166450
0.619425 0.209044 0.168569
0.654434 0.216612 0.170393
0.689284 0.224039 0.171980
0.723694 0.231337 0.173365
0.756708 0.238366 0.174528
0.786914 0.244933 0.175475
0.811992 0.250674 0.176226
0.830210 0.255248 0.176812
0.841074 0.258364 0.177312
0.844902 0.259782 0.177753
0.845876 0.260146 0.177867
0.845876 0.260146 0.177867
0.845876 0.260146 0.177867
0.845876 0.260146 0.177867
0.845876 0.260146 0.177867
0.845876 0.260146 0.177867
0.845876 0.260146 0.177867
0.845876 0.260146 0.177867
0.845876 0.260146 0.177867
0.845876 0.260146 0.177867
0.845876 0.260146 0.177867
0.845876 0.260146 0.177867
0.845876 0.260146 0.177867
0.845876 0.260146 0.177867
0.845876 0.260146 0.177867
0.845876 0.260146 0.177867
0.845876 0.260146 0.177867
0.845876 0.260146 0.177867
0.845876 0.260146 0.177867
0.845876 0.260146 0.177867
0.845876 0.260146 0.177867
0.845876 0.260146 0.177867
0.845876 0.260146 0.177867
0.845876 0.260146 0.177867
0.845876 0.260146 0.177867
0.845876 0.260146 0.177867
0.845876 0.260146 0.177867
0.845876 0.260146 0.177867
0.074647 0.084166 0.096827
0.074647 0.084166 0.096827
0.074647 0.084166 0.096827
0.074647 0.084166 0.096827
0.074647 0.084166 0.096827
0.074647 0.084166 0.096827
0.074467 0.084033 0.096636
0.098997 0.085905 0.108862
0.117437 0.089110 0.112465
0.133377 0.092010 0.114238
0.152470 0.096279 0.116156
0.170609 0.099975 0.117690
0.191896 0.104216 0.119761
0.214979 0.106220 0.119419
0.237898 0.103041 0.114230
0.264060 0.060185 0.083030
0.287867 0.069289 0.087933
0.312843 0.080032 0.094151
0.339162 0.092471 0.101742
0.366593 0.106446 0.110614
0.395098 0.121697 0.120523
0.424485 0.137747 0.131054
0.454688 0.153899 0.141496
0.485514 0.169057 0.150901
0.517425 0.182674 0.158835
0.550068 0.193106 0.163771
0.584044 0.201208 0.166422
0.619023 0.208957 0.168548
0.654067 0.216533 0.170374
0.688971 0.223973 0.171967
0.723433 0.231281 0.173356
0.756497 0.238321 0.174522
0.786757 0.244898 0.175471
0.811889 0.250649 0.176223
0.830156 0.255232 0.176810
0.841037 0.258353 0.177310
0.844889 0.259777 0.177752
0.845876 0.260146 0.177867
0.845876 0.260146 0.177867
0.845876 0.260146 0.177867
0.845876 0.260146 0.177867
0.845876 0.260146 0.177867
0.845876 0.260146 0.177867
0.845876 0.260146 0.177867
0.845876 0.260146 0.177867
0.845876 0.260146 0.177867
0.845876 0.260146 0.177867
0.845876 0.260146 0.177867
0.845876 0.260146 0.177867
0.845876 0.260146 0.177867
0.845876 0.260146 0.177867
0.845876 0.260146 0.177867
0.845876 0.260146 0.177867
0.845876 0.260146 0.177867
0.845876 0.260146 0.177867
0.845876 0.260146 0.177867
0.845876 0.260146 0.177867
0.845876 0.260146 0.177867
0.845876 0.260146 0.177867
0.845876 0.260146 0.177867
0.845876 0.260146 0.177867
0.845876 0.260146 0.177867
0.845876 0.260146 0.177867
0.845876 0.260146 0.177867
0.845876 0.260146 0.177867
0.101107 0.106597 0.126258
0.101107 0.106597 0.126258
0.101107 0.106597 0.126258
0.101107 0.106597 0.126258
0.101107 0.106597 0.126258
0.101107 0.106597 0.126258
0.101029 0.106498 0.126155
0.113420 0.107034 0.128968
0.124542 0.106415 0.127132
0.135241 0.106629 0.125796
0.150782 0.109656 0.126340
0.166619 0.112971 0.127206
0.186065 0.117168 0.128600
0.208170 0.122256 0.130802
0.230909 0.127292 0.133153
0.255651 0.132639 0.135921
0.281571 0.138134 0.138946
0.308753 0.143624 0.142225
0.337241 0.145824 0.143556
0.365578 0.105909 0.110268
0.394186 0.121198 0.120195
0.423670 0.137303 0.130764
0.453958 0.153516 0.141252
0.484868 0.168753 0.150717
0.516842 0.182441 0.158704
0.549542 0.192972 0.163721
0.583580 0.201105 0.166393
0.618621 0.208870 0.168527
0.653700 0.216454 0.170355
0.688657 0.223906 0.171953
0.723171 0.231226 0.173346
0.756287 0.238276 0.174515
0.786600 0.244863 0.175466
0.811786 0.250624 0.176220
0.830103 0.255217 0.176808
0.841000 0.258342 0.177308
0.844877 0.259773 0.177750
0.845876 0.260146 0.177867
0.845876 0.260146 0.177867
0.845876 0.260146 0.177867
0.845876 0.260146 0.177867
0.845876 0.260146 0.177867
0.845876 0.260146 0.177867
0.845876 0.260146 0.177867
0.845876 0.260146 0.177867
0.845876 0.260146 0.177867
0.845876 0.260146 0.177867
0.845876 0.260146 0.177867
0.845876 0.260146 0.177867
0.845876 0.260146 0.177867
0.845876 0.260146 0.177867
0.845876 0.260146 0.177867
0.845876 0.260146 0.177867
0.845876 0.260146 0.177867
0.845876 0.260146 0.177867
0.845876 0.260146 0.177867
0.845876 0.260146 0.177867
0.845876 0.260146 0.177867
0.845876 0.260146 0.177867
0.845876 0.260146 0.177867
0.845876 0.260146 0.177867
0.845876 0.260146 0.177867
0.845876 0.260146 0.177867
0.845876 0.260146 0.177867
0.845876 0.260146 0.177867
0.111626 0.122005 0.140798
0.111626 0.122005 0.140798
0.111626 0.122005 0.140798
0.111626 0.122005 0.140798
0.111626 0.122005 0.140798
0.111626 0.122005 0.140798
0.111614 0.121959 0.140773
0.116333 0.117383 0.134905
0.125119 0.114725 0.130569
0.135033 0.114088 0.128330
0.148667 0.116076 0.128045
0.163041 0.118659 0.128289
0.180796 0.122055 0.128971
0.202613 0.127379 0.130943
0.224889 0.132702 0.133037
0.249618 0.138881 0.135843
0.275356 0.145064 0.138815
0.302289 0.151066 0.141946
0.330478 0.156761 0.145196
0.360027 0.161607 0.148383
0.390793 0.166106 0.151616
0.422540 0.164730 0.152117
0.453227 0.153133 0.141007
0.484220 0.168449 0.150531
0.516255 0.182198 0.158565
0.549015 0.192837 0.163671
0.583115 0.201001 0.166365
0.618219 0.208783 0.168506
0.653332 0.216374 0.170336
0.688343 0.223839 0.171939
0.722909 0.231171 0.173336
0.756077 0.238230 0.174508
0.786442 0.244828 0.175462
0.811683 0.250598 0.176217
0.830049 0.255202 0.176806
0.840962 0.258332 0.177306
0.844865 0.259768 0.177749
0.845876 0.260146 0.177867
0.845876 0.260146 0.177867
0.845876 0.260146 0.177867
0.845876 0.260146 0.177867
0.845876 0.260146 0.177867
0.845876 0.260146 0.177867
0.845876 0.260146 0.177867
0.845876 0.260146 0.177867
0.845876 0.260146 0.177867
0.845876 0.260146 0.177867
0.845876 0.260146 0.177867
0.845876 0.260146 0.177867
0.845876 0.260146 0.177867
0.845876 0.260146 0.177867
0.845876 0.260146 0.177867
0.845876 0.260146 0.177867
0.845876 0.260146 0.177867
0.845876 0.260146 0.177867
0.845876 0.260146 0.177867
0.845876 0.260146 0.177867
0.845876 0.260146 0.177867
0.845876 0.260146 0.177867
0.845876 0.260146 0.177867
0.845876 0.260146 0.177867
0.845876 0.260146 0.177867
0.845876 0.260146 0.177867
0.845876 0.260146 0.177867
0.845876 0.260146 0.177867
0.113808 0.130363 0.145128
0.113808 0.130363 0.145128
0.113808 0.130363 0.145128
0.113808 0.130363 0.145128
0.113808 0.130363 0.145128
0.113808 0.130363 0.145128
0.113803 0.130329 0.145115
0.117968 0.126565 0.139569
0.126909 0.124147 0.135033
0.137277 0.123862 0.132776
0.149975 0.125419 0.132025
0.163950 0.127779 0.131912
0.180836 0.130818 0.132118
0.201358 0.135332 0.133336
0.222284 0.139819 0.134647
0.246149 0.145460 0.136893
0.271112 0.151246 0.139351
0.297518 0.157092 0.142098
0.325448 0.163322 0.145267
0.354750 0.169603 0.148665
0.385476 0.175365 0.152085
0.417433 0.179784 0.155203
0.450921 0.182780 0.158094
0.483572 0.168143 0.150346
0.515668 0.181956 0.158426
0.548486 0.192702 0.163621
0.582649 0.200898 0.166336
0.617816 0.208696 0.168485
0.652964 0.216295 0.170317
0.688029 0.223773 0.171925
0.722647 0.231115 0.173326
0.755866 0.238185 0.174501
0.786285 0.244793 0.175457
0.811580 0.250573 0.176214
0.829996 0.255187 0.176803
0.840925 0.258321 0.177305
0.844852 0.259763 0.177747
0.845876 0.260146 0.177867
0.845876 0.260146 0.177867
0.845876 0.260146 0.177867
0.845876 0.260146 0.177867
0.845876 0.260146 0.177867
0.845876 0.260146 0.177867
0.845876 0.260146 0.177867
0.845876 0.260146 0.177867
0.845876 0.260146 0.177867
0.845876 0.260146 0.177867
0.845876 0.260146 0.177867
0.845876 0.260146 0.177867
0.845876 0.260146 0.177867
0.845876 0.260146 0.177867
0.845876 0.260146 0.177867
0.845876 0.260146 0.177867
0.845876 0.260146 0.177867
0.845876 0.260146 0.177867
0.845876 0.260146 0.177867
0.845876 0.260146 0.177867
0.845876 0.260146 0.177867
0.845876 0.260146 0.177867
0.845876 0.260146 0.177867
0.845876 0.260146 0.177867
0.845876 0.260146 0.177867
0.845876 0.260146 0.177867
0.845876 0.260146 0.177867
0.845876 0.260146 0.177867
0.114879 0.137168 0.147948
0.114879 0.137168 0.147948
0.114879 0.137168 0.147948
0.114879 0.137168 0.147948
0.114879 0.137168 0.147948
0.114879 0.137168 0.147948
0.114875 0.137139 0.147936
0.118756 0.135088 0.144169
0.128574 0.133034 0.139405
0.139536 0.133103 0.137129
0.151354 0.134258 0.135956
0.164887 0.136292 0.135435
0.180897 0.138865 0.135118
0.200613 0.143118 0.135906
0.220655 0.147340 0.136774
0.243986 0.152932 0.138754
0.268326 0.158733 0.140965
0.294243 0.164762 0.143527
0.321604 0.170940 0.146358
0.350394 0.177072 0.149401
0.380757 0.183042 0.152630
0.412370 0.188413 0.155792
0.445565 0.193584 0.159097
0.479979 0.196531 0.161731
0.515875 0.196699 0.163761
0.547912 0.192555 0.163566
0.582145 0.200786 0.166305
0.617378 0.208601 0.168463
0.652565 0.216208 0.170296
0.687687 0.223700 0.171910
0.722362 0.231055 0.173316
0.755637 0.238136 0.174494
0.786114 0.244754 0.175452
0.811468 0.250546 0.176210
0.829938 0.255171 0.176801
0.840885 0.258309 0.177302
0.844839 0.259758 0.177746
0.845876 0.260146 0.177867
0.845876 0.260146 0.177867
0.845876 0.260146 0.177867
0.845876 0.260146 0.177867
0.845876 0.260146 0.177867
0.845876 0.260146 0.177867
0.845876 0.260146 0.177867
0.845876 0.260146 0.177867
0.845876 0.260146 0.177867
0.845876 0.260146 0.177867
0.845876 0.260146 0.177867
0.845876 0.260146 0.177867
0.845876 0.260146 0.177867
0.845876 0.260146 0.177867
0.845876 0.260146 0.177867
0.845876 0.260146 0.177867
0.845876 0.260146 0.177867
0.845876 0.260146 0.177867
0.845876 0.260146 0.177867
0.845876 0.260146 0.177867
0.845876 0.260146 0.177867
0.845876 0.260146 0.177867
0.845876 0.260146 0.177867
0.845876 0.260146 0.177867
0.845876 0.260146 0.177867
0.845876 0.260146 0.177867
0.845876 0.260146 0.177867
0.845876 0.260146 0.177867
0.116292 0.146000 0.151565
0.116292 0.146000 0.151565
0.116292 0.146000 0.151565
0.116292 0.146000 0.151565
0.116292 0.146000 0.151565
0.116292 0.146000 0.151565
0.116287 0.145970 0.151552
0.118242 0.145244 0.149848
0.129143 0.143691 0.144641
0.140931 0.144218 0.142371
0.151967 0.145184 0.140946
0.165252 0.147096 0.140167
0.180531 0.149260 0.139389
0.199628 0.153118 0.139682
0.218840 0.156840 0.139979
0.241417 0.161981 0.141404
0.265068 0.167352 0.143076
0.290420 0.173052 0.145147
0.317258 0.179131 0.147597
0.345669 0.185669 0.150534
0.375605 0.192273 0.153721
0.406764 0.198428 0.156916
0.439586 0.204171 0.160167
0.473670 0.208575 0.163013
0.509193 0.211948 0.165617
0.546311 0.212925 0.167597
0.584190 0.207200 0.167883
0.616805 0.208478 0.168433
0.652042 0.216095 0.170269
0.687241 0.223605 0.171891
0.721990 0.230976 0.173302
0.755338 0.238072 0.174484
0.785891 0.244705 0.175445
0.811322 0.250510 0.176206
0.829862 0.255150 0.176798
0.840832 0.258293 0.177300
0.844821 0.259752 0.177744
0.845876 0.260146 0.177867
0.845876 0.260146 0.177867
0.845876 0.260146 0.177867
0.845876 0.260146 0.177867
0.845876 0.260146 0.177867
0.845876 0.260146 0.177867
0.845876 0.260146 0.177867
0.845876 0.260146 0.177867
0.845876 0.260146 0.177867
0.845876 0.260146 0.177867
0.845876 0.260146 0.177867
0.845876 0.260146 0.177867
0.845876 0.260146 0.177867
0.845876 0.260146 0.177867
0.845876 0.260146 0.177867
0.845876 0.260146 0.177867
0.845876 0.260146 0.177867
0.845876 0.260146 0.177867
0.845876 0.260146 0.177867
0.845876 0.260146 0.177867
0.845876 0.260146 0.177867
0.845876 0.260146 0.177867
0.845876 0.260146 0.177867
0.845876 0.260146 0.177867
0.845876 0.260146 0.177867
0.845876 0.260146 0.177867
0.845876 0.260146 0.177867
0.845876 0.260146 0.177867
0.117831 0.155412 0.155425
0.117831 0.155412 0.155425
0.117831 0.155412 0.155425
0.117831 0.155412 0.155425
0.117831 0.155412 0.155425
0.117831 0.155412 0.155425
0.117827 0.155385 0.155414
0.117748 0.154909 0.155218
0.129500 0.154645 0.150164
0.141777 0.155559 0.147838
0.152130 0.156499 0.146258
0.165336 0.158516 0.145372
0.179877 0.160543 0.144342
0.198517 0.164228 0.144309
0.217240 0.167795 0.144286
0.239095 0.172613 0.145225
0.262124 0.177727 0.146440
0.286909 0.183292 0.148110
0.313128 0.189140 0.150080
0.341045 0.195364 0.152500
0.370492 0.201818 0.155245
0.401287 0.208055 0.158194
0.433728 0.214074 0.161283
0.467337 0.219669 0.164320
0.502391 0.224390 0.167142
0.539108 0.227534 0.169531
0.576658 0.228244 0.171082
0.616095 0.224965 0.171705
0.651440 0.215965 0.170238
0.686727 0.223496 0.171868
0.721560 0.230885 0.173286
0.754994 0.237998 0.174473
0.785634 0.244647 0.175438
0.811154 0.250469 0.176200
0.829774 0.255125 0.176795
0.840772 0.258276 0.177296
0.844801 0.259744 0.177741
0.845876 0.260146 0.177867
