public/luts/open.cube
# framediff hero grade: FX3 fit with measured output gain for open
# generated by gradefit.py
LUT_3D_SIZE 5
DOMAIN_MIN 0 0 0
DOMAIN_MAX 1 1 1
0.041967 0.035838 0.077582
0.289279 0.069869 0.088260
0.786923 0.244935 0.175476
0.845876 0.260146 0.177867
0.845876 0.260146 0.177867
0.121945 0.187095 0.168090
0.250845 0.212141 0.159022
0.784602 0.244416 0.175407
0.845876 0.260146 0.177867
0.845876 0.260146 0.177867
0.095456 0.422647 0.237199
0.095592 0.421927 0.237029
0.513954 0.520987 0.217804
0.760762 0.378627 0.195624
0.845876 0.260146 0.177867
0.088768 0.462252 0.247296
0.088768 0.462252 0.247296
0.088768 0.462252 0.247296
0.557872 0.569277 0.221262
0.559625 0.567071 0.220405
0.088768 0.462252 0.247296
0.088768 0.462252 0.247296
0.088768 0.462252 0.247296
0.088768 0.462252 0.247296
0.557872 0.569277 0.221262
0.078692 0.072119 0.311225
0.375995 0.184016 0.307987
0.832476 0.335100 0.328328
0.845876 0.260146 0.177867
0.845876 0.260146 0.177867
0.187146 0.274014 0.340016
0.283189 0.259566 0.297067
0.828530 0.329614 0.319235
0.845876 0.260146 0.177867
0.845876 0.260146 0.177867
0.104442 0.454218 0.298676
0.103338 0.448969 0.289916
0.513914 0.519334 0.217649
0.766506 0.372146 0.194750
0.845876 0.260146 0.177867
0.088768 0.462252 0.247296
0.088768 0.462252 0.247296
0.088768 0.462252 0.247296
0.557872 0.569277 0.221262
0.559789 0.566870 0.220330
0.088768 0.462252 0.247296
0.088768 0.462252 0.247296
0.088768 0.462252 0.247296
0.088768 0.462252 0.247296
0.557872 0.569277 0.221262
0.299664 0.284609 0.800492
0.299234 0.284192 0.799910
0.904738 0.578239 0.787510
0.931044 0.573980 0.741072
0.845876 0.260146 0.177867
0.298232 0.283221 0.798554
0.297800 0.282802 0.797969
0.903515 0.576788 0.786038
0.930874 0.572968 0.739285
0.845876 0.260146 0.177867
0.257996 0.724486 0.828749
0.258551 0.723236 0.828083
0.790756 0.799524 0.822406
0.928653 0.560836 0.717379
0.845876 0.260146 0.177867
0.147932 0.656237 0.610350
0.147662 0.655581 0.609141
0.144701 0.648146 0.595367
0.642851 0.651095 0.368025
0.562117 0.564254 0.219494
0.088768 0.462252 0.247296
0.088768 0.462252 0.247296
0.088768 0.462252 0.247296
0.088768 0.462252 0.247296
0.557872 0.569277 0.221262
0.494811 0.474653 0.953593
0.494811 0.474653 0.953593
0.773097 0.599359 0.905854
0.945445 0.676018 0.900276
0.945445 0.676018 0.900276
0.494811 0.474653 0.953593
0.494811 0.474653 0.953593
0.766149 0.597646 0.905979
0.945445 0.676018 0.900276
0.945445 0.676018 0.900276
0.494811 0.474653 0.953593
0.494811 0.474653 0.953593
0.627505 0.564190 0.920417
0.945445 0.676018 0.900276
0.945445 0.676018 0.900276
0.260208 0.860532 0.927679
0.260208 0.860532 0.927679
0.260208 0.860532 0.927679
0.888476 0.925874 0.921119
0.945445 0.676018 0.900276
0.260208 0.860532 0.927679
0.260208 0.860532 0.927679
0.260208 0.860532 0.927679
0.260208 0.860532 0.927679
0.856497 0.852743 0.746109
0.494811 0.474653 0.953593
0.494811 0.474653 0.953593
0.494811 0.474653 0.953593
0.944694 0.675124 0.900301
0.945445 0.676018 0.900276
0.494811 0.474653 0.953593
0.494811 0.474653 0.953593
0.494811 0.474653 0.953593
0.944618 0.675034 0.900303
0.945445 0.676018 0.900276
0.494811 0.474653 0.953593
0.494811 0.474653 0.953593
0.494811 0.474653 0.953593
0.943023 0.673355 0.900394
0.945445 0.676018 0.900276
0.494811 0.474653 0.953593
0.494811 0.474653 0.953593
0.494811 0.474653 0.953593
0.820901 0.612080 0.904921
0.945445 0.676018 0.900276
0.260208 0.860532 0.927679
0.260208 0.860532 0.927679
0.260208 0.860532 0.927679
0.260208 0.860532 0.927679
0.888476 0.925874 0.921119
