public/luts/open.cube
# framediff hero grade: FX3 fit with measured output gain for open
# generated by gradefit.py
LUT_3D_SIZE 9
DOMAIN_MIN 0 0 0
DOMAIN_MAX 1 1 1
0.041967 0.035838 0.077582
0.130093 0.036057 0.077085
0.289279 0.069869 0.088260
0.518026 0.182879 0.158938
0.786923 0.244935 0.175476
0.845876 0.260146 0.177867
0.845876 0.260146 0.177867
0.845876 0.260146 0.177867
0.845876 0.260146 0.177867
0.101107 0.106597 0.126258
0.124542 0.106415 0.127132
0.281571 0.138134 0.138946
0.516842 0.182441 0.158704
0.786600 0.244863 0.175466
0.845876 0.260146 0.177867
0.845876 0.260146 0.177867
0.845876 0.260146 0.177867
0.845876 0.260146 0.177867
0.121945 0.187095 0.168090
0.121852 0.186329 0.167785
0.250845 0.212141 0.159022
0.481222 0.259614 0.172386
0.784602 0.244416 0.175407
0.845876 0.260146 0.177867
0.845876 0.260146 0.177867
0.845876 0.260146 0.177867
0.845876 0.260146 0.177867
0.118976 0.295771 0.204857
0.119023 0.295441 0.204765
0.182569 0.320972 0.201906
0.388506 0.367968 0.198354
0.675454 0.396596 0.198171
0.816501 0.309849 0.186185
0.845876 0.260146 0.177867
0.845876 0.260146 0.177867
0.845876 0.260146 0.177867
0.095456 0.422647 0.237199
0.095475 0.422547 0.237176
0.095592 0.421927 0.237029
0.218830 0.471533 0.229854
0.513954 0.520987 0.217804
0.622298 0.512429 0.212949
0.760762 0.378627 0.195624
0.845876 0.260146 0.177867
0.845876 0.260146 0.177867
0.088768 0.462252 0.247296
0.088768 0.462252 0.247296
0.088768 0.462252 0.247296
0.088768 0.462252 0.247296
0.372241 0.541000 0.230375
0.557872 0.569277 0.221262
0.557872 0.569277 0.221262
0.661250 0.478045 0.208929
0.845876 0.260146 0.177867
0.088768 0.462252 0.247296
0.088768 0.462252 0.247296
0.088768 0.462252 0.247296
0.088768 0.462252 0.247296
0.088768 0.462252 0.247296
0.554591 0.568850 0.221530
0.557872 0.569277 0.221262
0.557872 0.569277 0.221262
0.559625 0.567071 0.220405
0.088768 0.462252 0.247296
0.088768 0.462252 0.247296
0.088768 0.462252 0.247296
0.088768 0.462252 0.247296
0.088768 0.462252 0.247296
0.088768 0.462252 0.247296
0.557872 0.569277 0.221262
0.557872 0.569277 0.221262
0.557872 0.569277 0.221262
0.088768 0.462252 0.247296
0.088768 0.462252 0.247296
0.088768 0.462252 0.247296
0.088768 0.462252 0.247296
0.088768 0.462252 0.247296
0.088768 0.462252 0.247296
0.088768 0.462252 0.247296
0.557872 0.569277 0.221262
0.557872 0.569277 0.221262
0.049181 0.043970 0.171589
0.133435 0.043582 0.164570
0.315743 0.101448 0.160524
0.535598 0.206230 0.195140
0.786733 0.244893 0.175470
0.845876 0.260146 0.177867
0.845876 0.260146 0.177867
0.845876 0.260146 0.177867
0.845876 0.260146 0.177867
0.112815 0.127464 0.179349
0.084703 0.085813 0.137313
0.292018 0.148125 0.175504
0.532655 0.203614 0.191251
0.786410 0.244821 0.175461
0.845876 0.260146 0.177867
0.845876 0.260146 0.177867
0.845876 0.260146 0.177867
0.845876 0.260146 0.177867
0.131668 0.206700 0.207695
0.131124 0.205182 0.206055
0.262036 0.217941 0.180520
0.481335 0.257716 0.172014
0.784412 0.244374 0.175402
0.845876 0.260146 0.177867
0.845876 0.260146 0.177867
0.845876 0.260146 0.177867
0.845876 0.260146 0.177867
0.119071 0.295114 0.204673
0.119118 0.294782 0.204580
0.181616 0.319871 0.201737
0.388343 0.367153 0.198154
0.675895 0.395844 0.198065
0.817833 0.307964 0.185915
0.845876 0.260146 0.177867
0.845876 0.260146 0.177867
0.845876 0.260146 0.177867
0.095493 0.422447 0.237152
0.095512 0.422347 0.237128
0.095630 0.421726 0.236981
0.218354 0.471180 0.229840
0.513948 0.520757 0.217782
0.622618 0.512152 0.212918
0.761585 0.377731 0.195502
0.845876 0.260146 0.177867
0.845876 0.260146 0.177867
0.088768 0.462252 0.247296
0.088768 0.462252 0.247296
0.088768 0.462252 0.247296
0.088768 0.462252 0.247296
0.371852 0.540934 0.230390
0.557872 0.569277 0.221262
0.557872 0.569277 0.221262
0.661674 0.477655 0.208881
0.845876 0.260146 0.177867
0.088768 0.462252 0.247296
0.088768 0.462252 0.247296
0.088768 0.462252 0.247296
0.088768 0.462252 0.247296
0.088768 0.462252 0.247296
0.554567 0.568847 0.221532
0.557872 0.569277 0.221262
0.557872 0.569277 0.221262
0.559648 0.567043 0.220395
0.088768 0.462252 0.247296
0.088768 0.462252 0.247296
0.088768 0.462252 0.247296
0.088768 0.462252 0.247296
0.088768 0.462252 0.247296
0.088768 0.462252 0.247296
0.557872 0.569277 0.221262
0.557872 0.569277 0.221262
0.557872 0.569277 0.221262
0.088768 0.462252 0.247296
0.088768 0.462252 0.247296
0.088768 0.462252 0.247296
0.088768 0.462252 0.247296
0.088768 0.462252 0.247296
0.088768 0.462252 0.247296
0.088768 0.462252 0.247296
0.557872 0.569277 0.221262
0.557872 0.569277 0.221262
0.078692 0.072119 0.311225
0.148215 0.082880 0.309971
0.375995 0.184016 0.307987
0.592304 0.280365 0.330800
0.832476 0.335100 0.328328
0.859568 0.299316 0.237838
0.845876 0.260146 0.177867
0.845876 0.260146 0.177867
0.845876 0.260146 0.177867
0.078403 0.071845 0.310072
0.132319 0.079447 0.309220
0.372240 0.181387 0.306472
0.590575 0.279396 0.329495
0.831939 0.334354 0.327094
0.859028 0.297758 0.235262
0.845876 0.260146 0.177867
0.845876 0.260146 0.177867
0.845876 0.260146 0.177867
0.187146 0.274014 0.340016
0.187010 0.272923 0.339210
0.283189 0.259566 0.297067
0.560143 0.331281 0.327963
0.828530 0.329614 0.319235
0.854859 0.285728 0.215374
0.845876 0.260146 0.177867
0.845876 0.260146 0.177867
0.845876 0.260146 0.177867
0.163159 0.379818 0.370701
0.163115 0.379244 0.370162
0.240946 0.399367 0.366484
0.507785 0.469508 0.333356
0.752822 0.479410 0.343979
0.826471 0.295165 0.184066
0.845876 0.260146 0.177867
0.845876 0.260146 0.177867
0.845876 0.260146 0.177867
0.104442 0.454218 0.298676
0.104302 0.453535 0.297546
0.103338 0.448969 0.289916
0.217320 0.471838 0.234746
0.513914 0.519334 0.217649
0.624597 0.510433 0.212725
0.766506 0.372146 0.194750
0.845876 0.260146 0.177867
0.845876 0.260146 0.177867
0.088768 0.462252 0.247296
0.088768 0.462252 0.247296
0.088768 0.462252 0.247296
0.088768 0.462252 0.247296
0.369444 0.540532 0.230488
0.557872 0.569277 0.221262
0.557872 0.569277 0.221262
0.664303 0.475234 0.208582
0.845876 0.260146 0.177867
0.088768 0.462252 0.247296
0.088768 0.462252 0.247296
0.088768 0.462252 0.247296
0.088768 0.462252 0.247296
0.088768 0.462252 0.247296
0.554418 0.568827 0.221544
0.557872 0.569277 0.221262
0.557872 0.569277 0.221262
0.559789 0.566870 0.220330
0.088768 0.462252 0.247296
0.088768 0.462252 0.247296
0.088768 0.462252 0.247296
0.088768 0.462252 0.247296
0.088768 0.462252 0.247296
0.088768 0.462252 0.247296
0.557872 0.569277 0.221262
0.557872 0.569277 0.221262
0.557872 0.569277 0.221262
0.088768 0.462252 0.247296
0.088768 0.462252 0.247296
0.088768 0.462252 0.247296
0.088768 0.462252 0.247296
0.088768 0.462252 0.247296
0.088768 0.462252 0.247296
0.088768 0.462252 0.247296
0.557872 0.569277 0.221262
0.557872 0.569277 0.221262
0.139788 0.130542 0.504674
0.139725 0.130482 0.504503
0.460414 0.304210 0.517606
0.663004 0.382196 0.522248
0.870075 0.439744 0.526824
0.903003 0.443628 0.500704
0.882522 0.370201 0.364250
0.845876 0.260146 0.177867
0.845876 0.260146 0.177867
0.139579 0.130342 0.504107
0.139516 0.130282 0.503936
0.456885 0.301828 0.516962
0.661671 0.381621 0.521615
0.869760 0.439357 0.526249
0.902918 0.443292 0.500076
0.882341 0.369612 0.363170
0.845876 0.260146 0.177867
0.845876 0.260146 0.177867
0.305228 0.358334 0.525637
0.305747 0.357347 0.525174
0.417464 0.371021 0.522379
0.650772 0.391677 0.523943
0.867802 0.436962 0.522681
0.902390 0.441206 0.496178
0.881202 0.365896 0.356358
0.845876 0.260146 0.177867
0.845876 0.260146 0.177867
0.237732 0.470921 0.559740
0.237840 0.470465 0.559436
0.291467 0.479948 0.558445
0.538611 0.515253 0.556057
0.833545 0.576365 0.567205
0.900692 0.434497 0.483638
0.877292 0.353149 0.332988
0.845876 0.260146 0.177867
0.845876 0.260146 0.177867
0.162420 0.595575 0.576667
0.162424 0.595359 0.576450
0.162446 0.594027 0.575108
0.355532 0.642125 0.575900
0.711234 0.704766 0.571261
0.812646 0.690090 0.538099
0.808733 0.392674 0.256069
0.845876 0.260146 0.177867
0.845876 0.260146 0.177867
0.115737 0.565844 0.441274
0.115678 0.565649 0.440905
0.115312 0.564433 0.438615
0.114133 0.560517 0.431237
0.450232 0.631383 0.399974
0.557872 0.569277 0.221262
0.557872 0.569277 0.221262
0.672778 0.467426 0.207613
0.845876 0.260146 0.177867
0.088768 0.462252 0.247296
0.088768 0.462252 0.247296
0.088768 0.462252 0.247296
0.088768 0.462252 0.247296
0.088768 0.462252 0.247296
0.553950 0.568765 0.221580
0.557872 0.569277 0.221262
0.557872 0.569277 0.221262
0.560233 0.566325 0.220126
0.088768 0.462252 0.247296
0.088768 0.462252 0.247296
0.088768 0.462252 0.247296
0.088768 0.462252 0.247296
0.088768 0.462252 0.247296
0.088768 0.462252 0.247296
0.557872 0.569277 0.221262
0.557872 0.569277 0.221262
0.557872 0.569277 0.221262
0.088768 0.462252 0.247296
0.088768 0.462252 0.247296
0.088768 0.462252 0.247296
0.088768 0.462252 0.247296
0.088768 0.462252 0.247296
0.088768 0.462252 0.247296
0.088768 0.462252 0.247296
0.557872 0.569277 0.221262
0.557872 0.569277 0.221262
0.299664 0.284609 0.800492
0.299603 0.284550 0.800411
0.299234 0.284192 0.799910
0.746279 0.524281 0.788243
0.904738 0.578239 0.787510
0.934842 0.596591 0.780979
0.931044 0.573980 0.741072
0.909294 0.469007 0.548096
0.845876 0.260146 0.177867
0.299464 0.284415 0.800222
0.299404 0.284357 0.800141
0.299034 0.283998 0.799639
0.745221 0.523927 0.788021
0.904576 0.578041 0.787312
0.934820 0.596465 0.780755
0.931021 0.573839 0.740823
0.909227 0.468722 0.547565
0.845876 0.260146 0.177867
0.298232 0.283221 0.798554
0.298172 0.283162 0.798472
0.297800 0.282802 0.797969
0.738602 0.521725 0.786652
0.903515 0.576788 0.786038
0.934689 0.595683 0.779376
0.930874 0.572968 0.739285
0.908813 0.466957 0.544273
0.845876 0.260146 0.177867
0.398342 0.573355 0.803827
0.398713 0.572865 0.803669
0.401025 0.569816 0.802683
0.651508 0.608167 0.802504
0.890254 0.632909 0.798732
0.934277 0.593227 0.775041
0.930350 0.570081 0.734084
0.907481 0.461321 0.533762
0.845876 0.260146 0.177867
0.257996 0.724486 0.828749
0.258074 0.724312 0.828656
0.258551 0.723236 0.828083
0.426707 0.749849 0.825070
0.790756 0.799524 0.822406
0.901325 0.814971 0.823501
0.928653 0.560836 0.717379
0.902723 0.442520 0.498633
0.845876 0.260146 0.177867
0.200376 0.768622 0.809133
0.200353 0.768582 0.809068
0.200218 0.768334 0.808669
0.199792 0.767557 0.807420
0.617474 0.837245 0.803658
0.869784 0.876686 0.799411
0.859826 0.858248 0.758056
0.801754 0.560431 0.412511
0.845876 0.260146 0.177867
0.147932 0.656237 0.610350
0.147894 0.656146 0.610182
0.147662 0.655581 0.609141
0.146928 0.653800 0.605861
0.144701 0.648146 0.595367
0.749825 0.754965 0.563401
0.642851 0.651095 0.368025
0.557872 0.569277 0.221262
0.562117 0.564254 0.219494
0.088768 0.462252 0.247296
0.088768 0.462252 0.247296
0.088768 0.462252 0.247296
0.088768 0.462252 0.247296
0.088768 0.462252 0.247296
0.088768 0.462252 0.247296
0.557872 0.569277 0.221262
0.557872 0.569277 0.221262
0.557872 0.569277 0.221262
0.088768 0.462252 0.247296
0.088768 0.462252 0.247296
0.088768 0.462252 0.247296
0.088768 0.462252 0.247296
0.088768 0.462252 0.247296
0.088768 0.462252 0.247296
0.088768 0.462252 0.247296
0.557872 0.569277 0.221262
0.557872 0.569277 0.221262
0.494811 0.474653 0.953593
0.494811 0.474653 0.953593
0.494811 0.474653 0.953593
0.667855 0.577915 0.908761
0.905229 0.646353 0.902533
0.945445 0.676018 0.900276
0.945445 0.676018 0.900276
0.945445 0.676018 0.900276
0.936333 0.606239 0.797463
0.494811 0.474653 0.953593
0.494811 0.474653 0.953593
0.494811 0.474653 0.953593
0.665849 0.577456 0.909172
0.905057 0.646258 0.902539
0.945445 0.676018 0.900276
0.945445 0.676018 0.900276
0.945445 0.676018 0.900276
0.936316 0.606129 0.797275
0.494811 0.474653 0.953593
0.494811 0.474653 0.953593
0.494811 0.474653 0.953593
0.651780 0.573872 0.912398
0.903991 0.645669 0.902578
0.945445 0.676018 0.900276
0.945445 0.676018 0.900276
0.945445 0.676018 0.900276
0.936211 0.605445 0.796111
0.494811 0.474653 0.953593
0.494811 0.474653 0.953593
0.494811 0.474653 0.953593
0.494811 0.474653 0.953593
0.900613 0.643805 0.902699
0.945445 0.676018 0.900276
0.945445 0.676018 0.900276
0.945445 0.676018 0.900276
0.935882 0.603298 0.792455
0.383362 0.746488 0.920533
0.383580 0.746284 0.920518
0.384926 0.745026 0.920427
0.389200 0.741030 0.920136
0.823041 0.803753 0.915566
0.928733 0.788956 0.909126
0.945445 0.676018 0.900276
0.945445 0.676018 0.900276
0.934816 0.596440 0.780713
0.260208 0.860532 0.927679
0.260208 0.860532 0.927679
0.260208 0.860532 0.927679
0.260208 0.860532 0.927679
0.595357 0.895968 0.924368
0.888476 0.925874 0.921119
0.888565 0.925572 0.921086
0.945445 0.676018 0.900276
0.930683 0.571892 0.737358
0.260208 0.860532 0.927679
0.260208 0.860532 0.927679
0.260208 0.860532 0.927679
0.260208 0.860532 0.927679
0.260208 0.860532 0.927679
0.877719 0.924418 0.921275
0.888474 0.925870 0.921109
0.887099 0.922553 0.913592
0.834503 0.776519 0.629418
0.206558 0.779918 0.827306
0.206537 0.779880 0.827245
0.206409 0.779646 0.826868
0.206010 0.778914 0.825690
0.204767 0.776639 0.822031
0.200833 0.769458 0.810477
0.866248 0.868865 0.781098
0.735458 0.737396 0.528554
0.557872 0.569277 0.221262
0.088768 0.462252 0.247296
0.088768 0.462252 0.247296
0.088768 0.462252 0.247296
0.088768 0.462252 0.247296
0.088768 0.462252 0.247296
0.088768 0.462252 0.247296
0.088768 0.462252 0.247296
0.557872 0.569277 0.221262
0.557872 0.569277 0.221262
0.494811 0.474653 0.953593
0.494811 0.474653 0.953593
0.494811 0.474653 0.953593
0.494811 0.474653 0.953593
0.773097 0.599359 0.905854
0.945445 0.676018 0.900276
0.945445 0.676018 0.900276
0.945445 0.676018 0.900276
0.945445 0.676018 0.900276
0.494811 0.474653 0.953593
0.494811 0.474653 0.953593
0.494811 0.474653 0.953593
0.494811 0.474653 0.953593
0.772147 0.599125 0.905871
0.945445 0.676018 0.900276
0.945445 0.676018 0.900276
0.945445 0.676018 0.900276
0.945445 0.676018 0.900276
0.494811 0.474653 0.953593
0.494811 0.474653 0.953593
0.494811 0.474653 0.953593
0.494811 0.474653 0.953593
0.766149 0.597646 0.905979
0.945445 0.676018 0.900276
0.945445 0.676018 0.900276
0.945445 0.676018 0.900276
0.945445 0.676018 0.900276
0.494811 0.474653 0.953593
0.494811 0.474653 0.953593
0.494811 0.474653 0.953593
0.494811 0.474653 0.953593
0.743717 0.592788 0.906325
0.945445 0.676018 0.900276
0.945445 0.676018 0.900276
0.945445 0.676018 0.900276
0.945445 0.676018 0.900276
0.494811 0.474653 0.953593
0.494811 0.474653 0.953593
0.494811 0.474653 0.953593
0.494811 0.474653 0.953593
0.627505 0.564190 0.920417
0.945445 0.676018 0.900276
0.945445 0.676018 0.900276
0.945445 0.676018 0.900276
0.945445 0.676018 0.900276
0.270635 0.851662 0.927284
0.270679 0.851625 0.927282
0.270947 0.851398 0.927272
0.271852 0.850624 0.927237
0.275524 0.847379 0.927085
0.894381 0.914432 0.920289
0.909940 0.873238 0.916567
0.945445 0.676018 0.900276
0.945445 0.676018 0.900276
0.260208 0.860532 0.927679
0.260208 0.860532 0.927679
0.260208 0.860532 0.927679
0.260208 0.860532 0.927679
0.260208 0.860532 0.927679
0.811980 0.917063 0.922060
0.888476 0.925874 0.921119
0.888476 0.925874 0.921119
0.945445 0.676018 0.900276
0.260208 0.860532 0.927679
0.260208 0.860532 0.927679
0.260208 0.860532 0.927679
0.260208 0.860532 0.927679
0.260208 0.860532 0.927679
0.260208 0.860532 0.927679
0.888476 0.925874 0.921119
0.888476 0.925874 0.921119
0.888476 0.925874 0.921119
0.260208 0.860532 0.927679
0.260208 0.860532 0.927679
0.260208 0.860532 0.927679
0.260208 0.860532 0.927679
0.260208 0.860532 0.927679
0.260208 0.860532 0.927679
0.260208 0.860532 0.927679
0.888177 0.925114 0.919434
0.856497 0.852743 0.746109
0.494811 0.474653 0.953593
0.494811 0.474653 0.953593
0.494811 0.474653 0.953593
0.494811 0.474653 0.953593
0.494811 0.474653 0.953593
0.882007 0.634567 0.903302
0.945445 0.676018 0.900276
0.945445 0.676018 0.900276
0.945445 0.676018 0.900276
0.494811 0.474653 0.953593
0.494811 0.474653 0.953593
0.494811 0.474653 0.953593
0.494811 0.474653 0.953593
0.494811 0.474653 0.953593
0.881725 0.634447 0.903310
0.945445 0.676018 0.900276
0.945445 0.676018 0.900276
0.945445 0.676018 0.900276
0.494811 0.474653 0.953593
0.494811 0.474653 0.953593
0.494811 0.474653 0.953593
0.494811 0.474653 0.953593
0.494811 0.474653 0.953593
0.879976 0.633702 0.903361
0.945445 0.676018 0.900276
0.945445 0.676018 0.900276
0.945445 0.676018 0.900276
0.494811 0.474653 0.953593
0.494811 0.474653 0.953593
0.494811 0.474653 0.953593
0.494811 0.474653 0.953593
0.494811 0.474653 0.953593
0.874376 0.631320 0.903525
0.945445 0.676018 0.900276
0.945445 0.676018 0.900276
0.945445 0.676018 0.900276
0.494811 0.474653 0.953593
0.494811 0.474653 0.953593
0.494811 0.474653 0.953593
0.494811 0.474653 0.953593
0.494811 0.474653 0.953593
0.854258 0.623317 0.904088
0.945445 0.676018 0.900276
0.945445 0.676018 0.900276
0.945445 0.676018 0.900276
0.494811 0.474653 0.953593
0.494811 0.474653 0.953593
0.494811 0.474653 0.953593
0.494811 0.474653 0.953593
0.494811 0.474653 0.953593
0.710268 0.586059 0.906788
0.945445 0.676018 0.900276
0.945445 0.676018 0.900276
0.945445 0.676018 0.900276
0.260208 0.860532 0.927679
0.260208 0.860532 0.927679
0.260208 0.860532 0.927679
0.260208 0.860532 0.927679
0.260208 0.860532 0.927679
0.260208 0.860532 0.927679
0.888476 0.925874 0.921119
0.888476 0.925874 0.921119
0.945445 0.676018 0.900276
0.260208 0.860532 0.927679
0.260208 0.860532 0.927679
0.260208 0.860532 0.927679
0.260208 0.860532 0.927679
0.260208 0.860532 0.927679
0.260208 0.860532 0.927679
0.888476 0.925874 0.921119
0.888476 0.925874 0.921119
0.888476 0.925874 0.921119
0.260208 0.860532 0.927679
0.260208 0.860532 0.927679
0.260208 0.860532 0.927679
0.260208 0.860532 0.927679
0.260208 0.860532 0.927679
0.260208 0.860532 0.927679
0.260208 0.860532 0.927679
0.888476 0.925874 0.921119
0.888476 0.925874 0.921119
0.494811 0.474653 0.953593
0.494811 0.474653 0.953593
0.494811 0.474653 0.953593
0.494811 0.474653 0.953593
0.494811 0.474653 0.953593
0.494811 0.474653 0.953593
0.944694 0.675124 0.900301
0.945445 0.676018 0.900276
0.945445 0.676018 0.900276
0.494811 0.474653 0.953593
0.494811 0.474653 0.953593
0.494811 0.474653 0.953593
0.494811 0.474653 0.953593
0.494811 0.474653 0.953593
0.494811 0.474653 0.953593
0.944684 0.675113 0.900301
0.945445 0.676018 0.900276
0.945445 0.676018 0.900276
0.494811 0.474653 0.953593
0.494811 0.474653 0.953593
0.494811 0.474653 0.953593
0.494811 0.474653 0.953593
0.494811 0.474653 0.953593
0.494811 0.474653 0.953593
0.944618 0.675034 0.900303
0.945445 0.676018 0.900276
0.945445 0.676018 0.900276
0.494811 0.474653 0.953593
0.494811 0.474653 0.953593
0.494811 0.474653 0.953593
0.494811 0.474653 0.953593
0.494811 0.474653 0.953593
0.494811 0.474653 0.953593
0.944395 0.674768 0.900311
0.945445 0.676018 0.900276
0.945445 0.676018 0.900276
0.494811 0.474653 0.953593
0.494811 0.474653 0.953593
0.494811 0.474653 0.953593
0.494811 0.474653 0.953593
0.494811 0.474653 0.953593
0.494811 0.474653 0.953593
0.943023 0.673355 0.900394
0.945445 0.676018 0.900276
0.945445 0.676018 0.900276
0.494811 0.474653 0.953593
0.494811 0.474653 0.953593
0.494811 0.474653 0.953593
0.494811 0.474653 0.953593
0.494811 0.474653 0.953593
0.494811 0.474653 0.953593
0.936079 0.666892 0.900842
0.945445 0.676018 0.900276
0.945445 0.676018 0.900276
0.494811 0.474653 0.953593
0.494811 0.474653 0.953593
0.494811 0.474653 0.953593
0.494811 0.474653 0.953593
0.494811 0.474653 0.953593
0.494811 0.474653 0.953593
0.820901 0.612080 0.904921
0.945445 0.676018 0.900276
0.945445 0.676018 0.900276
0.260208 0.860532 0.927679
0.260208 0.860532 0.927679
0.260208 0.860532 0.927679
0.260208 0.860532 0.927679
0.260208 0.860532 0.927679
0.260208 0.860532 0.927679
0.260208 0.860532 0.927679
0.888476 0.925874 0.921119
0.888476 0.925874 0.921119
0.260208 0.860532 0.927679
0.260208 0.860532 0.927679
0.260208 0.860532 0.927679
0.260208 0.860532 0.927679
0.260208 0.860532 0.927679
0.260208 0.860532 0.927679
0.260208 0.860532 0.927679
0.888476 0.925874 0.921119
0.888476 0.925874 0.921119
