public/luts/phone.cube
# framediff hero grade: FX3 fit with measured output gain for phone
# generated by gradefit.py
LUT_3D_SIZE 65
DOMAIN_MIN 0 0 0
DOMAIN_MAX 1 1 1
0.041967 0.035734 0.076390
0.041967 0.035734 0.076390
0.041967 0.035734 0.076390
0.041967 0.035734 0.076390
0.041967 0.035734 0.076390
0.041967 0.035734 0.076390
0.056791 0.035422 0.076821
0.105170 0.035240 0.076748
0.130093 0.035953 0.075901
0.149219 0.036829 0.075047
0.166171 0.038053 0.074453
0.182568 0.039739 0.074188
0.201540 0.042515 0.074431
0.222055 0.047059 0.075874
0.243183 0.053034 0.078382
0.265627 0.060564 0.082033
0.289279 0.069666 0.086903
0.314152 0.080398 0.093058
0.340347 0.092793 0.100547
0.367662 0.106700 0.109274
0.396058 0.121867 0.119010
0.425343 0.137813 0.129341
0.455458 0.153854 0.139574
0.486195 0.168886 0.148774
0.518026 0.182348 0.156495
0.550623 0.192687 0.161305
0.584534 0.200732 0.163894
0.619448 0.208442 0.165980
0.654455 0.215988 0.167776
0.689302 0.223393 0.169338
0.723709 0.230668 0.170701
0.756720 0.237676 0.171846
0.786923 0.244224 0.172779
0.811997 0.249948 0.173518
0.830213 0.254507 0.174095
0.841076 0.257614 0.174587
0.844902 0.259028 0.175021
0.845876 0.259390 0.175134
0.845876 0.259390 0.175134
0.845876 0.259390 0.175134
0.845876 0.259390 0.175134
0.845876 0.259390 0.175134
0.845876 0.259390 0.175134
0.845876 0.259390 0.175134
0.845876 0.259390 0.175134
0.845876 0.259390 0.175134
0.845876 0.259390 0.175134
0.845876 0.259390 0.175134
0.845876 0.259390 0.175134
0.845876 0.259390 0.175134
0.845876 0.259390 0.175134
0.845876 0.259390 0.175134
0.845876 0.259390 0.175134
0.845876 0.259390 0.175134
0.845876 0.259390 0.175134
0.845876 0.259390 0.175134
0.845876 0.259390 0.175134
0.845876 0.259390 0.175134
0.845876 0.259390 0.175134
0.845876 0.259390 0.175134
0.845876 0.259390 0.175134
0.845876 0.259390 0.175134
0.845876 0.259390 0.175134
0.845876 0.259390 0.175134
0.845876 0.259390 0.175134
0.041967 0.035734 0.076390
0.041967 0.035734 0.076390
0.041967 0.035734 0.076390
0.041967 0.035734 0.076390
0.041967 0.035734 0.076390
0.041967 0.035734 0.076390
0.056791 0.035422 0.076821
0.105170 0.035240 0.076748
0.130093 0.035953 0.075901
0.149219 0.036829 0.075047
0.166171 0.038053 0.074453
0.182568 0.039739 0.074188
0.201540 0.042515 0.074431
0.222055 0.047059 0.075874
0.243183 0.053034 0.078382
0.265627 0.060564 0.082033
0.289279 0.069666 0.086903
0.314152 0.080398 0.093058
0.340347 0.092793 0.100547
0.367662 0.106700 0.109274
0.396058 0.121867 0.119010
0.425343 0.137813 0.129341
0.455458 0.153854 0.139574
0.486195 0.168886 0.148774
0.518026 0.182348 0.156495
0.550623 0.192687 0.161305
0.584534 0.200732 0.163894
0.619448 0.208442 0.165980
0.654455 0.215988 0.167776
0.689302 0.223393 0.169338
0.723709 0.230668 0.170701
0.756720 0.237676 0.171846
0.786923 0.244224 0.172779
0.811997 0.249948 0.173518
0.830213 0.254507 0.174095
0.841076 0.257614 0.174587
0.844902 0.259028 0.175021
0.845876 0.259390 0.175134
0.845876 0.259390 0.175134
0.845876 0.259390 0.175134
0.845876 0.259390 0.175134
0.845876 0.259390 0.175134
0.845876 0.259390 0.175134
0.845876 0.259390 0.175134
0.845876 0.259390 0.175134
0.845876 0.259390 0.175134
0.845876 0.259390 0.175134
0.845876 0.259390 0.175134
0.845876 0.259390 0.175134
0.845876 0.259390 0.175134
0.845876 0.259390 0.175134
0.845876 0.259390 0.175134
0.845876 0.259390 0.175134
0.845876 0.259390 0.175134
0.845876 0.259390 0.175134
0.845876 0.259390 0.175134
0.845876 0.259390 0.175134
0.845876 0.259390 0.175134
0.845876 0.259390 0.175134
0.845876 0.259390 0.175134
0.845876 0.259390 0.175134
0.845876 0.259390 0.175134
0.845876 0.259390 0.175134
0.845876 0.259390 0.175134
0.845876 0.259390 0.175134
0.041967 0.035734 0.076390
0.041967 0.035734 0.076390
0.041967 0.035734 0.076390
0.041967 0.035734 0.076390
0.041967 0.035734 0.076390
0.041967 0.035734 0.076390
0.056791 0.035422 0.076821
0.105170 0.035240 0.076748
0.130093 0.035953 0.075901
0.149219 0.036829 0.075047
0.166171 0.038053 0.074453
0.182568 0.039739 0.074188
0.201540 0.042515 0.074431
0.222055 0.047059 0.075874
0.243183 0.053034 0.078382
0.265627 0.060564 0.082033
0.289279 0.069666 0.086903
0.314152 0.080398 0.093058
0.340347 0.092793 0.100547
0.367662 0.106700 0.109274
0.396058 0.121867 0.119010
0.425343 0.137813 0.129341
0.455458 0.153854 0.139574
0.486195 0.168886 0.148774
0.518026 0.182348 0.156495
0.550623 0.192687 0.161305
0.584534 0.200732 0.163894
0.619448 0.208442 0.165980
0.654455 0.215988 0.167776
0.689302 0.223393 0.169338
0.723709 0.230668 0.170701
0.756720 0.237676 0.171846
0.786923 0.244224 0.172779
0.811997 0.249948 0.173518
0.830213 0.254507 0.174095
0.841076 0.257614 0.174587
0.844902 0.259028 0.175021
0.845876 0.259390 0.175134
0.845876 0.259390 0.175134
0.845876 0.259390 0.175134
0.845876 0.259390 0.175134
0.845876 0.259390 0.175134
0.845876 0.259390 0.175134
0.845876 0.259390 0.175134
0.845876 0.259390 0.175134
0.845876 0.259390 0.175134
0.845876 0.259390 0.175134
0.845876 0.259390 0.175134
0.845876 0.259390 0.175134
0.845876 0.259390 0.175134
0.845876 0.259390 0.175134
0.845876 0.259390 0.175134
0.845876 0.259390 0.175134
0.845876 0.259390 0.175134
0.845876 0.259390 0.175134
0.845876 0.259390 0.175134
0.845876 0.259390 0.175134
0.845876 0.259390 0.175134
0.845876 0.259390 0.175134
0.845876 0.259390 0.175134
0.845876 0.259390 0.175134
0.845876 0.259390 0.175134
0.845876 0.259390 0.175134
0.845876 0.259390 0.175134
0.845876 0.259390 0.175134
0.041967 0.035734 0.076390
0.041967 0.035734 0.076390
0.041967 0.035734 0.076390
0.041967 0.035734 0.076390
0.041967 0.035734 0.076390
0.041967 0.035734 0.076390
0.056791 0.035422 0.076821
0.105170 0.035240 0.076748
0.130093 0.035953 0.075901
0.149219 0.036829 0.075047
0.166171 0.038053 0.074453
0.182568 0.039739 0.074188
0.201540 0.042515 0.074431
0.222055 0.047059 0.075874
0.243183 0.053034 0.078382
0.265627 0.060564 0.082033
0.289279 0.069666 0.086903
0.314152 0.080398 0.093058
0.340347 0.092793 0.100547
0.367662 0.106700 0.109274
0.396058 0.121867 0.119010
0.425343 0.137813 0.129341
0.455458 0.153854 0.139574
0.486195 0.168886 0.148774
0.518026 0.182348 0.156495
0.550623 0.192687 0.161305
0.584534 0.200732 0.163894
0.619448 0.208442 0.165980
0.654455 0.215988 0.167776
0.689302 0.223393 0.169338
0.723709 0.230668 0.170701
0.756720 0.237676 0.171846
0.786923 0.244224 0.172779
0.811997 0.249948 0.173518
0.830213 0.254507 0.174095
0.841076 0.257614 0.174587
0.844902 0.259028 0.175021
0.845876 0.259390 0.175134
0.845876 0.259390 0.175134
0.845876 0.259390 0.175134
0.845876 0.259390 0.175134
0.845876 0.259390 0.175134
0.845876 0.259390 0.175134
0.845876 0.259390 0.175134
0.845876 0.259390 0.175134
0.845876 0.259390 0.175134
0.845876 0.259390 0.175134
0.845876 0.259390 0.175134
0.845876 0.259390 0.175134
0.845876 0.259390 0.175134
0.845876 0.259390 0.175134
0.845876 0.259390 0.175134
0.845876 0.259390 0.175134
0.845876 0.259390 0.175134
0.845876 0.259390 0.175134
0.845876 0.259390 0.175134
0.845876 0.259390 0.175134
0.845876 0.259390 0.175134
0.845876 0.259390 0.175134
0.845876 0.259390 0.175134
0.845876 0.259390 0.175134
0.845876 0.259390 0.175134
0.845876 0.259390 0.175134
0.845876 0.259390 0.175134
0.845876 0.259390 0.175134
0.041967 0.035734 0.076390
0.041967 0.035734 0.076390
0.041967 0.035734 0.076390
0.041967 0.035734 0.076390
0.041967 0.035734 0.076390
0.041967 0.035734 0.076390
0.056791 0.035422 0.076821
0.105170 0.035240 0.076748
0.130093 0.035953 0.075901
0.149219 0.036829 0.075047
0.166171 0.038053 0.074453
0.182568 0.039739 0.074188
0.201540 0.042515 0.074431
0.222055 0.047059 0.075874
0.243183 0.053034 0.078382
0.265627 0.060564 0.082033
0.289279 0.069666 0.086903
0.314152 0.080398 0.093058
0.340347 0.092793 0.100547
0.367662 0.106700 0.109274
0.396058 0.121867 0.119010
0.425343 0.137813 0.129341
0.455458 0.153854 0.139574
0.486195 0.168886 0.148774
0.518026 0.182348 0.156495
0.550623 0.192687 0.161305
0.584534 0.200732 0.163894
0.619448 0.208442 0.165980
0.654455 0.215988 0.167776
0.689302 0.223393 0.169338
0.723709 0.230668 0.170701
0.756720 0.237676 0.171846
0.786923 0.244224 0.172779
0.811997 0.249948 0.173518
0.830213 0.254507 0.174095
0.841076 0.257614 0.174587
0.844902 0.259028 0.175021
0.845876 0.259390 0.175134
0.845876 0.259390 0.175134
0.845876 0.259390 0.175134
0.845876 0.259390 0.175134
0.845876 0.259390 0.175134
0.845876 0.259390 0.175134
0.845876 0.259390 0.175134
0.845876 0.259390 0.175134
0.845876 0.259390 0.175134
0.845876 0.259390 0.175134
0.845876 0.259390 0.175134
0.845876 0.259390 0.175134
0.845876 0.259390 0.175134
0.845876 0.259390 0.175134
0.845876 0.259390 0.175134
0.845876 0.259390 0.175134
0.845876 0.259390 0.175134
0.845876 0.259390 0.175134
0.845876 0.259390 0.175134
0.845876 0.259390 0.175134
0.845876 0.259390 0.175134
0.845876 0.259390 0.175134
0.845876 0.259390 0.175134
0.845876 0.259390 0.175134
0.845876 0.259390 0.175134
0.845876 0.259390 0.175134
0.845876 0.259390 0.175134
0.845876 0.259390 0.175134
0.041967 0.035734 0.076390
0.041967 0.035734 0.076390
0.041967 0.035734 0.076390
0.041967 0.035734 0.076390
0.041967 0.035734 0.076390
0.041967 0.035734 0.076390
0.056791 0.035422 0.076821
0.105170 0.035240 0.076748
0.130093 0.035953 0.075901
0.149219 0.036829 0.075047
0.166171 0.038053 0.074453
0.182568 0.039739 0.074188
0.201540 0.042515 0.074431
0.222055 0.047059 0.075874
0.243183 0.053034 0.078382
0.265627 0.060564 0.082033
0.289279 0.069666 0.086903
0.314152 0.080398 0.093058
0.340347 0.092793 0.100547
0.367662 0.106700 0.109274
0.396058 0.121867 0.119010
0.425343 0.137813 0.129341
0.455458 0.153854 0.139574
0.486195 0.168886 0.148774
0.518026 0.182348 0.156495
0.550623 0.192687 0.161305
0.584534 0.200732 0.163894
0.619448 0.208442 0.165980
0.654455 0.215988 0.167776
0.689302 0.223393 0.169338
0.723709 0.230668 0.170701
0.756720 0.237676 0.171846
0.786923 0.244224 0.172779
0.811997 0.249948 0.173518
0.830213 0.254507 0.174095
0.841076 0.257614 0.174587
0.844902 0.259028 0.175021
0.845876 0.259390 0.175134
0.845876 0.259390 0.175134
0.845876 0.259390 0.175134
0.845876 0.259390 0.175134
0.845876 0.259390 0.175134
0.845876 0.259390 0.175134
0.845876 0.259390 0.175134
0.845876 0.259390 0.175134
0.845876 0.259390 0.175134
0.845876 0.259390 0.175134
0.845876 0.259390 0.175134
0.845876 0.259390 0.175134
0.845876 0.259390 0.175134
0.845876 0.259390 0.175134
0.845876 0.259390 0.175134
0.845876 0.259390 0.175134
0.845876 0.259390 0.175134
0.845876 0.259390 0.175134
0.845876 0.259390 0.175134
0.845876 0.259390 0.175134
0.845876 0.259390 0.175134
0.845876 0.259390 0.175134
0.845876 0.259390 0.175134
0.845876 0.259390 0.175134
0.845876 0.259390 0.175134
0.845876 0.259390 0.175134
0.845876 0.259390 0.175134
0.845876 0.259390 0.175134
0.043351 0.054982 0.078094
0.043351 0.054982 0.078094
0.043351 0.054982 0.078094
0.043351 0.054982 0.078094
0.043351 0.054982 0.078094
0.043351 0.054982 0.078094
0.056348 0.054066 0.077093
0.104929 0.035240 0.076757
0.129913 0.035945 0.075907
0.149075 0.036822 0.075053
0.166036 0.038042 0.074457
0.182449 0.039723 0.074187
0.201427 0.042490 0.074423
0.221956 0.047037 0.075867
0.243094 0.053008 0.078371
0.265544 0.060534 0.082019
0.289204 0.069635 0.086886
0.314082 0.080366 0.093039
0.340283 0.092762 0.100527
0.367604 0.106670 0.109255
0.396006 0.121839 0.118992
0.425297 0.137788 0.129325
0.455417 0.153833 0.139560
0.486159 0.168869 0.148763
0.517994 0.182337 0.156489
0.550594 0.192679 0.161302
0.584508 0.200726 0.163892
0.619425 0.208437 0.165978
0.654434 0.215983 0.167775
0.689284 0.223389 0.169337
0.723694 0.230665 0.170701
0.756708 0.237674 0.171846
0.786914 0.244222 0.172778
0.811992 0.249946 0.173518
0.830210 0.254506 0.174094
0.841074 0.257614 0.174587
0.844902 0.259027 0.175021
0.845876 0.259390 0.175134
0.845876 0.259390 0.175134
0.845876 0.259390 0.175134
0.845876 0.259390 0.175134
0.845876 0.259390 0.175134
0.845876 0.259390 0.175134
0.845876 0.259390 0.175134
0.845876 0.259390 0.175134
0.845876 0.259390 0.175134
0.845876 0.259390 0.175134
0.845876 0.259390 0.175134
0.845876 0.259390 0.175134
0.845876 0.259390 0.175134
0.845876 0.259390 0.175134
0.845876 0.259390 0.175134
0.845876 0.259390 0.175134
0.845876 0.259390 0.175134
0.845876 0.259390 0.175134
0.845876 0.259390 0.175134
0.845876 0.259390 0.175134
0.845876 0.259390 0.175134
0.845876 0.259390 0.175134
0.845876 0.259390 0.175134
0.845876 0.259390 0.175134
0.845876 0.259390 0.175134
0.845876 0.259390 0.175134
0.845876 0.259390 0.175134
0.845876 0.259390 0.175134
0.074647 0.083922 0.095338
0.074647 0.083922 0.095338
0.074647 0.083922 0.095338
0.074647 0.083922 0.095338
0.074647 0.083922 0.095338
0.074647 0.083922 0.095338
0.074467 0.083789 0.095151
0.098997 0.085656 0.107189
0.117437 0.088851 0.110737
0.133377 0.091743 0.112482
0.152470 0.095999 0.114370
0.170609 0.099684 0.115881
0.191896 0.103913 0.117920
0.214979 0.105911 0.117584
0.237898 0.102742 0.112474
0.264060 0.060010 0.081754
0.287867 0.069087 0.086582
0.312843 0.079799 0.092703
0.339162 0.092202 0.100179
0.366593 0.106137 0.108914
0.395098 0.121343 0.118670
0.424485 0.137347 0.129040
0.454688 0.153452 0.139321
0.485514 0.168566 0.148582
0.517425 0.182143 0.156393
0.550068 0.192545 0.161254
0.584044 0.200623 0.163864
0.619023 0.208350 0.165958
0.654067 0.215904 0.167756
0.688971 0.223322 0.169324
0.723433 0.230610 0.170691
0.756497 0.237629 0.171839
0.786757 0.244187 0.172774
0.811889 0.249921 0.173515
0.830156 0.254491 0.174092
0.841037 0.257603 0.174585
0.844889 0.259023 0.175020
0.845876 0.259390 0.175134
0.845876 0.259390 0.175134
0.845876 0.259390 0.175134
0.845876 0.259390 0.175134
0.845876 0.259390 0.175134
0.845876 0.259390 0.175134
0.845876 0.259390 0.175134
0.845876 0.259390 0.175134
0.845876 0.259390 0.175134
0.845876 0.259390 0.175134
0.845876 0.259390 0.175134
0.845876 0.259390 0.175134
0.845876 0.259390 0.175134
0.845876 0.259390 0.175134
0.845876 0.259390 0.175134
0.845876 0.259390 0.175134
0.845876 0.259390 0.175134
0.845876 0.259390 0.175134
0.845876 0.259390 0.175134
0.845876 0.259390 0.175134
0.845876 0.259390 0.175134
0.845876 0.259390 0.175134
0.845876 0.259390 0.175134
0.845876 0.259390 0.175134
0.845876 0.259390 0.175134
0.845876 0.259390 0.175134
0.845876 0.259390 0.175134
0.845876 0.259390 0.175134
0.101107 0.106287 0.124318
0.101107 0.106287 0.124318
0.101107 0.106287 0.124318
0.101107 0.106287 0.124318
0.101107 0.106287 0.124318
0.101107 0.106287 0.124318
0.101029 0.106189 0.124216
0.113420 0.106723 0.126985
0.124542 0.106106 0.125178
0.135241 0.106319 0.123863
0.150782 0.109338 0.124399
0.166619 0.112643 0.125251
0.186065 0.116828 0.126624
0.208170 0.121901 0.128791
0.230909 0.126922 0.131107
0.255651 0.132253 0.133832
0.281571 0.137732 0.136810
0.308753 0.143207 0.140039
0.337241 0.145401 0.141349
0.365578 0.105601 0.108573
0.394186 0.120846 0.118347
0.423670 0.136904 0.128754
0.453958 0.153070 0.139081
0.484868 0.168263 0.148400
0.516842 0.181911 0.156265
0.549542 0.192411 0.161205
0.583580 0.200521 0.163836
0.618621 0.208263 0.165937
0.653700 0.215825 0.167737
0.688657 0.223256 0.169310
0.723171 0.230555 0.170682
0.756287 0.237584 0.171833
0.786600 0.244152 0.172769
0.811786 0.249896 0.173511
0.830103 0.254476 0.174090
0.841000 0.257592 0.174583
0.844877 0.259018 0.175018
0.845876 0.259390 0.175134
0.845876 0.259390 0.175134
0.845876 0.259390 0.175134
0.845876 0.259390 0.175134
0.845876 0.259390 0.175134
0.845876 0.259390 0.175134
0.845876 0.259390 0.175134
0.845876 0.259390 0.175134
0.845876 0.259390 0.175134
0.845876 0.259390 0.175134
0.845876 0.259390 0.175134
0.845876 0.259390 0.175134
0.845876 0.259390 0.175134
0.845876 0.259390 0.175134
0.845876 0.259390 0.175134
0.845876 0.259390 0.175134
0.845876 0.259390 0.175134
0.845876 0.259390 0.175134
0.845876 0.259390 0.175134
0.845876 0.259390 0.175134
0.845876 0.259390 0.175134
0.845876 0.259390 0.175134
0.845876 0.259390 0.175134
0.845876 0.259390 0.175134
0.845876 0.259390 0.175134
0.845876 0.259390 0.175134
0.845876 0.259390 0.175134
0.845876 0.259390 0.175134
0.111626 0.121651 0.138634
0.111626 0.121651 0.138634
0.111626 0.121651 0.138634
0.111626 0.121651 0.138634
0.111626 0.121651 0.138634
0.111626 0.121651 0.138634
0.111614 0.121605 0.138610
0.116333 0.117042 0.132832
0.125119 0.114392 0.128562
0.135033 0.113757 0.126358
0.148667 0.115739 0.126077
0.163041 0.118315 0.126317
0.180796 0.121700 0.126989
0.202613 0.127009 0.128931
0.224889 0.132317 0.130992
0.249618 0.138478 0.133755
0.275356 0.144643 0.136681
0.302289 0.150627 0.139765
0.330478 0.156306 0.142964
0.360027 0.161138 0.146103
0.390793 0.165624 0.149286
0.422540 0.164252 0.149779
0.453227 0.152688 0.138840
0.484220 0.167959 0.148218
0.516255 0.181669 0.156128
0.549015 0.192277 0.161156
0.583115 0.200418 0.163808
0.618219 0.208177 0.165916
0.653332 0.215746 0.167718
0.688343 0.223189 0.169296
0.722909 0.230499 0.170672
0.756077 0.237539 0.171826
0.786442 0.244117 0.172765
0.811683 0.249871 0.173508
0.830049 0.254461 0.174088
0.840962 0.257581 0.174581
0.844865 0.259014 0.175017
0.845876 0.259390 0.175134
0.845876 0.259390 0.175134
0.845876 0.259390 0.175134
0.845876 0.259390 0.175134
0.845876 0.259390 0.175134
0.845876 0.259390 0.175134
0.845876 0.259390 0.175134
0.845876 0.259390 0.175134
0.845876 0.259390 0.175134
0.845876 0.259390 0.175134
0.845876 0.259390 0.175134
0.845876 0.259390 0.175134
0.845876 0.259390 0.175134
0.845876 0.259390 0.175134
0.845876 0.259390 0.175134
0.845876 0.259390 0.175134
0.845876 0.259390 0.175134
0.845876 0.259390 0.175134
0.845876 0.259390 0.175134
0.845876 0.259390 0.175134
0.845876 0.259390 0.175134
0.845876 0.259390 0.175134
0.845876 0.259390 0.175134
0.845876 0.259390 0.175134
0.845876 0.259390 0.175134
0.845876 0.259390 0.175134
0.845876 0.259390 0.175134
0.845876 0.259390 0.175134
0.113808 0.129984 0.142898
0.113808 0.129984 0.142898
0.113808 0.129984 0.142898
0.113808 0.129984 0.142898
0.113808 0.129984 0.142898
0.113808 0.129984 0.142898
0.113803 0.129951 0.142884
0.117968 0.126197 0.137424
0.126909 0.123786 0.132957
0.137277 0.123502 0.130735
0.149975 0.125055 0.129995
0.163950 0.127408 0.129884
0.180836 0.130438 0.130087
0.201358 0.134939 0.131286
0.222284 0.139413 0.132578
0.246149 0.145037 0.134789
0.271112 0.150807 0.137209
0.297518 0.156635 0.139914
0.325448 0.162847 0.143035
0.354750 0.169111 0.146381
0.385476 0.174856 0.149747
0.417433 0.179262 0.152818
0.450921 0.182249 0.155664
0.483572 0.167655 0.148035
0.515668 0.181427 0.155991
0.548486 0.192143 0.161106
0.582649 0.200315 0.163779
0.617816 0.208090 0.165896
0.652964 0.215666 0.167699
0.688029 0.223123 0.169283
0.722647 0.230444 0.170662
0.755866 0.237493 0.171819
0.786285 0.244082 0.172760
0.811580 0.249846 0.173505
0.829996 0.254446 0.174086
0.840925 0.257570 0.174579
0.844852 0.259009 0.175015
0.845876 0.259390 0.175134
0.845876 0.259390 0.175134
0.845876 0.259390 0.175134
0.845876 0.259390 0.175134
0.845876 0.259390 0.175134
0.845876 0.259390 0.175134
0.845876 0.259390 0.175134
0.845876 0.259390 0.175134
0.845876 0.259390 0.175134
0.845876 0.259390 0.175134
0.845876 0.259390 0.175134
0.845876 0.259390 0.175134
0.845876 0.259390 0.175134
0.845876 0.259390 0.175134
0.845876 0.259390 0.175134
0.845876 0.259390 0.175134
0.845876 0.259390 0.175134
0.845876 0.259390 0.175134
0.845876 0.259390 0.175134
0.845876 0.259390 0.175134
0.845876 0.259390 0.175134
0.845876 0.259390 0.175134
0.845876 0.259390 0.175134
0.845876 0.259390 0.175134
0.845876 0.259390 0.175134
0.845876 0.259390 0.175134
0.845876 0.259390 0.175134
0.845876 0.259390 0.175134
0.114879 0.136770 0.145674
0.114879 0.136770 0.145674
0.114879 0.136770 0.145674
0.114879 0.136770 0.145674
0.114879 0.136770 0.145674
0.114879 0.136770 0.145674
0.114875 0.136741 0.145662
0.118756 0.134696 0.141953
0.128574 0.132648 0.137262
0.139536 0.132716 0.135021
0.151354 0.133868 0.133867
0.164887 0.135896 0.133353
0.180897 0.138462 0.133041
0.200613 0.142703 0.133817
0.220655 0.146913 0.134672
0.243986 0.152488 0.136622
0.268326 0.158272 0.138798
0.294243 0.164284 0.141321
0.321604 0.170443 0.144108
0.350394 0.176558 0.147105
0.380757 0.182510 0.150284
0.412370 0.187865 0.153397
0.445565 0.193021 0.156651
0.479979 0.195961 0.159245
0.515875 0.196128 0.161244
0.547912 0.191996 0.161052
0.582145 0.200203 0.163749
0.617378 0.207996 0.165873
0.652565 0.215580 0.167679
0.687687 0.223051 0.169268
0.722362 0.230384 0.170652
0.755637 0.237445 0.171812
0.786114 0.244044 0.172755
0.811468 0.249818 0.173502
0.829938 0.254430 0.174084
0.840885 0.257559 0.174577
0.844839 0.259004 0.175014
0.845876 0.259390 0.175134
0.845876 0.259390 0.175134
0.845876 0.259390 0.175134
0.845876 0.259390 0.175134
0.845876 0.259390 0.175134
0.845876 0.259390 0.175134
0.845876 0.259390 0.175134
0.845876 0.259390 0.175134
0.845876 0.259390 0.175134
0.845876 0.259390 0.175134
0.845876 0.259390 0.175134
0.845876 0.259390 0.175134
0.845876 0.259390 0.175134
0.845876 0.259390 0.175134
0.845876 0.259390 0.175134
0.845876 0.259390 0.175134
0.845876 0.259390 0.175134
0.845876 0.259390 0.175134
0.845876 0.259390 0.175134
0.845876 0.259390 0.175134
0.845876 0.259390 0.175134
0.845876 0.259390 0.175134
0.845876 0.259390 0.175134
0.845876 0.259390 0.175134
0.845876 0.259390 0.175134
0.845876 0.259390 0.175134
0.845876 0.259390 0.175134
0.845876 0.259390 0.175134
0.116292 0.145576 0.149235
0.116292 0.145576 0.149235
0.116292 0.145576 0.149235
0.116292 0.145576 0.149235
0.116292 0.145576 0.149235
0.116292 0.145576 0.149235
0.116287 0.145546 0.149223
0.118242 0.144822 0.147545
0.129143 0.143274 0.142417
0.140931 0.143799 0.140183
0.151967 0.144763 0.138779
0.165252 0.146669 0.138012
0.180531 0.148826 0.137247
0.199628 0.152673 0.137535
0.218840 0.156385 0.137827
0.241417 0.161511 0.139231
0.265068 0.166866 0.140877
0.290420 0.172549 0.142916
0.317258 0.178611 0.145329
0.345669 0.185130 0.148220
0.375605 0.191715 0.151358
0.406764 0.197851 0.154504
0.439586 0.203579 0.157706
0.473670 0.207970 0.160508
0.509193 0.211332 0.163071
0.546311 0.212306 0.165021
0.584190 0.206598 0.165302
0.616805 0.207872 0.165844
0.652042 0.215468 0.167652
0.687241 0.222956 0.169249
0.721990 0.230305 0.170638
0.755338 0.237381 0.171803
0.785891 0.243994 0.172749
0.811322 0.249782 0.173497
0.829862 0.254409 0.174081
0.840832 0.257543 0.174575
0.844821 0.258998 0.175012
0.845876 0.259390 0.175134
0.845876 0.259390 0.175134
0.845876 0.259390 0.175134
0.845876 0.259390 0.175134
0.845876 0.259390 0.175134
0.845876 0.259390 0.175134
0.845876 0.259390 0.175134
0.845876 0.259390 0.175134
0.845876 0.259390 0.175134
0.845876 0.259390 0.175134
0.845876 0.259390 0.175134
0.845876 0.259390 0.175134
0.845876 0.259390 0.175134
0.845876 0.259390 0.175134
0.845876 0.259390 0.175134
0.845876 0.259390 0.175134
0.845876 0.259390 0.175134
0.845876 0.259390 0.175134
0.845876 0.259390 0.175134
0.845876 0.259390 0.175134
0.845876 0.259390 0.175134
0.845876 0.259390 0.175134
0.845876 0.259390 0.175134
0.845876 0.259390 0.175134
0.845876 0.259390 0.175134
0.845876 0.259390 0.175134
0.845876 0.259390 0.175134
0.845876 0.259390 0.175134
0.117831 0.154961 0.153036
0.117831 0.154961 0.153036
0.117831 0.154961 0.153036
0.117831 0.154961 0.153036
0.117831 0.154961 0.153036
0.117831 0.154961 0.153036
0.117827 0.154934 0.153025
0.117748 0.154459 0.152832
0.129500 0.154196 0.147856
0.141777 0.155108 0.145566
0.152130 0.156045 0.144010
0.165336 0.158056 0.143137
0.179877 0.160076 0.142124
0.198517 0.163751 0.142091
0.217240 0.167307 0.142068
0.239095 0.172112 0.142993
0.262124 0.177211 0.144189
0.286909 0.182759 0.145833
0.313128 0.188591 0.147774
0.341045 0.194796 0.150156
0.370492 0.201232 0.152858
0.401287 0.207451 0.155763
0.433728 0.213452 0.158805
0.467337 0.219032 0.161795
0.502391 0.223738 0.164573
0.539108 0.226873 0.166925
0.576658 0.227581 0.168453
0.616095 0.224312 0.169066
0.651440 0.215338 0.167621
0.686727 0.222847 0.169227
0.721560 0.230214 0.170622
0.754994 0.237307 0.171792
0.785634 0.243937 0.172741
0.811154 0.249741 0.173492
0.829774 0.254384 0.174077
0.840772 0.257526 0.174571
0.844801 0.258990 0.175010
0.845876 0.259390 0.175134
