public/luts/phone.cube
# framediff hero grade: FX3 fit with measured output gain for phone
# generated by gradefit.py
LUT_3D_SIZE 5
DOMAIN_MIN 0 0 0
DOMAIN_MAX 1 1 1
0.041967 0.035734 0.076390
0.289279 0.069666 0.086903
0.786923 0.244224 0.172779
0.845876 0.259390 0.175134
0.845876 0.259390 0.175134
0.121945 0.186552 0.165507
0.250845 0.211524 0.156578
0.784602 0.243706 0.172711
0.845876 0.259390 0.175134
0.845876 0.259390 0.175134
0.095456 0.421420 0.233554
0.095592 0.420702 0.233386
0.513954 0.519474 0.214456
0.760762 0.377527 0.192617
0.845876 0.259390 0.175134
0.088768 0.460909 0.243495
0.088768 0.460909 0.243495
0.088768 0.460909 0.243495
0.557872 0.567623 0.217861
0.559625 0.565424 0.217018
0.088768 0.460909 0.243495
0.088768 0.460909 0.243495
0.088768 0.460909 0.243495
0.088768 0.460909 0.243495
0.557872 0.567623 0.217861
0.078692 0.071910 0.306442
0.375995 0.183481 0.303253
0.832476 0.334127 0.323282
0.845876 0.259390 0.175134
0.845876 0.259390 0.175134
0.187146 0.273218 0.334790
0.283189 0.258812 0.292501
0.828530 0.328657 0.314328
0.845876 0.259390 0.175134
0.845876 0.259390 0.175134
0.104442 0.452899 0.294086
0.103338 0.447666 0.285460
0.513914 0.517826 0.214303
0.766506 0.371065 0.191756
0.845876 0.259390 0.175134
0.088768 0.460909 0.243495
0.088768 0.460909 0.243495
0.088768 0.460909 0.243495
0.557872 0.567623 0.217861
0.559789 0.565224 0.216943
0.088768 0.460909 0.243495
0.088768 0.460909 0.243495
0.088768 0.460909 0.243495
0.088768 0.460909 0.243495
0.557872 0.567623 0.217861
0.299664 0.283782 0.788189
0.299234 0.283366 0.787616
0.904738 0.576559 0.775406
0.931044 0.572313 0.729682
0.845876 0.259390 0.175134
0.298232 0.282398 0.786280
0.297800 0.281981 0.785704
0.903515 0.575113 0.773957
0.930874 0.571304 0.727923
0.845876 0.259390 0.175134
0.257996 0.722382 0.816012
0.258551 0.721136 0.815355
0.790756 0.797202 0.809766
0.928653 0.559207 0.706353
0.845876 0.259390 0.175134
0.147932 0.654331 0.600970
0.147662 0.653677 0.599779
0.144701 0.646263 0.586216
0.642851 0.649204 0.362368
0.562117 0.562615 0.216120
0.088768 0.460909 0.243495
0.088768 0.460909 0.243495
0.088768 0.460909 0.243495
0.088768 0.460909 0.243495
0.557872 0.567623 0.217861
0.494811 0.473274 0.938937
0.494811 0.473274 0.938937
0.773097 0.597618 0.891931
0.945445 0.674055 0.886439
0.945445 0.674055 0.886439
0.494811 0.473274 0.938937
0.494811 0.473274 0.938937
0.766149 0.595910 0.892054
0.945445 0.674055 0.886439
0.945445 0.674055 0.886439
0.494811 0.473274 0.938937
0.494811 0.473274 0.938937
0.627505 0.562551 0.906270
0.945445 0.674055 0.886439
0.945445 0.674055 0.886439
0.260208 0.858033 0.913421
0.260208 0.858033 0.913421
0.260208 0.858033 0.913421
0.888476 0.923185 0.906962
0.945445 0.674055 0.886439
0.260208 0.858033 0.913421
0.260208 0.858033 0.913421
0.260208 0.858033 0.913421
0.260208 0.858033 0.913421
0.856497 0.850266 0.734641
0.494811 0.473274 0.938937
0.494811 0.473274 0.938937
0.494811 0.473274 0.938937
0.944694 0.673163 0.886463
0.945445 0.674055 0.886439
0.494811 0.473274 0.938937
0.494811 0.473274 0.938937
0.494811 0.473274 0.938937
0.944618 0.673074 0.886466
0.945445 0.674055 0.886439
0.494811 0.473274 0.938937
0.494811 0.473274 0.938937
0.494811 0.473274 0.938937
0.943023 0.671399 0.886555
0.945445 0.674055 0.886439
0.494811 0.473274 0.938937
0.494811 0.473274 0.938937
0.494811 0.473274 0.938937
0.820901 0.610303 0.891012
0.945445 0.674055 0.886439
0.260208 0.858033 0.913421
0.260208 0.858033 0.913421
0.260208 0.858033 0.913421
0.260208 0.858033 0.913421
0.888476 0.923185 0.906962
