public/luts/phone.cube
# framediff hero grade: FX3 fit with measured output gain for phone
# generated by gradefit.py
LUT_3D_SIZE 9
DOMAIN_MIN 0 0 0
DOMAIN_MAX 1 1 1
0.041967 0.035734 0.076390
0.130093 0.035953 0.075901
0.289279 0.069666 0.086903
0.518026 0.182348 0.156495
0.786923 0.244224 0.172779
0.845876 0.259390 0.175134
0.845876 0.259390 0.175134
0.845876 0.259390 0.175134
0.845876 0.259390 0.175134
0.101107 0.106287 0.124318
0.124542 0.106106 0.125178
0.281571 0.137732 0.136810
0.516842 0.181911 0.156265
0.786600 0.244152 0.172769
0.845876 0.259390 0.175134
0.845876 0.259390 0.175134
0.845876 0.259390 0.175134
0.845876 0.259390 0.175134
0.121945 0.186552 0.165507
0.121852 0.185788 0.165206
0.250845 0.211524 0.156578
0.481222 0.258860 0.169736
0.784602 0.243706 0.172711
0.845876 0.259390 0.175134
0.845876 0.259390 0.175134
0.845876 0.259390 0.175134
0.845876 0.259390 0.175134
0.118976 0.294912 0.201709
0.119023 0.294583 0.201618
0.182569 0.320040 0.198803
0.388506 0.366900 0.195305
0.675454 0.395444 0.195125
0.816501 0.308950 0.183323
0.845876 0.259390 0.175134
0.845876 0.259390 0.175134
0.845876 0.259390 0.175134
0.095456 0.421420 0.233554
0.095475 0.421320 0.233530
0.095592 0.420702 0.233386
0.218830 0.470164 0.226321
0.513954 0.519474 0.214456
0.622298 0.510941 0.209676
0.760762 0.377527 0.192617
0.845876 0.259390 0.175134
0.845876 0.259390 0.175134
0.088768 0.460909 0.243495
0.088768 0.460909 0.243495
0.088768 0.460909 0.243495
0.088768 0.460909 0.243495
0.372241 0.539428 0.226834
0.557872 0.567623 0.217861
0.557872 0.567623 0.217861
0.661250 0.476656 0.205718
0.845876 0.259390 0.175134
0.088768 0.460909 0.243495
0.088768 0.460909 0.243495
0.088768 0.460909 0.243495
0.088768 0.460909 0.243495
0.088768 0.460909 0.243495
0.554591 0.567198 0.218126
0.557872 0.567623 0.217861
0.557872 0.567623 0.217861
0.559625 0.565424 0.217018
0.088768 0.460909 0.243495
0.088768 0.460909 0.243495
0.088768 0.460909 0.243495
0.088768 0.460909 0.243495
0.088768 0.460909 0.243495
0.088768 0.460909 0.243495
0.557872 0.567623 0.217861
0.557872 0.567623 0.217861
0.557872 0.567623 0.217861
0.088768 0.460909 0.243495
0.088768 0.460909 0.243495
0.088768 0.460909 0.243495
0.088768 0.460909 0.243495
0.088768 0.460909 0.243495
0.088768 0.460909 0.243495
0.088768 0.460909 0.243495
0.557872 0.567623 0.217861
0.557872 0.567623 0.217861
0.049181 0.043842 0.168952
0.133435 0.043456 0.162041
0.315743 0.101154 0.158057
0.535598 0.205631 0.192140
0.786733 0.244182 0.172773
0.845876 0.259390 0.175134
0.845876 0.259390 0.175134
0.845876 0.259390 0.175134
0.845876 0.259390 0.175134
0.112815 0.127094 0.176593
0.084703 0.085563 0.135202
0.292018 0.147695 0.172807
0.532655 0.203022 0.188312
0.786410 0.244110 0.172764
0.845876 0.259390 0.175134
0.845876 0.259390 0.175134
0.845876 0.259390 0.175134
0.845876 0.259390 0.175134
0.131668 0.206100 0.204503
0.131124 0.204587 0.202888
0.262036 0.217308 0.177746
0.481335 0.256968 0.169370
0.784412 0.243664 0.172706
0.845876 0.259390 0.175134
0.845876 0.259390 0.175134
0.845876 0.259390 0.175134
0.845876 0.259390 0.175134
0.119071 0.294257 0.201527
0.119118 0.293926 0.201436
0.181616 0.318942 0.198637
0.388343 0.366086 0.195108
0.675895 0.394695 0.195021
0.817833 0.307070 0.183058
0.845876 0.259390 0.175134
0.845876 0.259390 0.175134
0.845876 0.259390 0.175134
0.095493 0.421221 0.233507
0.095512 0.421120 0.233484
0.095630 0.420502 0.233339
0.218354 0.469812 0.226308
0.513948 0.519244 0.214435
0.622618 0.510665 0.209645
0.761585 0.376634 0.192497
0.845876 0.259390 0.175134
0.845876 0.259390 0.175134
0.088768 0.460909 0.243495
0.088768 0.460909 0.243495
0.088768 0.460909 0.243495
0.088768 0.460909 0.243495
0.371852 0.539363 0.226849
0.557872 0.567623 0.217861
0.557872 0.567623 0.217861
0.661674 0.476268 0.205671
0.845876 0.259390 0.175134
0.088768 0.460909 0.243495
0.088768 0.460909 0.243495
0.088768 0.460909 0.243495
0.088768 0.460909 0.243495
0.088768 0.460909 0.243495
0.554567 0.567195 0.218128
0.557872 0.567623 0.217861
0.557872 0.567623 0.217861
0.559648 0.565396 0.217007
0.088768 0.460909 0.243495
0.088768 0.460909 0.243495
0.088768 0.460909 0.243495
0.088768 0.460909 0.243495
0.088768 0.460909 0.243495
0.088768 0.460909 0.243495
0.557872 0.567623 0.217861
0.557872 0.567623 0.217861
0.557872 0.567623 0.217861
0.088768 0.460909 0.243495
0.088768 0.460909 0.243495
0.088768 0.460909 0.243495
0.088768 0.460909 0.243495
0.088768 0.460909 0.243495
0.088768 0.460909 0.243495
0.088768 0.460909 0.243495
0.557872 0.567623 0.217861
0.557872 0.567623 0.217861
0.078692 0.071910 0.306442
0.148215 0.082640 0.305207
0.375995 0.183481 0.303253
0.592304 0.279551 0.325716
0.832476 0.334127 0.323282
0.859568 0.298447 0.234182
0.845876 0.259390 0.175134
0.845876 0.259390 0.175134
0.845876 0.259390 0.175134
0.078403 0.071636 0.305306
0.132319 0.079216 0.304468
0.372240 0.180861 0.301762
0.590575 0.278585 0.324430
0.831939 0.333383 0.322067
0.859028 0.296894 0.231646
0.845876 0.259390 0.175134
0.845876 0.259390 0.175134
0.845876 0.259390 0.175134
0.187146 0.273218 0.334790
0.187010 0.272130 0.333997
0.283189 0.258812 0.292501
0.560143 0.330319 0.322922
0.828530 0.328657 0.314328
0.854859 0.284898 0.212064
0.845876 0.259390 0.175134
0.845876 0.259390 0.175134
0.845876 0.259390 0.175134
0.163159 0.378715 0.365003
0.163115 0.378142 0.364473
0.240946 0.398207 0.360852
0.507785 0.468145 0.328233
0.752822 0.478018 0.338692
0.826471 0.294308 0.181237
0.845876 0.259390 0.175134
0.845876 0.259390 0.175134
0.845876 0.259390 0.175134
0.104442 0.452899 0.294086
0.104302 0.452217 0.292973
0.103338 0.447666 0.285460
0.217320 0.470468 0.231138
0.513914 0.517826 0.214303
0.624597 0.508951 0.209455
0.766506 0.371065 0.191756
0.845876 0.259390 0.175134
0.845876 0.259390 0.175134
0.088768 0.460909 0.243495
0.088768 0.460909 0.243495
0.088768 0.460909 0.243495
0.088768 0.460909 0.243495
0.369444 0.538962 0.226945
0.557872 0.567623 0.217861
0.557872 0.567623 0.217861
0.664303 0.473854 0.205376
0.845876 0.259390 0.175134
0.088768 0.460909 0.243495
0.088768 0.460909 0.243495
0.088768 0.460909 0.243495
0.088768 0.460909 0.243495
0.088768 0.460909 0.243495
0.554418 0.567175 0.218139
0.557872 0.567623 0.217861
0.557872 0.567623 0.217861
0.559789 0.565224 0.216943
0.088768 0.460909 0.243495
0.088768 0.460909 0.243495
0.088768 0.460909 0.243495
0.088768 0.460909 0.243495
0.088768 0.460909 0.243495
0.088768 0.460909 0.243495
0.557872 0.567623 0.217861
0.557872 0.567623 0.217861
0.557872 0.567623 0.217861
0.088768 0.460909 0.243495
0.088768 0.460909 0.243495
0.088768 0.460909 0.243495
0.088768 0.460909 0.243495
0.088768 0.460909 0.243495
0.088768 0.460909 0.243495
0.088768 0.460909 0.243495
0.557872 0.567623 0.217861
0.557872 0.567623 0.217861
0.139788 0.130163 0.496917
0.139725 0.130103 0.496749
0.460414 0.303326 0.509650
0.663004 0.381086 0.514221
0.870075 0.438467 0.518727
0.903003 0.442340 0.493008
0.882522 0.369126 0.358651
0.845876 0.259390 0.175134
0.845876 0.259390 0.175134
0.139579 0.129963 0.496359
0.139516 0.129903 0.496190
0.456885 0.300951 0.509016
0.661671 0.380512 0.513598
0.869760 0.438081 0.518160
0.902918 0.442005 0.492390
0.882341 0.368538 0.357588
0.845876 0.259390 0.175134
0.845876 0.259390 0.175134
0.305228 0.357294 0.517558
0.305747 0.356310 0.517102
0.417464 0.369943 0.514350
0.650772 0.390539 0.515890
0.867802 0.435692 0.514647
0.902390 0.439925 0.488552
0.881202 0.364833 0.350880
0.845876 0.259390 0.175134
0.845876 0.259390 0.175134
0.237732 0.469554 0.551137
0.237840 0.469099 0.550838
0.291467 0.478554 0.549862
0.538611 0.513757 0.547510
0.833545 0.574691 0.558487
0.900692 0.433235 0.476205
0.877292 0.352124 0.327870
0.845876 0.259390 0.175134
0.845876 0.259390 0.175134
0.162420 0.593845 0.567804
0.162424 0.593630 0.567590
0.162446 0.592302 0.566269
0.355532 0.640260 0.567048
0.711234 0.702720 0.562481
0.812646 0.688086 0.529829
0.808733 0.391534 0.252134
0.845876 0.259390 0.175134
0.845876 0.259390 0.175134
0.115737 0.564201 0.434492
0.115678 0.564006 0.434129
0.115312 0.562794 0.431873
0.114133 0.558889 0.424609
0.450232 0.629550 0.393826
0.557872 0.567623 0.217861
0.557872 0.567623 0.217861
0.672778 0.466069 0.204422
0.845876 0.259390 0.175134
0.088768 0.460909 0.243495
0.088768 0.460909 0.243495
0.088768 0.460909 0.243495
0.088768 0.460909 0.243495
0.088768 0.460909 0.243495
0.553950 0.567114 0.218174
0.557872 0.567623 0.217861
0.557872 0.567623 0.217861
0.560233 0.564680 0.216742
0.088768 0.460909 0.243495
0.088768 0.460909 0.243495
0.088768 0.460909 0.243495
0.088768 0.460909 0.243495
0.088768 0.460909 0.243495
0.088768 0.460909 0.243495
0.557872 0.567623 0.217861
0.557872 0.567623 0.217861
0.557872 0.567623 0.217861
0.088768 0.460909 0.243495
0.088768 0.460909 0.243495
0.088768 0.460909 0.243495
0.088768 0.460909 0.243495
0.088768 0.460909 0.243495
0.088768 0.460909 0.243495
0.088768 0.460909 0.243495
0.557872 0.567623 0.217861
0.557872 0.567623 0.217861
0.299664 0.283782 0.788189
0.299603 0.283724 0.788109
0.299234 0.283366 0.787616
0.746279 0.522759 0.776128
0.904738 0.576559 0.775406
0.934842 0.594859 0.768976
0.931044 0.572313 0.729682
0.909294 0.467645 0.539672
0.845876 0.259390 0.175134
0.299464 0.283589 0.787923
0.299404 0.283531 0.787843
0.299034 0.283173 0.787349
0.745221 0.522405 0.775909
0.904576 0.576362 0.775211
0.934820 0.594732 0.768755
0.931021 0.572172 0.729437
0.909227 0.467361 0.539149
0.845876 0.259390 0.175134
0.298232 0.282398 0.786280
0.298172 0.282340 0.786199
0.297800 0.281981 0.785704
0.738602 0.520210 0.774561
0.903515 0.575113 0.773957
0.934689 0.593953 0.767397
0.930874 0.571304 0.727923
0.908813 0.465601 0.535908
0.845876 0.259390 0.175134
0.398342 0.571690 0.791473
0.398713 0.571201 0.791317
0.401025 0.568161 0.790345
0.651508 0.606401 0.790169
0.890254 0.631071 0.786456
0.934277 0.591504 0.763128
0.930350 0.568425 0.722801
0.907481 0.459981 0.525558
0.845876 0.259390 0.175134
0.257996 0.722382 0.816012
0.258074 0.722209 0.815920
0.258551 0.721136 0.815355
0.426707 0.747671 0.812388
0.790756 0.797202 0.809766
0.901325 0.812604 0.810844
0.928653 0.559207 0.706353
0.902723 0.441235 0.490969
0.845876 0.259390 0.175134
0.200376 0.766390 0.796697
0.200353 0.766350 0.796633
0.200218 0.766102 0.796240
0.199792 0.765328 0.795010
0.617474 0.834813 0.791306
0.869784 0.874140 0.787125
0.859826 0.855755 0.746405
0.801754 0.558803 0.406170
0.845876 0.259390 0.175134
0.147932 0.654331 0.600970
0.147894 0.654240 0.600803
0.147662 0.653677 0.599779
0.146928 0.651902 0.596549
0.144701 0.646263 0.586216
0.749825 0.752773 0.554742
0.642851 0.649204 0.362368
0.557872 0.567623 0.217861
0.562117 0.562615 0.216120
0.088768 0.460909 0.243495
0.088768 0.460909 0.243495
0.088768 0.460909 0.243495
0.088768 0.460909 0.243495
0.088768 0.460909 0.243495
0.088768 0.460909 0.243495
0.557872 0.567623 0.217861
0.557872 0.567623 0.217861
0.557872 0.567623 0.217861
0.088768 0.460909 0.243495
0.088768 0.460909 0.243495
0.088768 0.460909 0.243495
0.088768 0.460909 0.243495
0.088768 0.460909 0.243495
0.088768 0.460909 0.243495
0.088768 0.460909 0.243495
0.557872 0.567623 0.217861
0.557872 0.567623 0.217861
0.494811 0.473274 0.938937
0.494811 0.473274 0.938937
0.494811 0.473274 0.938937
0.667855 0.576237 0.894794
0.905229 0.644476 0.888661
0.945445 0.674055 0.886439
0.945445 0.674055 0.886439
0.945445 0.674055 0.886439
0.936333 0.604479 0.785207
0.494811 0.473274 0.938937
0.494811 0.473274 0.938937
0.494811 0.473274 0.938937
0.665849 0.575779 0.895198
0.905057 0.644381 0.888667
0.945445 0.674055 0.886439
0.945445 0.674055 0.886439
0.945445 0.674055 0.886439
0.936316 0.604368 0.785021
0.494811 0.473274 0.938937
0.494811 0.473274 0.938937
0.494811 0.473274 0.938937
0.651780 0.572206 0.898375
0.903991 0.643794 0.888705
0.945445 0.674055 0.886439
0.945445 0.674055 0.886439
0.945445 0.674055 0.886439
0.936211 0.603687 0.783875
0.494811 0.473274 0.938937
0.494811 0.473274 0.938937
0.494811 0.473274 0.938937
0.494811 0.473274 0.938937
0.900613 0.641935 0.888825
0.945445 0.674055 0.886439
0.945445 0.674055 0.886439
0.945445 0.674055 0.886439
0.935882 0.601546 0.780275
0.383362 0.744320 0.906385
0.383580 0.744117 0.906370
0.384926 0.742862 0.906280
0.389200 0.738878 0.905994
0.823041 0.801419 0.901494
0.928733 0.786664 0.895153
0.945445 0.674055 0.886439
0.945445 0.674055 0.886439
0.934816 0.594708 0.768713
0.260208 0.858033 0.913421
0.260208 0.858033 0.913421
0.260208 0.858033 0.913421
0.260208 0.858033 0.913421
0.595357 0.893366 0.910161
0.888476 0.923185 0.906962
0.888565 0.922884 0.906929
0.945445 0.674055 0.886439
0.930683 0.570231 0.726025
0.260208 0.858033 0.913421
0.260208 0.858033 0.913421
0.260208 0.858033 0.913421
0.260208 0.858033 0.913421
0.260208 0.858033 0.913421
0.877719 0.921733 0.907115
0.888474 0.923181 0.906952
0.887099 0.919874 0.899550
0.834503 0.774264 0.619744
0.206558 0.777653 0.814590
0.206537 0.777615 0.814530
0.206409 0.777381 0.814159
0.206010 0.776651 0.812999
0.204767 0.774384 0.809397
0.200833 0.767223 0.798020
0.866248 0.866342 0.769092
0.735458 0.735255 0.520430
0.557872 0.567623 0.217861
0.088768 0.460909 0.243495
0.088768 0.460909 0.243495
0.088768 0.460909 0.243495
0.088768 0.460909 0.243495
0.088768 0.460909 0.243495
0.088768 0.460909 0.243495
0.088768 0.460909 0.243495
0.557872 0.567623 0.217861
0.557872 0.567623 0.217861
0.494811 0.473274 0.938937
0.494811 0.473274 0.938937
0.494811 0.473274 0.938937
0.494811 0.473274 0.938937
0.773097 0.597618 0.891931
0.945445 0.674055 0.886439
0.945445 0.674055 0.886439
0.945445 0.674055 0.886439
0.945445 0.674055 0.886439
0.494811 0.473274 0.938937
0.494811 0.473274 0.938937
0.494811 0.473274 0.938937
0.494811 0.473274 0.938937
0.772147 0.597385 0.891948
0.945445 0.674055 0.886439
0.945445 0.674055 0.886439
0.945445 0.674055 0.886439
0.945445 0.674055 0.886439
0.494811 0.473274 0.938937
0.494811 0.473274 0.938937
0.494811 0.473274 0.938937
0.494811 0.473274 0.938937
0.766149 0.595910 0.892054
0.945445 0.674055 0.886439
0.945445 0.674055 0.886439
0.945445 0.674055 0.886439
0.945445 0.674055 0.886439
0.494811 0.473274 0.938937
0.494811 0.473274 0.938937
0.494811 0.473274 0.938937
0.494811 0.473274 0.938937
0.743717 0.591067 0.892395
0.945445 0.674055 0.886439
0.945445 0.674055 0.886439
0.945445 0.674055 0.886439
0.945445 0.674055 0.886439
0.494811 0.473274 0.938937
0.494811 0.473274 0.938937
0.494811 0.473274 0.938937
0.494811 0.473274 0.938937
0.627505 0.562551 0.906270
0.945445 0.674055 0.886439
0.945445 0.674055 0.886439
0.945445 0.674055 0.886439
0.945445 0.674055 0.886439
0.270635 0.849188 0.913032
0.270679 0.849152 0.913030
0.270947 0.848926 0.913020
0.271852 0.848154 0.912985
0.275524 0.844918 0.912836
0.894381 0.911777 0.906145
0.909940 0.870702 0.902480
0.945445 0.674055 0.886439
0.945445 0.674055 0.886439
0.260208 0.858033 0.913421
0.260208 0.858033 0.913421
0.260208 0.858033 0.913421
0.260208 0.858033 0.913421
0.260208 0.858033 0.913421
0.811980 0.914400 0.907888
0.888476 0.923185 0.906962
0.888476 0.923185 0.906962
0.945445 0.674055 0.886439
0.260208 0.858033 0.913421
0.260208 0.858033 0.913421
0.260208 0.858033 0.913421
0.260208 0.858033 0.913421
0.260208 0.858033 0.913421
0.260208 0.858033 0.913421
0.888476 0.923185 0.906962
0.888476 0.923185 0.906962
0.888476 0.923185 0.906962
0.260208 0.858033 0.913421
0.260208 0.858033 0.913421
0.260208 0.858033 0.913421
0.260208 0.858033 0.913421
0.260208 0.858033 0.913421
0.260208 0.858033 0.913421
0.260208 0.858033 0.913421
0.888177 0.922427 0.905303
0.856497 0.850266 0.734641
0.494811 0.473274 0.938937
0.494811 0.473274 0.938937
0.494811 0.473274 0.938937
0.494811 0.473274 0.938937
0.494811 0.473274 0.938937
0.882007 0.632724 0.889418
0.945445 0.674055 0.886439
0.945445 0.674055 0.886439
0.945445 0.674055 0.886439
0.494811 0.473274 0.938937
0.494811 0.473274 0.938937
0.494811 0.473274 0.938937
0.494811 0.473274 0.938937
0.494811 0.473274 0.938937
0.881725 0.632604 0.889426
0.945445 0.674055 0.886439
0.945445 0.674055 0.886439
0.945445 0.674055 0.886439
0.494811 0.473274 0.938937
0.494811 0.473274 0.938937
0.494811 0.473274 0.938937
0.494811 0.473274 0.938937
0.494811 0.473274 0.938937
0.879976 0.631862 0.889476
0.945445 0.674055 0.886439
0.945445 0.674055 0.886439
0.945445 0.674055 0.886439
0.494811 0.473274 0.938937
0.494811 0.473274 0.938937
0.494811 0.473274 0.938937
0.494811 0.473274 0.938937
0.494811 0.473274 0.938937
0.874376 0.629486 0.889638
0.945445 0.674055 0.886439
0.945445 0.674055 0.886439
0.945445 0.674055 0.886439
0.494811 0.473274 0.938937
0.494811 0.473274 0.938937
0.494811 0.473274 0.938937
0.494811 0.473274 0.938937
0.494811 0.473274 0.938937
0.854258 0.621507 0.890193
0.945445 0.674055 0.886439
0.945445 0.674055 0.886439
0.945445 0.674055 0.886439
0.494811 0.473274 0.938937
0.494811 0.473274 0.938937
0.494811 0.473274 0.938937
0.494811 0.473274 0.938937
0.494811 0.473274 0.938937
0.710268 0.584357 0.892851
0.945445 0.674055 0.886439
0.945445 0.674055 0.886439
0.945445 0.674055 0.886439
0.260208 0.858033 0.913421
0.260208 0.858033 0.913421
0.260208 0.858033 0.913421
0.260208 0.858033 0.913421
0.260208 0.858033 0.913421
0.260208 0.858033 0.913421
0.888476 0.923185 0.906962
0.888476 0.923185 0.906962
0.945445 0.674055 0.886439
0.260208 0.858033 0.913421
0.260208 0.858033 0.913421
0.260208 0.858033 0.913421
0.260208 0.858033 0.913421
0.260208 0.858033 0.913421
0.260208 0.858033 0.913421
0.888476 0.923185 0.906962
0.888476 0.923185 0.906962
0.888476 0.923185 0.906962
0.260208 0.858033 0.913421
0.260208 0.858033 0.913421
0.260208 0.858033 0.913421
0.260208 0.858033 0.913421
0.260208 0.858033 0.913421
0.260208 0.858033 0.913421
0.260208 0.858033 0.913421
0.888476 0.923185 0.906962
0.888476 0.923185 0.906962
0.494811 0.473274 0.938937
0.494811 0.473274 0.938937
0.494811 0.473274 0.938937
0.494811 0.473274 0.938937
0.494811 0.473274 0.938937
0.494811 0.473274 0.938937
0.944694 0.673163 0.886463
0.945445 0.674055 0.886439
0.945445 0.674055 0.886439
0.494811 0.473274 0.938937
0.494811 0.473274 0.938937
0.494811 0.473274 0.938937
0.494811 0.473274 0.938937
0.494811 0.473274 0.938937
0.494811 0.473274 0.938937
0.944684 0.673152 0.886463
0.945445 0.674055 0.886439
0.945445 0.674055 0.886439
0.494811 0.473274 0.938937
0.494811 0.473274 0.938937
0.494811 0.473274 0.938937
0.494811 0.473274 0.938937
0.494811 0.473274 0.938937
0.494811 0.473274 0.938937
0.944618 0.673074 0.886466
0.945445 0.674055 0.886439
0.945445 0.674055 0.886439
0.494811 0.473274 0.938937
0.494811 0.473274 0.938937
0.494811 0.473274 0.938937
0.494811 0.473274 0.938937
0.494811 0.473274 0.938937
0.494811 0.473274 0.938937
0.944395 0.672808 0.886474
0.945445 0.674055 0.886439
0.945445 0.674055 0.886439
0.494811 0.473274 0.938937
0.494811 0.473274 0.938937
0.494811 0.473274 0.938937
0.494811 0.473274 0.938937
0.494811 0.473274 0.938937
0.494811 0.473274 0.938937
0.943023 0.671399 0.886555
0.945445 0.674055 0.886439
0.945445 0.674055 0.886439
0.494811 0.473274 0.938937
0.494811 0.473274 0.938937
0.494811 0.473274 0.938937
0.494811 0.473274 0.938937
0.494811 0.473274 0.938937
0.494811 0.473274 0.938937
0.936079 0.664956 0.886996
0.945445 0.674055 0.886439
0.945445 0.674055 0.886439
0.494811 0.473274 0.938937
0.494811 0.473274 0.938937
0.494811 0.473274 0.938937
0.494811 0.473274 0.938937
0.494811 0.473274 0.938937
0.494811 0.473274 0.938937
0.820901 0.610303 0.891012
0.945445 0.674055 0.886439
0.945445 0.674055 0.886439
0.260208 0.858033 0.913421
0.260208 0.858033 0.913421
0.260208 0.858033 0.913421
0.260208 0.858033 0.913421
0.260208 0.858033 0.913421
0.260208 0.858033 0.913421
0.260208 0.858033 0.913421
0.888476 0.923185 0.906962
0.888476 0.923185 0.906962
0.260208 0.858033 0.913421
0.260208 0.858033 0.913421
0.260208 0.858033 0.913421
0.260208 0.858033 0.913421
0.260208 0.858033 0.913421
0.260208 0.858033 0.913421
0.260208 0.858033 0.913421
0.888476 0.923185 0.906962
0.888476 0.923185 0.906962
